/* XPM */
static char *sface-0[] = {
/* columns rows colors chars-per-pixel */
"32 32 9 1",
"  c black",
". c navy",
"X c blue",
"o c #808000",
"O c yellow",
"+ c #808080",
"@ c #C0C0C0",
"# c gray100",
"$ c None",
/* pixels */
"$$$$$$$$$$$$$$$$$$  $$$$$$$$$$$$",
"$$$$$$$$$$$$$$$$  OO $$$$$$$$$$$",
"$$$$$$$$$$$$$   OOOOO $$$$$$$$$$",
"$$$$$$$$$$   OOOOOOOOO $$$$$$$$$",
"$$$$$$$$  OOOOOOOOooOOO $$$$$$$$",
"$$$$$   OOOOOOOOoooooOOO $$$$$$$",
"$$   OOOOOOOOOoooooo oOOO $$$$$$",
"$$ OOOOOOOOOoooooo  # oOOO $$$$$",
"$$$ oooooooooooo  #### oOOO $$$$",
"$$$$      oooo  ###XX## oOOO $$$",
"$$$ ####@@ o  ###XX##### oOOO $$",
"$   #####@@ @##XX####XX## oOOO $",
"$$ O #####@@ @#####XX##### oOOO ",
"$$$ O #####@@ @##XX####XX## oO $",
"$  . O #####@@ @#####XX#####  $$",
" XX.. O #####@@ @##XX####XX## $$",
"$ XX.. O #####@@ @#####XX##### $",
"$$ XX.. O #####@@ @##XX#####   $",
"$$$ XX.. O #####@@ @######  ++ $",
"$$$$ XX.. O ###     @###  ++@@  ",
"$$$$$ XX.. O   ++++ @@  ++@@  $$",
"$$$$$$ XX..           ++@@  ..$$",
"$$$$$$$ XX....... O ++@@  ...X $",
"$$$$$$$$ XX.......  @@  ...XXXX ",
"$$$$$$$$$ XXXXXXX..   ...XXXXX  ",
"$$$$$$$$$$ XXXXXXX.....XXXXX  $$",
"$$$$$$$$$$$ XXXXXXX..XXXXX  $$$$",
"$$$$$$$$$$$$ XXXXXXXXXXX  $$$$$$",
"$$$$$$$$$$$$$ XXXXXXXX  $$$$$$$$",
"$$$$$$$$$$$$$$ XXXXX  $$$$$$$$$$",
"$$$$$$$$$$$$$$$ XX  $$$$$$$$$$$$",
"$$$$$$$$$$$$$$$$  $$$$$$$$$$$$$$"
};
