/* XPM */
/* C:\Program Files\THQ\Dawn of War - Dark Crusade\GraphicsConfig.exe */
static char *icon[] = {
"32 32 251 2",
"00 c #000000",
"02 c #140203",
"03 c #0D0102",
"04 c #1E0105",
"05 c #160709",
"06 c #43181E",
"07 c #2A2223",
"08 c #1A0105",
"09 c #160104",
"0A c #270208",
"0B c #440B14",
"0C c #1A0508",
"0D c #6E1B27",
"0E c #1C0005",
"0F c #110003",
"10 c #680D1E",
"11 c #100406",
"12 c #865961",
"13 c #9B001F",
"14 c #96001E",
"15 c #94001E",
"16 c #93001D",
"17 c #91001D",
"18 c #8E001D",
"19 c #8B001C",
"1A c #86001B",
"1B c #7D001A",
"1C c #7A0018",
"1D c #770017",
"1E c #520011",
"1F c #49000F",
"20 c #46000E",
"21 c #38000B",
"22 c #34000A",
"23 c #240007",
"24 c #230007",
"25 c #1F0006",
"26 c #1D0006",
"27 c #88011B",
"29 c #81011A",
"2A c #6D0116",
"2B c #680116",
"2C c #610115",
"2D c #5D0113",
"2E c #590113",
"30 c #41010E",
"32 c #3D010D",
"33 c #3A010C",
"34 c #2C010A",
"35 c #75041B",
"36 c #80051E",
"37 c #970925",
"39 c #810921",
"3A c #8B0B23",
"3B c #960D28",
"3C c #740A1F",
"3D c #980E29",
"3E c #870E25",
"3F c #8E0F28",
"40 c #97132D",
"41 c #7D1025",
"42 c #A41734",
"43 c #991B33",
"44 c #861B31",
"45 c #9B243B",
"46 c #070203",
"47 c #883042",
"48 c #A70027",
"49 c #93001F",
"4A c #710018",
"4B c #7B011C",
"4C c #9E0224",
"4D c #960323",
"4E c #8E0322",
"4F c #20040A",
"50 c #AE2544",
"51 c #772235",
"52 c #A7324B",
"53 c #5A1B29",
"54 c #7F3647",
"55 c #8C4655",
"56 c #B7002F",
"57 c #080002",
"58 c #BF0430",
"59 c #BF1B45",
"5A c #B6294C",
"5B c #D85C7A",
"5C c #646061",
"5D c #878384",
"5E c #C90037",
"5F c #D4033C",
"60 c #D12151",
"61 c #DC3D68",
"62 c #C9375D",
"63 c #474345",
"64 c #666465",
"65 c #9D9B9C",
"66 c #1D161A",
"67 c #382B33",
"68 c #030002",
"69 c #2E2A2D",
"6A c #211D21",
"6B c #8A888A",
"6C c #E8E7E8",
"6D c #DAD9DA",
"6E c #BAB9BA",
"6F c #9D9C9D",
"70 c #79717A",
"71 c #5B595C",
"72 c #151317",
"73 c #0D0C0E",
"74 c #504E52",
"75 c #8A8991",
"77 c #060607",
"78 c #AAAAAD",
"79 c #D6D6D8",
"7A c #7D7D7E",
"7B c #757576",
"7C c #AFAFB0",
"7D c #A9A9AA",
"7E c #8A8A8B",
"7F c #878788",
"80 c #838384",
"81 c #666771",
"82 c #A2A3AA",
"83 c #70727E",
"84 c #989AA7",
"85 c #A8AAB2",
"86 c #C2C4CB",
"87 c #C8CAD0",
"88 c #98999C",
"89 c #A7A8AB",
"8A c #E6E7E9",
"8B c #93969B",
"8C c #DCDFE3",
"8D c #4F5358",
"8E c #C9CCCF",
"8F c #EEF1F4",
"90 c #F5F7F9",
"91 c #6A6B6C",
"92 c #98999A",
"93 c #E3E4E5",
"94 c #C7C8C9",
"95 c #B0B8BE",
"96 c #5D5F60",
"97 c #797B7C",
"98 c #EBEDEE",
"99 c #E7EEF1",
"9A c #96999A",
"9B c #666A6B",
"9C c #DEE2E3",
"9D c #D6DADB",
"9E c #E5E7E6",
"9F c #D1D2D1",
"A0 c #999A99",
"A1 c #E7E7E5",
"A2 c #F0F0EF",
"A3 c #E8E8E7",
"A4 c #E7E7E6",
"A5 c #E5E5E4",
"A6 c #E3E3E2",
"A7 c #DDDDDC",
"A8 c #D9D9D8",
"A9 c #D4D4D3",
"AA c #BBBBBA",
"AB c #B8B8B7",
"AC c #B4B4B3",
"AD c #B2B2B1",
"AE c #B1B1B0",
"AF c #AFAFAE",
"B0 c #A0A09F",
"B1 c #999998",
"B2 c #67645E",
"B3 c #868583",
"B4 c #9D9994",
"B5 c #E1E0DF",
"B6 c #D1D0CF",
"B7 c #C5C4C3",
"B8 c #766D68",
"B9 c #4C423D",
"BA c #635D5A",
"BB c #9D9591",
"BC c #A8A4A2",
"BD c #555352",
"BE c #BAB6B4",
"BF c #392F2B",
"C0 c #534E4C",
"C1 c #352F2D",
"C2 c #747170",
"C3 c #898685",
"C4 c #827F7E",
"C5 c #17100E",
"C6 c #0C0402",
"C7 c #221E1D",
"C8 c #1C1311",
"C9 c #3E3938",
"CA c #6F6867",
"CB c #100807",
"CC c #160403",
"CD c #44302F",
"CE c #060000",
"CF c #050000",
"D0 c #020000",
"D1 c #010000",
"D2 c #0B0202",
"D3 c #0C0505",
"D4 c #0A0505",
"D5 c #130D0D",
"D6 c #4E4949",
"D7 c #1F1D1D",
"D8 c #7C7A7A",
"D9 c #A9A7A7",
"DA c #959393",
"DB c #D9D7D7",
"DC c #C5C3C3",
"DD c #ECEBEB",
"DE c #E8E7E7",
"DF c #E6E5E5",
"E0 c #E0DFDF",
"E1 c #DBDADA",
"E2 c #DAD9D9",
"E3 c #BDBCBC",
"E4 c #B4B3B3",
"E5 c #ADACAC",
"E6 c #A3A2A2",
"E7 c #868585",
"E8 c #828181",
"E9 c #F9F9F9",
"EA c #F4F4F4",
"EB c #EEEEEE",
"EC c #ECECEC",
"ED c #EAEAEA",
"EE c #E1E1E1",
"EF c #DEDEDE",
"F0 c #D6D6D6",
"F1 c #CECECE",
"F2 c #CCCCCC",
"F3 c #CACACA",
"F4 c #C6C6C6",
"F5 c #C1C1C1",
"F6 c #BEBEBE",
"F7 c #B6B6B6",
"F8 c #A6A6A6",
"F9 c #9B9B9B",
"FA c #979797",
"FB c #909090",
"FC c #8D8D8D",
"FD c #797979",
"FE c #040404",
"FF c #030303",
"   c None",
"                        1D4C565E5F5E5813                        ",
"                  2E4E4D4D494917151348565E5F42                  ",
"              324A4B412919183E3A3A3F43434342626152              ",
"            1F2B2B3C271D0BBF63719671D6BFCD1245505B5B            ",
"          302E2D3C2B2207C37CF6949FEF9379DA670645435B5B          ",
"        211F1E2C30116489F5F3F2F0A7EEA1DDEA8C81CC0D16505B        ",
"      34301F1E34CF5CF8AFAAF5F39F6DB5A6A3DDA2998D5710145960      ",
"    0C21302D0ACFC17E657DF76EF4B6F0A7EEA4DDEBEA8C630F4114594E    ",
"    34222E3000667BFBA0D9AEABB7F2A9E1B5DFEDECEBE987660E3B4C5F    ",
"  0534332A57D0C97F7FB1F8E5E4F5F39FA8EFA6A4EDEBEA9071000B375613  ",
"  25342A32D057D6E780DAE6F8AEF6F4F1F0A7A69EEDEBA2E989D157474C5F  ",
"  23341C03D046BD7AE8FBB0E6E5E3DCF2A9E2EEA5A3DDEBE9F4CE0006405E  ",
"0F23342C00D046BD7AE8FB6F6FE56EF5F39FA8EFA5A4EDEBE9F6D0D04F43564C",
"09232E30D1D0CFD67A7AFCB1F97DF7F6949FDBA7A6DFEDA2E9AFFE5703404858",
"0823350CD0D000C9FDD87EDAB1F8ACE3DCF1F0E2EEA5A1EAEDDAD0CE68414C5F",
"26235146D0D0D0C5647A6BFBA0F8E4AAB7F1A9A8B5A5EDDEBEC4D0CE6841145F",
"262447C668D0CFD007C27EFBB1F8ADAADCF2A9A8E06C8FDAC3C4CFCFD13C1560",
"0E2454CBCFD0CFCFCF71B37F92D97CF7F5F3B66D8AEF9E826BC4CECFD1411760",
"252455D5D0D0CFD46991C1BFFC787CF7F6F379B6B4C9B89886C4CECE00391660",
"252444D500CFD0C5917146D0BFC4E6F7F5B7BCD60346C0EC9C5DCECFD1291660",
"25233E7700D0D0D4BD9BD50000C8CA6E946E5C075777C4E98EE8CED0001A1660",
"25233DFFD1D1D0D1C17B7469716B7D9AB2AB9F947570F09D65C4CF000019155A",
"25233BD1FF00D0D0D5647EFCF9D97C6300C2F0DB93EA8FB3E7E8D1000019145A",
"0E233BD100D1D0CFD007C0BAFAF89BCE00076EA8F5C3D8C9C3C400000019155A",
"082337D100D1D0CF68000069A09A6A638166D8EE8BD4D7C15DD80000001A145A",
"092337FF0000FF00D0CFD1C9FA888378948478E18572C7C9E8FD0000004A145A",
"0F234DFF0000007700D1D1637BB9C4D8BAD9F8BB95C7D7C9E8FD0000002A165A",
"03244DFF0000000077FE0069D6D3BA9BD2B897C0E8D5D7D6E8FDD100001C1450",
"D2253573D100000000FE7273CF00C8C7D0C8C8CFCB69C9697B91FE0000291450",
"57023040181B1C1C1B19193F44515353535353515447363639391A17191A1450",
"CF570422212132301F1E1E2D2C2B2A4A1D1B291A271917151414141414141452",
"CECED202080A22213230201F1E1E2E2D2C2B2B2A2A4A1D1C1C1C1C1C1B1B1B47"};
