/* XPM */
static char *FullTiltPoker[] = {
/* columns rows colors chars-per-pixel */
"48 48 14 1",
"  c #080708",
". c #423E40",
"X c #575555",
"o c #4C2F33",
"O c #A21621",
"+ c #A05F66",
"@ c #CF0C26",
"# c #C04153",
"$ c #A8A3A3",
"% c #D5A4A9",
"& c #C1BFC1",
"* c #EFEFEE",
"= c #BBD3CF",
"- c #928283",
/* pixels */
"************************************************",
"**&$&&&&&$&&&&&$&&&&$$&&&&&$&&&&&$&&&&&$&&$&****",
"&-........................................X.X=**",
"$                                            $**",
".                                            X**",
"                                             X=*",
"                                             .&*",
"                                             .$*",
"           ..          o      o              .&*",
"        .---X. XX..XX. X$X   .$X.            .&*",
"       .$*=*=$o&*$-**X.==$o  $*=X            .&*",
"       .X**=$Xo=*&X**-.**$.  &*=-            .&*",
"        $**=$X =*$X**XX=*-. o$*=X            .$*",
"        -****$.=*$X**X.=*-.  $*=X            .&*",
"       o-**$X. =**$**-.=*=$X $**=-..         .&*",
"        X**-   =****=X.=***$.-***=-XX-X      .&*",
"    ooooX$$Xooo+$$$$+oo$+$$-oX+-$$+oX+XooooooX&*",
"   o+###OOOOO#OOOOOOOOOOoO++OOO+-XOO+O#O#O##+X&*",
"   o##@@@@@@@@@@@@@@@##@#%**O@#%*%###@@@@@@#o.&*",
"     #@@@@@@@O@@OO#%&*%O#**%O@%*****%O@@@##. .&*",
"     .O@O@@O##%%%%****%O#**&O#%*****-@@@##o  .&*",
"      X####%%*%******=-O%**&O%****=$#@@#X.   .&*",
"      X%%*********&&--#O#**&O&***%+O@@#X     .$*",
"     o&*********=+OOO+#O%**$O%**=#O@@#X      .&*",
"     .&***=$$***-O@#%*$O%**&OO&*&#@#oo       .&*",
"     o--XX#O#&**+O@+**%O%**%OO%**$%+.        .&*",
"      .  oO@#***%O@+**%O%**$@#*****$         .&*",
"          +@#***#O@#**$O%**$O#*****X         .&*",
"           O%***+O@%**-O***$O@%**=-.         .&*",
"           o%***+O@+**-O**&+@@+X.            .$*",
"            +***+O@%**-O%$+#O+o              X&*",
"            X***+O@%%-#O#@OO+$X XX. .o.XX.XX .$*",
"            X**&#@@O+O@@@@OoX=-X-=XX$XX=-.$=..$*",
"            .$$+@@@@@O@@##o  $-XX-.$$X -X X=..$*",
"               O#@@@O@@@+o  .&$XX..$&X $X -=..$*",
"               .#@@@@@##o   .=X.X..$=X =-.-*..&*",
"                o#@@@#Xo    X$..-X.-=X =X.-*..$*",
"                o+@@#.o     .X .$=.-$X -X.X=..$*",
"                 o##.       .X .-=..XX.$-.X-..&*",
"                 oXoo            .  .  ..    .&*",
"                                             .&*",
"                                             .=*",
".                                            X**",
"X.                                           $**",
"=X                                          X=**",
"*&X.                                       X&***",
"**=$......................................$&****",
"****=&&&&&&&&&&&&&&&&&&&&&&&&&&=&&&&&&&&&=******"
};
