/* XPM */
/* c:\Program Files\GUILD WARS\Gw.exe */
static char *icon[] = {
"48 48 60 2",
"00 c #FFFFFF",
"01 c #FFFFCC",
"02 c #FFFF99",
"08 c #FFCC99",
"2A c #CCCCFF",
"2B c #CCCCCC",
"2C c #CCCC99",
"2D c #CCCC66",
"33 c #CC9966",
"56 c #999999",
"57 c #999966",
"5C c #996699",
"5D c #996666",
"5E c #996633",
"81 c #666666",
"82 c #666633",
"88 c #663333",
"AB c #333366",
"AC c #333333",
"D7 c #000000",
"D8 c #010001",
"D9 c #383639",
"DA c #3D3B3E",
"DB c #434144",
"DC c #0D0C0E",
"DD c #504E53",
"DE c #575460",
"DF c #2A292D",
"E0 c #5F5C69",
"E1 c #1D1C22",
"E2 c #010102",
"E3 c #020203",
"E4 c #070709",
"E5 c #040405",
"E6 c #171718",
"E7 c #020201",
"E8 c #EAE8D4",
"E9 c #DDD8B7",
"EA c #7C7868",
"EB c #9D9884",
"EC c #AFAB9C",
"ED c #8D8877",
"EE c #736950",
"EF c #8A7345",
"F0 c #080705",
"F1 c #6A5A3E",
"F2 c #5F4E33",
"F3 c #4D3F2C",
"F4 c #6D6A66",
"F5 c #2F2821",
"F6 c #5A5754",
"F7 c #7A7774",
"F8 c #83817F",
"F9 c #BAB9B8",
"FA c #625F5D",
"FB c #8F8C8A",
"FC c #4C4948",
"FD c #736F6E",
"FE c #060606",
"   c None",
"              F956F48156                                                ECF481FBF9              ",
"          ECF8DEF681FAE0FDF9                  EC56F9                F9F7E0818181DDF7EC          ",
"      5681F7FDF6D9DBDAF6DEFDF8F9      F956F7ED2AE856FD56F9        FBFDE0DEDAFCD9DDFDF78156      ",
"      F8F8ECFDDAD9ACD9D9DAFAFDF456FBFBEBEDF4E90000E8EEEDEBFBFB56F4FD81DBDAD9ACD9D9FAECEDF7      ",
"      F7EA8181ACACACACDADADADD8156E9E8E9EBF4E80000E8F7EDE9E8E9ECF7DEDBDADAD9ACACACFAF4EAF7      ",
"      FDEDF6DADBD9DADADBDBDADBE0F82BE8E9EB81E8000000EAEDE9E8E8F8E0DBDBDADBDADADADADBFCEDF4      ",
"      FDF4FAD9D9DBDADBDAD9D9DADDF6ECE8E8EBFAE8000000F4F8E9E8F9E0DDDBD9D9DADBDBFCD9ACFAF4F4      ",
"      FDEADADBD9D9DBDAF2F1F3ACDBDDED2CE9ED81E8000000FDF7E9E9EBDDFCD9F3F1F1DADBD9D9FCDAF4F7      ",
"      F7EDDBACFCD9D9FCEFEFF188F3DADEEC2CEBFAE8000100EEED2C2C81FCF3F3F1EFEFF6D9D9DBD9D9EDEA      ",
"      FDF7F6ACACDDD9EA57EFF2F2F3F2F1EA2CEDFAE80101E8EAEA2CF8F6F2F2F2F2EFEF57DADDDAACFCF7FD      ",
"      F4F6FCDAD9D9EE335EF2F2F1EFEFEFF6EDEDF6E90101E981F7EDF1EFEF5EF1F2F2EF33EADAACDAFCF6FA      ",
"      FDDDACACFCDAEAEFF1F3F25E825EEFF2FAEAF62C0102E981EAF4F2EFEF825EF2F3F2EF57DBFCD9ACFC81      ",
"      FDEADADFD9F6EFEEF7ACF3F3F28282F282EAF42C0101E9EAEA82F38282F2F3F3F5F7EEEFF1DBDFACFDF4      ",
"      F4F4FCACDFEEEFEAF7FAEDEBEFF182F2FCFAF62B0101E8F6FADDF2F1F2EFEBEBEEF4F8EFEFACDFDBEA81      ",
"      FDF6DFDFF22DEFF6FAF1ECE9E9E9E8E82BECF7E80101E8EDFB2BE8E8E9E9E9ECFAF6DEF12DEEACACFC81      ",
"      F7FDDBACEC08F2F6FAFCF4EDEC2CE8010001E8E9E801E9E8010001E92CECF7EEFCF6F6DB332CD9D9FDFD      ",
"      ECE0DEED08EFDDFAF6D9DBF6F7FBEB2CE92CF902010002F92C2CF9ECEDEAF6DBDFFCF6FCEE2DEBDDE056      ",
"        F8F4E92DF2DDFCDAE1E3DCE6F5DBDEF4FBECE90100E9ECFBF4F6ACF5E6F0DCDFACDBFCF35D08EAFD        ",
"        F95D2CEE81DDD9ACE4D7D7D7D7D7E3E4E1FAEBE801ECFCDCD8D7D7D7D7D7E4E1DFDFDBF6EE57EDEC        ",
"        EB2CEF8881DDACDFE2D7D7D7D7D7D7D7D7E5EEE800F1D7D7D7D7D7D7D7D7D7E1DFDFDAF6F3EE33F8        ",
"        ED33F1FDDEDDDAE1D7D7D7D7D7D7D7D7D7D7E4EC2CF0D7D7D7D7D7D7D7D7D7DCACACDBFCF6F3EFEDF9      ",
"      FBEFF2FCF4F6DBDAE4D7D7D7D7D7D7D7D7D7D7D7E7E7D7D7D7D7D7D7D7D7D7D7E4DFD9DAFCFADBF382F7      ",
"      F4F3F5ACDADDDBE1D7D7D7D7D7D7D7D7D7D7D7D7D7D7D7D7D7D7D7D7D7D7D7D7E2DFD9D9DAD9F5F5F3F6      ",
"      F9F2F3D981DEF6DFD7D7D7D7D7D7D7D7D7D7D7D7D7D7D7D7D7D7D7D7D7D7D7D7D7E6DBFCFCF6D9F5F556      ",
"        F8DAD9FDEC2BF9EEFED7D7D7D7D7D7D7D7D7D7D7D7D7D7D7D7D7D7D7D7D7D7DCF4EC2CEBFDACF3FD        ",
"          F4DADADEF4EBECEBDFD7D7D7D7D7D7D7D7D7D7D7D7D7D7D7D7D7D7D7D7ACEBECEDF4F6D9F5DDF9        ",
"          F9FCFCDDDDDE81562BF7E7D7D7D7D7D7D7D7D7D7D7D7D7D7D7D7D7D8EAE9ECF4F6FCFCDBDAEC          ",
"            DEDEFADEDEE0E0EC00FCD7D7D7D7D7D7D7D7D7D7D7D7D7D7D7D7F300ECF4FAF6F6F6DDFC            ",
"            81DEDEDEDDE0F4FDE8F7D7D7D7D7D7D7D7D7D7D7D7D7D7D7D7D7EA01F8F4FAF6FCFAF6F6            ",
"            81DEDEDEDDDEE0F4F9ECD7D7D7D7D7D7D7D7D7D7D7D7D7D7D7D7EBE9FDF4FAF6F6FAF6F6            ",
"            FDE0DEDEDDE0E0E0EDF9E6D7D7D7D7D7D7D7D7D7D7D7D7D7D7DC2CECF4FDFAF6F6FAFAF4            ",
"            F7E0DEDEDEE0E0E0FDF9FCD7D7D7D7D7D7D7D7D7D7D7D7D7D7D9E9EDFDF4F4FAFA8181FD            ",
"            F7E0E0DEDEDEE0E081ECEAD7D7D7D7D7D7D7D7D7D7D7D7D7D7EE2CF7FDFDFDF4FAF4FDFD            ",
"            F8E0E0DEDEE0E0E0E056EBE3D7D7D7D7D7D7D7D7D7D7D7D7D7EB2BFDFDFDFDFDF481F7F7            ",
"            FBE0DEDEDEE0FAE0E0F8ECE6D7D7D7D7D7D7D7D7D7D7D7D7DC2CECFDF7EAEAFDF4F4F7F7            ",
"            F8E0DEDEDEDEDEE0DEFDECDAD7D7D7D7D7D7D7D7D7D7D7D7F5E9EBFDF7F7FDFD81FDF7F7            ",
"            FBE0DEABDEDEDEE0DEE0ECDDD7D7D7D7D7D7D7D7D7D7D7D7FCF9EDFDFDF7F7FDF4FDF7F8            ",
"            56DEDEDEDEDEDEDEDEDE5CF4D7D7D7D7D7D7D7D7D7D7D7D7EE2CF7EAF7FDF7F7F4FDF7F8            ",
"            56ABDEDDABDEDEDEDEF6F4FDDCD7E3E3E5E5FEFEFEFEE5DCEAFBF4FDEAF7F7FDFDF8FDFB            ",
"              F8DDABDDDDDDDDDDFCF6FDF4FBF8F781818181FDF8FBFDEDEAFAFDF7FDFDFDFDDEFD              ",
"                F9F6DBDBDDDDDDDBDDF4F4                    F8EDFAFAF4F4F4FDE0DEEC                ",
"                    FBDAABDBDBDBDADEDD                    FAF4F6F6F6FAFADDF7F9                  ",
"                      ECDBDADBDAD9DBFC56                ECF6F6DBFCF6F6FC56                      ",
"                        F9DED9D9ACDADDF7                FBF6FCDAFCFCDDF9                        ",
"                            FDDFACACDDFA                F7F6DADADAFAF9                          ",
"                              F8ACDFFCFC                F6DDD9F5FD                              ",
"                                F9FCACAC                DAD9DB56                                ",
"                                                                                                "};
