/* XPM */
/* C:\Program Files\InstallShield Installation Information\{35CB6715-41F8-4F99-8881-6FC75BF054B0}\Setup.exe */
static char *icon[] = {
"32 32 107 2",
"00 c #0A0E12",
"03 c #0D1115",
"06 c #0E151A",
"07 c #10171D",
"09 c #131B1F",
"0A c #151D22",
"0B c #191F23",
"0D c #1E2326",
"0E c #202427",
"0F c #212629",
"10 c #25292D",
"12 c #2A3034",
"14 c #2C3337",
"15 c #2E3439",
"18 c #2F383E",
"1E c #313C44",
"23 c #223647",
"24 c #1C3347",
"26 c #133049",
"28 c #0A2D4D",
"29 c #062B4E",
"2D c #012D54",
"30 c #033259",
"31 c #04345A",
"34 c #08375D",
"36 c #0C3B5F",
"38 c #0E3D61",
"3D c #134064",
"3E c #144164",
"44 c #1B4465",
"48 c #224561",
"4A c #29455A",
"4B c #2E4556",
"4D c #324654",
"51 c #3B474F",
"52 c #3C4951",
"53 c #3E4B53",
"54 c #414C54",
"58 c #46535D",
"59 c #49555F",
"5B c #4F5C65",
"5C c #525F69",
"5F c #4B5E6E",
"60 c #465C6E",
"63 c #355670",
"69 c #2C5574",
"6E c #345C7A",
"72 c #3A607E",
"73 c #3C617F",
"74 c #3F6380",
"76 c #436783",
"78 c #456986",
"79 c #476C88",
"7B c #4B6D88",
"7C c #4E6E87",
"7E c #556F83",
"82 c #5E7283",
"84 c #58758B",
"86 c #5C798F",
"88 c #5E7B92",
"89 c #627D92",
"8C c #678195",
"8E c #65839B",
"90 c #6B869D",
"91 c #6E899E",
"94 c #738CA1",
"95 c #768EA0",
"97 c #7D909F",
"99 c #7C94A6",
"9A c #7C96A9",
"9C c #7F98AB",
"9F c #839BAE",
"A0 c #849CB0",
"A4 c #89A0B3",
"A7 c #8DA3B4",
"AA c #92A4B3",
"AE c #9CA4AD",
"B2 c #A3A6AC",
"B4 c #A6A9AE",
"B8 c #A4ACB4",
"BB c #9CAEBB",
"BD c #9CB0BF",
"BE c #9CB1C1",
"C0 c #A4B5C1",
"C2 c #AAB4BD",
"C6 c #B2B3B7",
"C8 c #B6B5B9",
"CC c #B8BABE",
"CE c #B8BEC4",
"D0 c #B7C1CB",
"D2 c #BBC5CD",
"D6 c #C7CACE",
"D7 c #CACCCE",
"D9 c #CECFD1",
"DC c #D2D4D6",
"DD c #D2D5D8",
"E0 c #DADBDD",
"E2 c #DDDEE1",
"E8 c #E3E3E4",
"EB c #E8E7E9",
"EE c #ECECED",
"F0 c #EEEEEF",
"F4 c #F1F2F2",
"F7 c #F4F3F3",
"F9 c #F8F7F6",
"FD c #FCFCFC",
"   c None",
"BBAA999A9A9F9F9F9F9F9F9F9F9F9F9F9F9F9C9A9F9FA0A0A4A4A7A7AABBAA6E",
"84A0888E8E8E8E8E8E8E888E8E8E8E8E8E8E8E90909195949499999A9AA77B00",
"696E293130303030302D6E303030303030313131383E44444469696969742303",
"6E74313D3D3D3D3D3D2DB869343D383E3E3E746E4469696E6E72737678844D06",
"6E74313D3D3D3D3D3D29D791303E44444444869069696E6E737476787B884D06",
"6E76343D3D3D3D3D343DFDC229444444694484C6696E737476787B7C7E8E5306",
"7376343D3D3D3D3D2990F7E0283E6969696988E869737476787B7E84848E540A",
"7276343D443E3D296EF7E8F77E2869696E6994E08272787B7C7E848488945806",
"7276313836312988FDE8E2EEC2296E6E6E69C2D9CC697B7E848488888E945807",
"727431383D6ECCEEE0E2E8EBE82869726E78E8D6DC787C8488898E8E909A5B07",
"6E847E9AC8E8E8E8E8EEEEEEFD5F487669C0E8D9DC977B89888E8E90959F5B09",
"6E763E69696978869CC2D6E8FDD224736EFDE0DCDDC67B8E8E90919494A75F09",
"6E783D3E44444444280929282454236EF7EBE2E0E0D7868E9194949999A75C09",
"74793E444824242424232323232407DCFDE8E8E2E0EE978E94949A9A9FBB5C09",
"767B44696963696E6363634B2623DCFDF7EEEBE8E2E8C68E99999A9FA0BE5C0A",
"848844696E72737678786E78D2FDFDF4EEEEEEEEE8E8EB949A9F9FA7A7BE820A",
"97AE446E6E6E6E6E6974CEEBF7EEEEEEF7F0F4EEEEE8F7979CA7A4BBC8D05C06",
"91C86969767E99B8D9E8E8E8E8EEEEF4EEF7F7EEEEEEF7D6A0A7AAAABBD2D20B",
"84C6C644B2CCCCD7DCE0E8EEF0F7FDF9F9F7F7F7F7EEEEF990BBBBBBBDBDC6DC",
"84C6B4B46969788494A0BEAEB8CCD7E8FDFDFDFDFDFDFDFD97BDBBC0C0BB15D6",
"84AEB4B2C882605F60541E181414181E51595C89AED2E2FDFDA7C0C0C0D65B58",
"8486C6B2B2C8975B525454545151511E1E1E1E1815181E1E54D0C0D0D0DD8215",
"897E8CC6B2B2B8CCAA947E8282825C5B585115181E1E51531EAED2D0D2DD8210",
"8E894AAEB8B2B2B2B8C2C2B8A7A0A7A7AAAAA7A79789825B1E1EDDD0D0DD5B54",
"918C604BB2C8B2B2B2B4B4C2C8CCC6B8BBBBBEC0D0D2D0D2D2D0D2D6E2F7FDFD",
"9494765F4B97CEB4B2B4B4B8B8C2C8CED6D7D9DCDCE0E2E8EEF9FDFDFDFDFDFD",
"999982825F4D5CB8C8B4B2B8B8C2C6C8CECED2D7DCE0E8E8EEF7F7F7FDFDFDFD",
"9FA08986825C535282C8C2B4B4B8C2C6CCCED2D6D9DDE0E8EEEEF7F7F7FDFDFD",
"A4A7919089825C594D1EB2CCC8C2B8C2C8CECED6D7DCE0E2E8EEF7F7FDFDFDFD",
"AAC0A7A7A79F9489825C5359AEC2D6D2D2CECED2D7DCE0E2E8EEF0F7F9F9FDFD",
"BE82101515141412100F0D090000548297D6E2E0E0E2E2E8EBEEF4F7FDFDFDFD",
"15030D0D0E0D0D0D0D0B09090603000000090D145C97B4D6D9EEEEF7D9E8C682"};
