/* XPM */
/* C:\Program Files\LucasArts\Star Wars JK II Jedi Outcast\JediOutcast.exe */
static char *icon[] = {
"32 32 26 2",
"09 c #A6CAF0",
"69 c #190050",
"6A c #D4D4FF",
"76 c #D4E3FF",
"78 c #8EABFF",
"7F c #003196",
"80 c #002573",
"81 c #001950",
"8B c #006296",
"8D c #003250",
"E2 c #F2F2F2",
"E3 c #E6E6E6",
"E4 c #DADADA",
"E5 c #CECECE",
"E7 c #B6B6B6",
"EA c #929292",
"EB c #868686",
"EC c #7A7A7A",
"F2 c #323232",
"F3 c #262626",
"F4 c #1A1A1A",
"F5 c #0E0E0E",
"F7 c #A0A0A4",
"F8 c #808080",
"FF c #FFFFFF",
"   c None",
"F5F5F5F4F4818D80807F7F8BECEBF7E4E4F7EAECEC8B7F808D81F3F4F4F4F4F4",
"F5F5F5F4F4818D80807F7F8BECEBF7E4E4F7EAECEC8B7F806969F3F4F4F4F4F4",
"F4F5F5F5F4818D807F7F7F8BECEBF7E4E4F7EAF8EC8B7F806981F3F4F4F4F4F4",
"F4F4F4F5F48169807F7F8B8BECEBF7E4E4F7EAF8EC8B7F808081F3F4F4F4F4F5",
"F4F4F4F4F4F38D807F7F8B8BECEBF776E4F7EAF8EC8B7F80808181F3F4F4F5F5",
"F4F4F3F3F4F481807F7F8BECECEBF776E478F7EBEC8B7F7F808D81F3F4F5F5F5",
"F5F4F4F3F38169807F8B8BECECEBF776E4E7F7EBEC8B7F7F806969F3F4F4F4F4",
"F5F5F4F3818D8D807F8B8BECECEAF776E4E7F7EBEC8B7F7F808081F4F4F4F4F4",
"F4F4F4F4F38080807F8B8BECF8EA78E37609F7EBEC8B8B7F806981F4F4F4F4F4",
"F4F4F4F4F48D807F7F7F8BECF8F778E37609F7F8EC8B8B7F806981F3F3F3F4F4",
"F4F4F3F4F381807F8B8B8BECEBF7E7E37609F7EBEC8B8B7F80808DF2F3F3F4F4",
"F4F3F3F3818D807F8B8BECECEA7809E3E30978EAECEC8B7F7F80808181F3F4F4",
"F3F3F3818180807F8BECECECF7E576E3E3E3E578F8EC8B8B7F7F808181F4F4F4",
"8181698D8D807F7F8BECEC096A0909E3E3E509E509F8ECEC7F7F8069F3F4F4F4",
"F4F3818D80807F8BECF80909F709E5E2E3E50978E7E5F8EC7F7F808D81F3F3F4",
"F4F4F38169807F8BECE7E7EAF709E4E2E2E30978F77809EC8B7F806981F3F4F4",
"F4F4F48181807F8BF809F8EAF709E4E2E2E30978F7EA09EA8B7F808D81F4F4F4",
"F381818180807F8BE7F7ECEBF70976E2E2E3E578EAF8EA098B7F7F808181F3F4",
"81698D80807F8BEC09EAEBF7780976E2E2E2E2E7EAECF809EC8B7F80696981F3",
"F4F48181807F8BECE5EAEBEAF70976E2E2FFE4E7F7EBF809EC7F7F808181F3F4",
"F4F3F28D807F8BEC09F8EBF77809E2E3E3E209E7F7EAEAE5EC8B7F808181F4F4",
"F4F4F3818D807FEC09EAEAEA78E3FF76E3FFE209F7EAEAE5F88B7F80808D81F3",
"F4F4F481697F8BEC09F7EBEAE4E2E3E2E3E3E2E3F7EAF709EC8B7F80808D8181",
"F4F48169807F7FECEA09F8F7E209E4E2E37609E3E7EA09F78B7F80808D818181",
"F481698169807F8BECE778F7E709E4E3E3E409E7F77809F88B7F808D81F2F3F3",
"F3F3F3818D807F7F8BEC09097809E4E3E3E4E7F7E7E5F8EC8B7F8081F3F4F3F3",
"F4F4F3F3818D807F8BECF8096A09E4E3E37609E509EBEC8B7F7F8081F4F4F4F4",
"F4F3F3F38181807F8B8BECF878E5E2E3E3E2E5F7F8ECEC8B7F80808DF3F4F4F4",
"F4F4F4F4F381807F7F8BECECEAF76AE376E4F7EBECECEC8B7F808D8D81F3F4F4",
"F4F4F4F4F38D80807F8B8BECEBF7E5E3E4E5F7F8EC8B8B8B7F69818181F3F4F4",
"F5F5F4F4818169807F7F8BECF8EA780909E7EAECEC8B7F8B7F8081F4F4F3F3F4",
"F5F5F4F4818181807F7F8BECF8EAF77878F7EAECEC8B7F7F7F8081F4F4F4F4F3"};
