/* XPM */
/* C:\Program Files\LucasArts\Star Wars Jedi Knight Jedi Academy\JediAcademy.exe */
static char *icon[] = {
"32 32 35 2",
"00 c #000000",
"09 c #A6CAF0",
"15 c #503200",
"2D c #500000",
"8D c #003250",
"8E c #D4FFFF",
"97 c #009696",
"98 c #007373",
"9C c #8EFFD4",
"A3 c #009662",
"A5 c #005032",
"A9 c #6BFF8F",
"AB c #25FF57",
"AF c #009631",
"B2 c #D4FFD4",
"B4 c #8EFF8E",
"B5 c #6BFF6B",
"BD c #005000",
"D3 c #629600",
"D6 c #FFFFD4",
"E2 c #F2F2F2",
"E4 c #DADADA",
"E5 c #CECECE",
"E6 c #C2C2C2",
"E8 c #AAAAAA",
"EB c #868686",
"EC c #7A7A7A",
"EF c #565656",
"F0 c #4A4A4A",
"F2 c #323232",
"F3 c #262626",
"F4 c #1A1A1A",
"F5 c #0E0E0E",
"FF c #FFFFFF",
"   c None",
"F500F5000000F500F5F5F4BDF3F3F0F0A3F0F28D15F3F5F5F5F5000000000000",
"F5F5F5F5F5F500F5F5F4BDF3F2A5F098E8F0A5F3F2BDF4F4F500F5F500000000",
"00F5F5F5F500F5F5F5F4F3BDF3F2A5D3A9EFF0F38DF3BDF4F5F500F500000000",
"00F5F5F5F5F5F5F5F5F4F5F28DF0F2A3E5AF8DF0F2BDF3F5F5F5F50000000000",
"0000F5F5F5F5F5F5F5BDF315F38DF0A309A3F0BDF3F3BDF3F5F5F5F500F5F500",
"000000F5F5F4F5F5F5F4158DF3F0A5ECB2EFA5F2F0F3F3F5F5F5F5000000F500",
"F50000F5F5F4BDF4F5F38D158DF2A5EBE5A3F3F0F5F3BDF3F5F500F5F5F5F500",
"F5F50000F5F5F3F5F4F5158DF3F0A5ECB2A3F08DF28DF3F4F5F5F5F5F5F5F500",
"F5F5F50000F5F3F3BDF3F5F2158DF0A9E4A3A5F0BD15F3F5F5F500F5F4F5F500",
"F5F5F5F5F5F5F5BDF3F48D158DF0A5EBB2ECF3F0F3F2BDF4F5F5F5F3BDF4F500",
"F5F5F5F5F5F5F5F38D15F38DF2F3F0A9B2A3F08DF38D158DF5F5F4BDF4F50000",
"00F5F4BDF4F5F5F5158D8D15F3F0A5EC8EECA5F3F0158DF5F5F38DF3F5000000",
"000000F4BDF3F5F5F3F3F3A5F2F0A5E8E4EBA5F0F38D15F4BDF3BDF500000000",
"00F500F5F5158DF4F58DF015F08DF0A98EECF0F08D15F38DF2BDF4F500F50000",
"F500F500F5F5F3F3BDF28DF0F3F0A5E8E4A9A5F3F0F2BDF2F3BDF400F500F500",
"F5F5F5F5F5F5F58DF0BDF28DF0F0A5E88EECF0F0F28DF2F08DF4F5F5F4F5F400",
"F5F5F5F5F5F5F4158DF2F0F0A5EFF0A9FFA9A5F0F0F0A5F415F5F4BDF38DF500",
"F3BDF4F5F4F4F4F3BDF08DF098F0A3E8E2EBAFEFF0A5F3F3F38DF2F3BDF5F500",
"F3F38DF38D158D15F28DF0F0A3A3EC8EB2B2A3A398F0F0F08DF2BDF3F5F50000",
"F5F515A5F3F2A5F28DF0F098A3E69CB2FF09B209AFEFF0A5F2BDF3F5F500F500",
"F5F5F5F5BDF2F3A5F0F098ECB2A9A3B2FF9CA3E809A3F0F2F3F3BDF3F5F5F500",
"F5F5F5F5F3BDF3F3F298AFE6A9A3A9FFFFB2EBABE8E8A5F0F08DF3F4F5F5F500",
"F48DF38D158DF0F0A5F0EB9CECA9EC8EFFE2A9ECA9E5A3F0A5F2F3A5F3F4BD00",
"8D158D158DF3F28DF0EFA9E8B5A3B58EFFFFB2A9A39CEBF0F08DF0F3158DF300",
"F500F5F5F4BDF3F3F0F0E8A997B5A9FFE2FFA9A3EC09B598F0F2BDF38D15F500",
"0000F5F5F4F3BDF2A5F0A909ECA9E2FF8EFFB2A9A3B4EBF0F0A5F0F3F3F5F500",
"F5F500F5F5F3F3F0F0A5EC09ABE48ED6FF8EE2E8A9E5A3F08DF28DF08DF28D00",
"0000F5F5F4F3A5F2A5F0EFE8E6A9B58EFFB2A9B409E8A5F0F28D158D158D1500",
"F5F5F5F3F3A52D8DF2F0A5A3B2E8A98EFFB2A309E8A3F0A5F2158DF5F4F58D00",
"F5F38DF3BDF4BD8D158DF0F0A3E8E6FF8EFFE5E8A3F0A5F2F08DF4F4F5F50000",
"F4BDF5F5F5F5F3158DF0A5F0F0A3EC8EFFB2A3A5F098F08D15F2BDF4F5F5F500",
"F5F5F500F5F5F4BDF28DF2F08DF0A3E8B209A5F0F0F3F0158D8DF2BDF5F50000"};
