/* XPM */
static char * MaxPayne2_xpm[] = {
"32 32 32 1",
" 	c None",
".	c #FFFFFF",
"+	c #F1F1F1",
"@	c #B2B2B2",
"#	c #1C1C1C",
"$	c #000000",
"%	c #969696",
"&	c #A0A0A4",
"*	c #C0C0C0",
"=	c #E3E3E3",
"-	c #CCCCCC",
";	c #5F5F5F",
">	c #555555",
",	c #666666",
"'	c #040404",
")	c #F8F8F8",
"!	c #777777",
"~	c #D7D7D7",
"{	c #999999",
"]	c #808080",
"^	c #CBCBCB",
"/	c #292929",
"(	c #EAEAEA",
"_	c #DDDDDD",
":	c #393939",
"<	c #424242",
"[	c #4D4D4D",
"}	c #868686",
"|	c #333333",
"1	c #111111",
"2	c #0C0C0C",
"3	c #161616",
"..........+@#$$$$$$%@&*=........",
".........-;$$$$$$$$>,;$'*)......",
".......)@$$$$$$$$$$$$$$$$!~.....",
"......){$$$$$$$$$$$'>!;;$$$*....",
"......@$$$$$$$$$$$$#]&=^/$$${(..",
"....._$$$$$$$$$$$$$$$%+%'$$:@(..",
".....{$$$$$$$$$$$$$,@*!<$$$$[@(.",
"....(#$$$$$$$$$$$$$}%|$$$$$$#!*.",
"....@$$$$$$$$$$$$$$$$$1,|$$$2]@.",
"...),$$$$$;*{$$$$$$$$$>+(]}/$$!(",
"...~$$$$$$}{[$$$$$$$$$]+.)(/$$$|",
"...&$$$$$/&;$$$$$$$$$>_)...!$$$@",
"..)>$$$$$}+!$$$$$$$$$^.....}$$@.",
".._$$$$$$@_$$$$$$$:}*).....^$*..",
"..*3$$$$$*+:$$$${~+.......+!*...",
"..(]$$$$$&(:$$$%...+()....%*....",
"..-3$$$$$:*;!!@)..),/;%_.+})....",
"._/$$$$$$$$*...)_.);$$$:((^.....",
"~#$$$$$$$$${_(-!$^.%$$$$,}+.....",
"+}$$$$$$$$$$$2$$$3@!$$$$$&......",
"+)&$$$$$$$$$$$$$$$$$$$$]~)......",
"&..%$$$$$$$$$$$$$$$$$$$~........",
"2_.+,$$$$$$$$2$2%}$$$[%)........",
"$,+.(}$$$$$$$@-@+*$$$[^.........",
"$$%).)*1$$$$$;}<;<$!%[+.........",
"$$${).._,$$$$$$$$$]=............",
"$$$$%+..+}$$$$$$1&).............",
"$$$$$!(..)}$$$$]=...............",
"$$$$$$,(..+!,$2(................",
"$$$$$$$,=.=,~~=.................",
"$$$$$$$$:}|${+~+................",
"$$$$$$$$$$$$$:$*................"};
