/* XPM */
/* C:\Program Files\Microsoft Money 2005\MNYCoreFiles\MSMoney.exe */
static char *icon[] = {
"48 48 221 2",
"01 c #00366C",
"02 c #00386E",
"03 c #003A72",
"04 c #003D7A",
"05 c #02407D",
"06 c #0B467F",
"07 c #1F4E7B",
"08 c #24517C",
"09 c #004283",
"0A c #00458A",
"0B c #03488D",
"0C c #094886",
"0D c #0D4D8C",
"0E c #024A92",
"0F c #004E9A",
"10 c #02509B",
"11 c #0E5296",
"12 c #0D569E",
"13 c #1C5183",
"14 c #165797",
"15 c #135699",
"17 c #1C5791",
"18 c #1F5E9B",
"19 c #0053A4",
"1A c #0056A9",
"1C c #025CB2",
"1D c #1A5EA2",
"1E c #0561BA",
"1F c #0960B3",
"20 c #0964BC",
"21 c #1260AB",
"22 c #1C63A4",
"23 c #1E67AE",
"24 c #1D69AF",
"25 c #1669B9",
"26 c #1B6AB3",
"27 c #225687",
"29 c #2A5C8E",
"2A c #205A93",
"2B c #295E93",
"2C c #236098",
"2D c #2A6196",
"2E c #2B649C",
"2F c #3E678F",
"30 c #3E6994",
"31 c #3D6C9A",
"32 c #2262A3",
"33 c #266AAC",
"34 c #2D68A1",
"35 c #2B6BAB",
"36 c #2272BF",
"37 c #3D6FA0",
"38 c #3471AD",
"3A c #3B72AA",
"3B c #3375B5",
"3C c #0967C1",
"3E c #0E6ECA",
"3F c #106EC9",
"40 c #1171CE",
"41 c #1374D2",
"42 c #1678D6",
"43 c #167ADA",
"45 c #1A7FE0",
"46 c #2577C6",
"47 c #2178CC",
"48 c #47759C",
"49 c #4C769F",
"4A c #4E789E",
"4B c #557390",
"4C c #4274A4",
"4E c #467AAA",
"4F c #487CAA",
"50 c #457DB5",
"51 c #487EB3",
"53 c #1C81E3",
"54 c #1E85E8",
"55 c #3888D5",
"56 c #2085E6",
"57 c #2087EA",
"58 c #2189EC",
"59 c #4481B3",
"5A c #4280BD",
"5B c #4D82B7",
"5C c #4C84BB",
"5E c #5D80A2",
"5F c #5F88AF",
"60 c #5484B4",
"61 c #5286BA",
"62 c #5088BD",
"64 c #5C89B4",
"65 c #5B8DBC",
"66 c #6F889E",
"68 c #6289AE",
"69 c #6A8DAE",
"6A c #628BB3",
"6C c #6290B2",
"6D c #6093B9",
"6E c #6C93B4",
"6F c #6D95BB",
"70 c #7F93A6",
"71 c #7B94AB",
"72 c #749BB5",
"73 c #739DB9",
"74 c #7CA2BA",
"75 c #4E88C1",
"76 c #448CD2",
"77 c #508BC4",
"78 c #5B8FC3",
"79 c #5C91C5",
"7B c #6096CD",
"7C c #6198CE",
"7D c #6B9CCC",
"7E c #6E9FD0",
"7F c #719AC3",
"80 c #799DC0",
"81 c #6EA1D2",
"82 c #72A0CE",
"83 c #79A2CB",
"84 c #71A2D4",
"85 c #7AA6D1",
"86 c #7AA8D5",
"87 c #8094A8",
"88 c #8999AA",
"89 c #849BB1",
"8B c #919FAB",
"8C c #84A4BB",
"8E c #8CA3B9",
"8F c #93A3B3",
"90 c #93A5B9",
"91 c #94ACB9",
"92 c #9BA6B1",
"93 c #9BAAB6",
"94 c #9BAAB9",
"95 c #9EB3BC",
"96 c #A1AEBD",
"97 c #A4B1BC",
"98 c #A4B8BF",
"99 c #ACB9BD",
"9A c #B2B6B9",
"9B c #B5BABC",
"9C c #BBBCBD",
"9D c #84A4C3",
"9E c #8AA9C6",
"9F c #8DADCB",
"A0 c #84ACD5",
"A1 c #8BAED0",
"A2 c #8DB1D5",
"A3 c #95B1CC",
"A4 c #9AB2C3",
"A5 c #9DB4CB",
"A6 c #9CB9C3",
"A7 c #95B5D4",
"A8 c #9AB6D0",
"A9 c #9DBAD6",
"AA c #84B3E0",
"AB c #A0B4C7",
"AC c #A2B6CA",
"AD c #A3BAC2",
"AF c #ACBDC3",
"B0 c #A6BFD6",
"B1 c #AABED1",
"B2 c #B1BEC3",
"B3 c #BABEC0",
"B4 c #BDBEC0",
"B5 c #ACC0C6",
"B6 c #AEC2C9",
"B7 c #A7C1DB",
"B8 c #ADC1D4",
"B9 c #ADC5DD",
"BA c #B4C1C5",
"BB c #B4C3CA",
"C0 c #BDC2C4",
"C1 c #BDC5C7",
"C3 c #BCC8CC",
"C4 c #B1C6DB",
"C5 c #BFCEDC",
"C6 c #AEC9E2",
"C7 c #B0CAE3",
"C8 c #B3CEE8",
"C9 c #BFD1E2",
"CA c #C1C1C1",
"CC c #C1C5C6",
"CD c #C5C5C6",
"CE c #C1C6C8",
"CF c #C4C9CB",
"D0 c #C8C7C8",
"D2 c #C9CBCC",
"D3 c #CBCCCB",
"D5 c #CCCBCC",
"D6 c #CDCDCD",
"D7 c #C4CBD0",
"D9 c #C9CFD1",
"DA c #CDD1D3",
"DB c #CAD3DB",
"DC c #D0CECF",
"DD c #D1CFD0",
"DE c #D3D3D3",
"DF c #D4D7D8",
"E0 c #D3D8DC",
"E1 c #D8D6D7",
"E2 c #D8D7D8",
"E3 c #DADADA",
"E5 c #D3DDE7",
"E6 c #DBDEE2",
"E7 c #DDE6EE",
"E8 c #E0DEDF",
"E9 c #E0DFE0",
"EA c #E2E1E1",
"EC c #E4E2E3",
"ED c #E5E3E4",
"F0 c #E6E8E9",
"F1 c #E8E6E7",
"F3 c #E9E9E9",
"F4 c #E9EBEC",
"F8 c #EAEFF4",
"F9 c #EFF0F0",
"FA c #F0EFEF",
"FB c #F1F1F1",
"FE c #F8F7F8",
"FF c #FAFAFA",
"   c None",
"                                          FFFEFEFEFFFF                                          ",
"                                  FEFAF1FAF1F1F1F1F1F1F1F9F4FE                                  ",
"                            FEF4F1F1F1F1E9F1E9E9E9E9E9EDECF1F1F1F4FE                            ",
"                        FEFAF1F1E9E9E3E1DDDDDDDCDCDDDDE1E1E8E9E9F1F1F1FE                        ",
"                      FAF1E9E9E8DDD6D0CCCA9690908E9096CAD0D5DDE1E1E8E8F1F4                      ",
"                  F9F4ECE8E1DDD0CC946E3A385A616278615A38386E97D0D2E1E8E8E8F1FE                  ",
"                F9F1E8E3DED0CA893A5C7FA8A9A9A9A9A9A9A9A9A97F5A3A8ECCD2E1E8E8E9F9                ",
"              FAF1E8E1D5CA923A61A1A7A7A2A9A2A9A7A7A7A7A7A9A2A9A15C3A96D0DDE1E8E9F9              ",
"            FAF1E1DFD09B683583A1A2A2A2A2A2A2A2A2A2A2A2A2AAA2A2A2A283356ECED6DFE1E9F9            ",
"          F9F1E1E1D09A4E3585A0A0A0A0A0A0A0A0A0AAA0AAA0A0A0A0A0A0A0A085324EC1DCDDE8E8F9          ",
"          F1E1D6D09A3A15828585858586868686868686868686868686868585858582153AB4DCDDE1E9          ",
"        F1E2DFD09B4E0B757D7D7D7E7E7E81818184848484848482848181817E7D7D7D5C0B4ECADCDDE1F1        ",
"      F9E8E1D0B35F0D117878797979797C7B7B7B7C7C7C7C7C7C7B7B7B7B797979797878140B6AD0D0DFE1F9      ",
"      F1DFD2CA8F0D0B1D615C5C61757562627762777777777777777762627575625C5C61320A0DA4D0DDDDE9      ",
"    F9E8D6D09B340A0A1D505B5B5C5C615C6262625A5A5A5A5A5A5C62615C615C5B5C5B501D0A0A2DCDD0DDDDF9    ",
"    F1DDD2CA710D0A0A1564D2DFDFE8E2E8E2DFDC753B3B3B3B3BAFD6E1E8E2E8E1E1DD80150A0A0A89CED5D6E8    ",
"    E2DDCCB32E0A0A0A0B60E1F1F4F4F9F4F4F4EA6F332633263ADFE9F4F4FBF4FBF4F1800B0A050A2DCAD0D6DD    ",
"  F4E1D2CA920D09050A054EE9F9FFFFFFFFFFFFF4B01D1D1D1D60E8F9FFFFFFFFFFF9F46F09090A050A94CAD0D6F4  ",
"  F1D2D39C5E090505050531F1F9FFFFFFFFFFFFF9E01D1212128CF1F9FFFFFFFFFFFFFB6A05050505055ECAD0D2E8  ",
"  E8D2D09C2D050505050430E9F9FFFFFEF8FFFFFFF33A101010C1F4F9FFE7FFFFFFFFFB6A050505050529CACAD0DD  ",
"  E2D6CA9A0D050505050430F1F9FFFFFEC9FFFFFFF46F0B0E14E0F4FEFFC4FFFFFFFFFB6A050504050405B3CCD0D3  ",
"FEDDD2CC920C050503050530F1F9FFFFFFA3FFFFFFF9B1090549F1FBFEE5B7FEFFFFFFFB6A03050503050592CCD0D3FB",
"FEDFD0CA8809050305050330F1F9FFFFFF6AF9FFFFFEE80D0589F1F9FFA5ADFEFFFFFFFB6A05030505030588CACCD3FA",
"F9DDD3CA8805030305030330F1F9FFFFF92EF4FEFFF9FA4C03C3F4F9F964ACF9FFFFFFFB6803050303050370CAD0D3F4",
"F9DFD3CA8805030303030330EAF9FFFFF92AB8FAFEFFF99D13F1FBFEFB17ABFAFFFFFFF96A03030303030370CACCD0F3",
"F9DFD3CA8F03030303030330F1F9FFFFF42A69FAFEFFF9C55FF4F9F9C50CABFAFEFFFFF95F03030303030388CAD0D3FA",
"FFDFD2CC920601020302032FEAF9FFFFFA2A2BF4F9FFFFF89FF9F9F99E09A4F4FFFFFFF95F03030302030292CAD0D0F9",
"  E1DDCC9C0602020202022FF1F9FFFFF4180ADBFAFFFFFFE5FFFFFA510BA3F4FEFFFFF95F030102020202B3CAD3D3  ",
"  E8D2D3CA2901010102022FF1F9FFFFF4220E9EF4FFFFFFFFFFF9F42119A4F4FEFFFFF95F030301010108B3D0CCD2  ",
"  F1DFD3CA5E010101020330E9F9FFFEF4331A5CF1F9FFFFFFFFFFC41F1AA7F3FEFFFFF96A05030301014BCAD0D0DF  ",
"  F9DFD2D392030102030330F1FBFFFEF4261F25F1F4FFFFFFFFF9A02020A5F4FEFFFFF96409050302018BCAD3D0F1  ",
"    E8D2D3CA270102030531F1FBFFFFF436203CB0FAFFFFFFFFF9763F3FA3F4FEFFFFF9650A05030307B3CCD2D2    ",
"    F1DFD2CC710202030937E8F4F9F9F1463F3F82F1F4FEF9F9E6454140A8F1FAF9F9F46D0F0A050366B4D2D2DD    ",
"    F9E8DACF9B2703050934A5B7B9B9B047404155B9C6C8C8C7AA45454582B0C7C7C4B05A100B091399CCD2D2F4    ",
"      F1DAD2C08905050B0F1A1F203F3F40414145455653565757545353454541403F201C190E0987C0CFD2D2      ",
"      F9E8DACF9B4A050B101A1C203C4041424545535354585858585453534541403C3C1C190F4899C3D2CFF4      ",
"        F1DAD7C0972D0B101A1C203C4041424545535458585858585854534543403C1E1C1A2C97BACFCFDF        ",
"          E8DAC3B2932C0E191C1E3C40404243535354585858585858544543413E3C1E1A2291B5C3CFCF          ",
"          F9E0DAC3AF9334101A1C1E3C4041424353535454545854534543403E3C1E1C3391B5C3C3CFF0          ",
"            F0DAD9C3B2954E101A1C1E3C3E4042434345535353454343403E3C1E1C59A6B5C3C3CFE8            ",
"              F1DAD7C3B5987222191C1E1E3C3E3E4141414141413E3E3C1E1E2673A6B1C3C3C3E0              ",
"                F1DACFD7BBAF956C22191A1C1E1E3C3C3C3C3C3C1E1E1C246DA6ADC3D7C1C1E8                ",
"                  F4DACFCFC3BBAFAD744F23191A1A1C1C1C1A1A245974ADB5B6C3C1C1CEF1                  ",
"                      DFCFCFC1C1BBAFAFAD958C726E6E738CA6ADAFB5B6BBC1C0C0CF                      ",
"                        F4D2CFCCC1C1C0BABAB2AFAFAFAFBABABABBC0C0C0C0C0F1                        ",
"                            F4D2CCC0C0C0C0C0C0C0C0C0C0C0B4B4B4C0CCF1                            ",
"                                  F1D2CCCCB4B4B4B3B3B3B3CCCCE8                                  ",
"                                          F9F4F1F1F4F9                                          "};
