/* XPM */
/* c:\windows\profiles\tinou\Application Data\Microsoft\Installer\{ABEB838C-A1A7-4C5D-B7E1-8B4314600777}\MsblIco.Exe */
static char *icon[] = {
"48 48 251 2",
"01 c #041C2E",
"02 c #132D1C",
"03 c #092527",
"04 c #0B273B",
"05 c #0B3536",
"06 c #122C27",
"07 c #18373C",
"08 c #263D3E",
"09 c #021D4C",
"0A c #001D67",
"0B c #092848",
"0C c #082756",
"0D c #0E3547",
"0E c #0C3555",
"0F c #173A48",
"10 c #163A58",
"11 c #0B326F",
"12 c #0C433A",
"13 c #294A30",
"14 c #3B613D",
"15 c #194F51",
"16 c #174870",
"17 c #254847",
"18 c #234D55",
"19 c #2A5349",
"1A c #285356",
"1B c #344E4A",
"1C c #385644",
"1D c #325956",
"1E c #244165",
"1F c #21437D",
"20 c #265866",
"21 c #235976",
"22 c #344C61",
"23 c #3E5062",
"24 c #336458",
"25 c #326D72",
"27 c #4B5D48",
"28 c #475B56",
"29 c #54594A",
"2A c #5A5F5A",
"2B c #465A6B",
"2C c #4E7251",
"2D c #48746D",
"2E c #726E46",
"2F c #6B756F",
"30 c #06338B",
"31 c #073BA6",
"32 c #154C92",
"33 c #1352AF",
"34 c #1F648C",
"35 c #1C639F",
"36 c #1C63AA",
"37 c #1D63B3",
"38 c #157DB1",
"39 c #26538E",
"3A c #2156AD",
"3B c #296887",
"3C c #276998",
"3D c #277784",
"3E c #2D719B",
"3F c #306C85",
"40 c #3A6D98",
"41 c #3A7888",
"43 c #246AA9",
"44 c #2366B2",
"45 c #2B72A6",
"46 c #336DA7",
"47 c #347AA2",
"48 c #1557C0",
"49 c #0D70C6",
"4A c #2E72D3",
"4B c #2E76EB",
"4C c #496689",
"4D c #447B85",
"4E c #407F92",
"4F c #536EB1",
"50 c #6E7B98",
"51 c #616BB8",
"52 c #6B77AA",
"53 c #6471B7",
"54 c #4379C5",
"55 c #029A70",
"56 c #00A94D",
"57 c #01A752",
"58 c #08B157",
"59 c #14A456",
"5A c #11B357",
"5B c #00A165",
"5C c #17AF63",
"5D c #388A72",
"5E c #26AF5C",
"5F c #23B258",
"60 c #34B459",
"61 c #21A961",
"62 c #578753",
"63 c #4E8D71",
"64 c #49B95D",
"65 c #53B85B",
"66 c #45B97D",
"67 c #57AB74",
"68 c #57BB62",
"69 c #54B67D",
"6A c #6A9159",
"6B c #6F9171",
"6C c #6BA567",
"6D c #68A67A",
"6E c #66BD65",
"6F c #7AA465",
"71 c #7BA57C",
"72 c #72B87C",
"73 c #6BC168",
"74 c #77C36B",
"75 c #73C074",
"76 c #01938D",
"77 c #0D94A2",
"78 c #3D8099",
"79 c #3AA9AC",
"7A c #0489CB",
"7B c #3095D1",
"7C c #498B8E",
"7D c #4287A2",
"7E c #5689A0",
"7F c #528FB5",
"80 c #5499A3",
"81 c #5AA78F",
"82 c #49A0B6",
"83 c #75868C",
"84 c #6D87A5",
"85 c #6993B3",
"86 c #718FA5",
"87 c #788CB1",
"88 c #6CAB90",
"89 c #70B3AB",
"8A c #479AD3",
"8B c #4992FC",
"8C c #51A4D8",
"8D c #5CA6FB",
"8E c #7394C3",
"8F c #629AE5",
"90 c #6AABD6",
"91 c #64B6DF",
"92 c #78A3C1",
"93 c #76AFD7",
"94 c #72B3CA",
"95 c #74B4DA",
"96 c #6FB3EA",
"97 c #77C396",
"98 c #7ECCA5",
"9A c #B85E3C",
"9B c #827D4B",
"9C c #A56745",
"9D c #D15730",
"9E c #E9592E",
"9F c #EB7037",
"A0 c #C36040",
"A1 c #EB7747",
"A2 c #938836",
"A3 c #989357",
"A4 c #858B6E",
"A5 c #8FB078",
"A6 c #A09C5E",
"A7 c #AF8B7C",
"A8 c #A8B27A",
"A9 c #87C66F",
"AA c #89C379",
"AB c #DDB43E",
"AC c #EF8339",
"AD c #EDBF3A",
"AE c #F6A935",
"AF c #F9BA27",
"B0 c #F7B83A",
"B1 c #D2946D",
"B2 c #C8AA5C",
"B3 c #D1AE42",
"B4 c #CFA56A",
"B5 c #EF8E46",
"B6 c #E38764",
"B7 c #E7AB4E",
"B8 c #E5A05D",
"B9 c #E8B159",
"BA c #F6A74B",
"BB c #F5A453",
"BC c #F7B542",
"BD c #EAA476",
"BE c #E9B167",
"BF c #F1AA68",
"C0 c #F2A672",
"C1 c #FBC91D",
"C2 c #FBC927",
"C3 c #FAC135",
"C4 c #DDC17F",
"C5 c #8B928F",
"C6 c #889AB1",
"C7 c #8FB28D",
"C8 c #94B0B1",
"C9 c #A18784",
"CA c #B3B495",
"CB c #ACB5AE",
"CC c #87ACC8",
"CD c #8CADDB",
"CE c #89B8CC",
"CF c #98A9C7",
"D0 c #93B8CD",
"D1 c #95BDD9",
"D2 c #85BCF0",
"D3 c #AFBACE",
"D4 c #8AC48A",
"D6 c #9AD69A",
"D7 c #88C8AA",
"D8 c #85D1A4",
"D9 c #9BC3A3",
"DA c #95C5B8",
"DB c #9DD2A8",
"DC c #97D9B2",
"DD c #9EE2B1",
"DE c #ADCE94",
"DF c #A9C9B9",
"E0 c #BAC2A1",
"E1 c #B7C8B8",
"E2 c #BAD6A7",
"E3 c #BCD7BD",
"E4 c #AAE3AD",
"E5 c #99C4D0",
"E6 c #94D2FE",
"E7 c #ACC4C9",
"E8 c #A9C7DA",
"E9 c #A6D5D9",
"EA c #B6C2D9",
"EB c #B9D4C3",
"EC c #ADD3EB",
"ED c #BAE3CA",
"EE c #B9E8F1",
"EF c #F0B785",
"F0 c #E0BEB1",
"F1 c #CCC887",
"F2 c #CECE9B",
"F3 c #C7D696",
"F4 c #D7C688",
"F5 c #DCD38C",
"F6 c #D1DA9A",
"F7 c #C7D1AE",
"F8 c #CAE1AB",
"F9 c #E6DFAC",
"FA c #EFEFAE",
"FB c #CCD6C8",
"FC c #CDE8D8",
"FD c #D1F1F5",
"FE c #F5FACE",
"FF c #F6FEF1",
"   c None",
"                                                        E3716A6A6ACA                            ",
"                                                    EB6262622C14141313CA                        ",
"                                                  C7626C6F6F6F622C1413022A                      ",
"                    FBA6A6A39B2ECA              886374AAAAAA6FA462141C170383                    ",
"                  E0A8C4F4F1A8A42A2F          DF6472D4D6DEA8AA6F6A2D1D170701                    ",
"                FBA8F6FAFAF9F2C583232F        6369D4D6E4F3D6D471632D241810042B                  ",
"                A5E2FAFEFEFEFBC8864C1E      DF5D69D8DDE4E4E2C771832D2516150C09                  ",
"                A5E2FAFFFFFFEED18E4F1F52    88639798DDDDE4DBD7887C4D2121111109D3                ",
"              E171E2FCFFFFFDEED28F543A1F    63638198DCDDDCD789807C4E3C3932110ACF                ",
"              CB71C8EDFDFDEEE6968B4B3330    5D5D819798D8D7D789807D453C3232300ACF                ",
"              EB63C7DAE9ECE6968D8B4B313A    245D678189898981807D4743373331300A                  ",
"                28638992CE968D8B4B4B318E    5D255D5D818181807D4745373348313130                  ",
"                CB244D7E7F548A4B4A4830      C5155D5D5D5D41413D3C35374848313046                  ",
"                  2A1A3F403C44443330CD        121A2425253D3D3434363333313130EA                  ",
"                    83181E321F3011CF          831215151A2021163232323331304F                    ",
"                      9B2C282B2B2CC9            1B050F1515101616303030301F                      ",
"                  FCA8C4F5F5C4F1C9A429CB          2801070D0C0E1111110A4F                        ",
"                F7A8F6FAFAFAF9F2CAC52F282ACB        280101040909090922                          ",
"              E0A8F3FAFAFEFEFEFBF7C8834D232F2FE1F0B6A19F2E141C141C141314                        ",
"          FBF3F6DEF8FEFEFEFEFEFEEBCBC650254C87B69F9E9E9E9E9B62622C2C141302C8                    ",
"        F7F6FEF7DEFAFEFEFFFFFEFCFBE7CC844CB1A19E9E9E9E9E9E9E2C2C622C241917061BCB                ",
"      F7F3FEFFDEE2FAFEFFFFFFFFFFFCE8CD87BD9F9E9E9E9E9E9E9E9E2E2C2C632C1D190F040628              ",
"    E3DEFEFFFCC7F8FEFEFFFFFFFFFDFDEACCC09F9F9F9E9E9E9E9E9E9E9A272C2D2D241A1707040F07CB          ",
"917A7A7BCEFDDAA8E2FEFFFFFFFFFFFDEEE5C0AC9F9F9F9E9E9E9E9E9E9EA01C2A632D2D2018100D0E180DC5        ",
"7A7A7A7A7A7A82D9F8FEFEFFFFFFFFFDE8EFB5AC9F9F9E9E9E9E9E9E9E9E9D1C2C632D252520100F0B1F160DC8      ",
"8A7A7A7A7A7A7A7A94FCFFFFFFFFFDE9F4B5B5A1AC9F9F9E9E9E9E9E9E9E9D1C2D2D4D2D25201E100B16321F0C      ",
"E57B7A7A7A7A7A7A7A7BEBFFFFFDEE6DBFB5B5AC9F9F9F9E9E9E9E9E9E9E9D1B2D634D253F2116160C0C3736111E    ",
"CB8A7B7B7A7A7A7A7A7A7A94FDFD6DC4B5B5B5A1AC9F9E9E9E9E9E9E9E9E9D1B2D4D4D413F212116100C32483711C6  ",
"71C87B8A7B7B7A7A7A7A7A7A8AD0C6BEBAB5B5B5A1A19F9E9E9E9E9E9E9E9A172D4D4E413F3B211F110E114937321F  ",
"6BD7908A8A7B7B7A7A7A7A7A7A5453A7BBBBBBBBBBB5B5B59F9E9E9E9E9E9C1B2D4E4E413F3C3416160A1133484830D3",
"E1C8E58C8C8C8A7B7B7A7A7A7A385352B8BBBBBBBBBBB5B5A1AC9F9E9E9E291B4D4E4E473E3B393216110C3237483287",
"      D18C8F8C8C8A7B7B7A76764F51C9BBBBBBBBB5B5B5B59F9F9F9E9E1C1D4D4E78403E3C3C393211111135494840",
"        93908F8C8C8C7B767655475352B8BBBBBBBBB5B5A1AC9F9F9EA0082B417847473E3C3A35321F0A1634374832",
"        FD9390918F8C7776555B3D5351A7BBBBBBB5B5B5A1AC9F9F9E2E1B254E7D474745433532323011113D444832",
"          EC9596918A76555557554F5350BBBBBBBBB5B5ACAC9F9F9EA21B25787847454543363A3A3211113D43484F",
"            E896D279555B575756405353B1BBBBB5B5B5B59F9F9FACA21B3F4E474745454337363232301F        ",
"              D1D2795B575756563D4F51A7BBBBBBB5B5A1AC9F9FAFA21A254E4747454344363A3331301F        ",
"                E8795757565656574F51C5BBBBB5B5B5ACA1ACC2C1A2183F3E4745454344373733323011        ",
"                  D75757565657565D5150C2C3B0B0AEAEC2C2C2C12E18253E4745454444373733333030        ",
"                    755F56575760747E53C2C2C1C2C2C2C2C2C2C21C18253E3E454343373748333130D3        ",
"                    E2AA73687374736784ADC2C2C2C2C2C3C2C2B307203F3E3E4343364437333354            ",
"                      AAA974746E686867ABC2C3C3C3C3C3C3C3270F203B3C3C3536363754CD                ",
"                      E36E6E6E6864605EF2BCC3B0BCBCBCB0B2081D4D7E8592D0E8                        ",
"                        D4656464605A5C    B7BCBCBCBCB9                                          ",
"                          72605F585666      B4B7BABE                                            ",
"                            69565656DC                                                          ",
"                              D75961                                                            ",
"                                                                                                "};
