/* XPM */
static char * NeedForSpeedUndercover_xpm[] = {
"32 32 18 1",
" 	c None",
".	c #FFFFFF",
"+	c #F68D91",
"@	c #ED1C24",
"#	c #EE2A32",
"$	c #FCD4D6",
"%	c #FAC6C8",
"&	c #FDE3E4",
"*	c #F58084",
"=	c #FEF1F1",
"-	c #F47176",
";	c #F8AAAD",
">	c #EF383F",
",	c #F36369",
"'	c #F2555B",
")	c #F9B8BA",
"!	c #F0474D",
"~	c #F79B9F",
"................................",
"................................",
"................................",
"................................",
"................................",
"................................",
"................................",
"................................",
"..........+@@@@@@@@@@@@@@#$...%+",
".........&#@@@@@@@@@@@@@@@*.=*-.",
".........-@@@@@@@@@@@@@@#;.%>-..",
"........%@@@@@@@@@@@@@@,==*@;...",
"........'@@@@,++++++@#).%>@;....",
".......;@@@@#=.....%,==*@@;.....",
"......=#@@@@;......=.%>@@)......",
"......+@@@@!.......=*@@@'.......",
".....&@@@@@%......%>@@@@$.......",
".....,@@@@-.....=*@@@@@*........",
"....%@@@@#&....)#@@@@@#=........",
"....>@@@@+...=,@@@@@@@~.........",
"...~@@@@>=..)#@@@@@@@>..........",
"..=#@@@@).=,@@@@@@@@@%..........",
"..*@@@>%.)#@@@@@@@@@,...........",
".$@@@*=..%%%%%%%%%%%=...........",
".'@>%...........................",
")@*=............................",
"'%..............................",
"................................",
"................................",
"................................",
"................................",
"................................"};
