/* XPM */
/* c:\Program Files\Notepad++\notepad++.exe */
static char *icon[] = {
"48 48 246 2",
"00 c #FBFBFB",
"01 c #F6FAFC",
"02 c #F9F7FA",
"03 c #F5F6FA",
"04 c #FBFBF5",
"05 c #F6F9F4",
"06 c #F9F7F3",
"07 c #F5F5F5",
"08 c #ECECF4",
"09 c #F8FCEE",
"0A c #FDF3EB",
"0B c #F4F4EF",
"0C c #FFFDE6",
"0D c #FDF4E3",
"0E c #F3F0E1",
"0F c #EBEBEB",
"10 c #E9E7EA",
"11 c #E3E4EB",
"12 c #EAE9E4",
"13 c #E7E8E2",
"14 c #E8E6E3",
"15 c #E3E3E3",
"16 c #E3DFE5",
"17 c #DCDDE1",
"18 c #FFF6DF",
"19 c #F3ECDC",
"1A c #ECE8DD",
"1B c #E6E8DD",
"1D c #E4E5DD",
"1E c #F3E4CD",
"1F c #E8E7C9",
"20 c #E5DED4",
"21 c #F0DFC1",
"22 c #E8DEC3",
"23 c #DBDBDB",
"24 c #D8D5DC",
"25 c #D5D6DB",
"26 c #D9DAD2",
"27 c #D5DAD3",
"28 c #D4D4D3",
"29 c #D1CFD2",
"2A c #CFCDD2",
"2B c #D1D1CF",
"2C c #DACACD",
"2D c #CBCBCB",
"2E c #CACAC4",
"2F c #C6CAC4",
"30 c #CAC7C2",
"31 c #C4C4C4",
"32 c #BDC1C2",
"33 c #B9BBC0",
"34 c #B9B6C1",
"35 c #DCD1BD",
"36 c #CDCBBE",
"37 c #C1C0BE",
"38 c #C1C1B7",
"39 c #D5C3AB",
"3A c #E6C582",
"3B c #DAD595",
"3C c #DDC796",
"3D c #C8B8AB",
"3E c #DFACAB",
"3F c #CDA4A0",
"40 c #CDB79F",
"41 c #C3B294",
"42 c #DBBE84",
"43 c #C5B38D",
"44 c #FF9587",
"45 c #BCBCBC",
"46 c #BBBDB7",
"47 c #BAB7B5",
"48 c #B4B3B4",
"49 c #A8B0B3",
"4A c #B3AFB0",
"4B c #BDB5A8",
"4C c #B4B4AC",
"4D c #ACACAC",
"4E c #A6A8A5",
"4F c #A3A3A3",
"50 c #9D9DA1",
"51 c #BCB09A",
"52 c #B4A995",
"53 c #A4AB99",
"54 c #B59691",
"55 c #AB9892",
"56 c #AF9B80",
"57 c #9B9B9B",
"58 c #9B959F",
"59 c #96979C",
"5A c #989896",
"5B c #949996",
"5C c #9B9690",
"5D c #939494",
"5E c #8C9592",
"5F c #8F8F91",
"60 c #959186",
"61 c #978F82",
"62 c #8B8B8B",
"63 c #87888A",
"64 c #888687",
"65 c #848484",
"66 c #7B7F82",
"67 c #FFEE64",
"68 c #EAC67B",
"69 c #E4C575",
"6A c #DDC379",
"6B c #F7EC54",
"6C c #FFEB42",
"6D c #FFE343",
"6E c #FFDB45",
"6F c #FCD640",
"70 c #D9BD7C",
"71 c #DABE74",
"72 c #CFB777",
"73 c #C4A76F",
"74 c #C9A863",
"75 c #C2A360",
"76 c #FF8075",
"77 c #E3BC55",
"78 c #D7B456",
"79 c #D6B944",
"7A c #C09A4F",
"7B c #C19041",
"7C c #B9A367",
"7D c #AD9F70",
"7E c #A09174",
"7F c #B39B6D",
"80 c #B19A66",
"81 c #A18A60",
"82 c #83827D",
"83 c #99876F",
"84 c #898061",
"85 c #A79B5F",
"86 c #A18659",
"87 c #A28C53",
"88 c #A08455",
"89 c #B6954B",
"8A c #9F875B",
"8B c #9F8A51",
"8C c #9D884F",
"8E c #FFF33F",
"8F c #FFE83A",
"90 c #FDE23D",
"91 c #FFE935",
"92 c #FAE533",
"93 c #FFE828",
"94 c #FDE22D",
"95 c #FFE327",
"96 c #FFDD3B",
"97 c #FED539",
"98 c #F5D238",
"99 c #FEDA33",
"9A c #FFD632",
"9B c #FFCD33",
"9C c #FEDC2B",
"9D c #FED32C",
"9E c #FDDC23",
"9F c #FAD625",
"A0 c #F7D424",
"A1 c #FADA1D",
"A2 c #F8D61D",
"A3 c #F7D51B",
"A4 c #CCA927",
"A5 c #CBA421",
"A6 c #C88B3B",
"A7 c #C49E21",
"A8 c #CF8A22",
"A9 c #D2911D",
"AA c #C59B1A",
"AB c #CF941C",
"AC c #C49717",
"AD c #CD8D19",
"AE c #C4881A",
"AF c #CD8E13",
"B0 c #C68B13",
"B1 c #C88B0B",
"B2 c #C78E0B",
"B3 c #CC8906",
"B4 c #C18A04",
"B5 c #BD8A3B",
"B6 c #BC8C34",
"B7 c #BB882D",
"B9 c #B98923",
"BA c #BC9219",
"BB c #BD9816",
"BC c #B7881E",
"BD c #B6871F",
"BE c #BE8E10",
"BF c #FA7A79",
"C0 c #F47A77",
"C1 c #FA7471",
"C2 c #E76764",
"C3 c #C77979",
"C4 c #D86665",
"C5 c #C96D62",
"C6 c #CC6664",
"C7 c #E2695E",
"C8 c #D6655D",
"C9 c #957270",
"CA c #817B7D",
"CB c #8C7975",
"CC c #857870",
"CD c #857158",
"CE c #8E7A55",
"CF c #8D7750",
"D0 c #867450",
"D1 c #977C4F",
"D2 c #836D46",
"D3 c #B95B53",
"D4 c #8F4949",
"D5 c #824540",
"D6 c #8C6D3E",
"D7 c #846634",
"D8 c #A14B3E",
"D9 c #8A6414",
"DA c #996A0E",
"DB c #91630A",
"DC c #906105",
"DD c #8F620B",
"DE c #8E6305",
"DF c #8B5D10",
"E0 c #8B5C0A",
"E1 c #84590A",
"E2 c #895C05",
"E3 c #7D7D7C",
"E4 c #757871",
"E5 c #737373",
"E6 c #6C6B70",
"E8 c #6C6D6C",
"E9 c #6F6C67",
"EA c #656565",
"EB c #5B6063",
"EC c #5E5D61",
"ED c #605F5A",
"EF c #5E5E56",
"F0 c #565656",
"F1 c #4D4D4D",
"F2 c #454746",
"F3 c #7E6232",
"F4 c #7F672B",
"F5 c #745B22",
"F6 c #47443D",
"F7 c #663A39",
"F9 c #35342F",
"FA c #252525",
"   c None",
"                                                                                                ",
"                                                                                        54      ",
"      313131313131313131454545454545454548484823                                    3FD376C4D4  ",
"    230F15151515151515152323232323282828283145484D48                              4CC6C244C1C855",
"    2D1515151515151515152315232323232828282D31454F5745                          E557C3BFC7C0C6CB",
"    2815151523151523151523152315152323232828282D4D57282831                    335B322C3EC5D8D5  ",
"    28151523284800000007230707000F231507152328233148E5002328                472D584A5E4DC9F7    ",
"    2D0F150F57E5EA23E5F1E54D2D654D4565E8E84F45F1F045F00000152533          72403128474E4FECEC    ",
"    2D0F15152331000015070F0F0F150F072328314D235D285D6500070000102D      B7AF901F493464E4F2      ",
"    2D0F0F15153145480745152831232315072D31231528282D4D62E5E682E4665C39B6B39A906B3B825BE8        ",
"    2D0F0F0F0F000000070F000F311515280F2D0715282348234531EA62EDEF508389AF97918E6C6784F6          ",
"    2D0F0F0F154F5731312DED0045072D15150F0F0F0F120F17252E2D45312E3DB5B09991928FA4E27E            ",
"    2D070F0731E50007EA4545572845070F0F0F0F0F0F1511111D2323242735B9B49D949192A5D98C              ",
"    2D0F0F0F15654F075D4F1545075D070F0F0F0F0F0F0F0F0F1D1515162289AD9A9594946DDE86                ",
"    2D070F0F15070F0F0F0F070F0F0F0F0F0F0F0F0F0F081D1208110F1EB9AD9A949490AADC8A                  ",
"    2D070F0F0F0F070F0F0F0007150F070007070F0F07000400011441B7B19D9C9399A7D988                    ",
"    2D070F0F005D4D00070F5D45152D48FA48E84500F95028EA62217AB09DA39E9D6EE08B20                    ",
"    2D0707074D003131150F15070707070004000707000003030DBCB29B9C9E9CBBDDCF1A1D4F                  ",
"    310707070F070F28234F076500E55D5AEA654FE9065D5352BDB09B9C949FAAE0F436141545                  ",
"    3100070000574831654D003107480F4C150316040B040D75B19BA0A2A06FDBD719130F1545                  ",
"    310007070700070F002823280045622B004857EB59CCB6A99B9EA19DACE2F3094502150F1545                ",
"    3100070700E5E84F4F622362282815080B040100187BB49D9C9E9FA7DFD6041B0F000F070F4D                ",
"    310007000000000000000000070007002E26030C74AB9D9E9E9D6FE0F56163CA4F4D000F0B1529              ",
"    3100000700EA31E34F48E86231F10F48E5274BA6A89D9C9F99AADDD2040B000000000000070048              ",
"    3100000000000F000000000000000000050AB6B49D9C94A0ACD9876046E3EA5F5DE3E84D070F28              ",
"    31000000000007000F4F234F4845074F46CDAE9DA19FA097DAD10A2F00150007000000000F0731              ",
"    310000000065280F282D1507000000000D85779F9C9ABEDB8100070307070707070707070707072D            ",
"    31000000001500230FE32D2D5728575D7D70699896BAD9D1572F300703070707070707070707074D            ",
"    31000000005D2857625D4FE548454D387C68687879E18C0407040703050707070303070707070731            ",
"    310000000000000000000704000004436A697180CE5106040004000000070707070707070707070028          ",
"    310000000000000000000400000404423A73D00E050700070707070707070000000000070707070023          ",
"    31000000000000000000000000001A3C7F56040003030700070707070707000000000000070707074D          ",
"    310000000000070000000028152EF92E0607030206060707070000000000000000000000000000072828        ",
"    3100000000235D57E8EC4D572303282A0F07050103070700000000000000000000000000000000000045        ",
"    31000000002323070000000400000F4537280F030100000000000000000000000000000000000000004F        ",
"    3100000000070707070707070700070F31312D231507000000000000000000000000000000000007000F28      ",
"    310000000007070707000000070000000F232823231507070000000000000000000000000000000700002D      ",
"    3100000000070707070000000000000000072323150F070700000000000000000000000000000000000031      ",
"    310000000007000000000000000000000000000F0F0700000000000000000000000000000000000000004F      ",
"    3100000000070000000000000000000000000000000000000000000000000000000000000000000000000723    ",
"    3100000000000000000000000000000000000000000000000000000000000000000000000007284F655D4823    ",
"    2D0000000000000000000000000000000000000000000000000000234D5D6562625D57574F4D4D48453128      ",
"    310000000000000000000000000000001531576565625D5D574F4F4F4D484545                            ",
"    2D00000000000000002345576265625D5757574F                                                    ",
"    28575D62625D57575757                                                                        ",
"                                                                                                ",
"                                                                                                ",
"                                                                                                "};
