/* XPM */
static char * Painkiller_xpm[] = {
"32 32 50 1",
" 	c None",
".	c #7F7FAA",
"+	c #7F5FAA",
"@	c #7FBFAA",
"#	c #D4DFAA",
"$	c #D49F55",
"%	c #AA5F55",
"&	c #551F55",
"*	c #D4BFAA",
"=	c #AA9F55",
"-	c #7F5F55",
";	c #553F00",
">	c #2A0055",
",	c #AABFAA",
"'	c #D4DF55",
")	c #D49FAA",
"!	c #AABF55",
"~	c #AA7F55",
"{	c #7F3F55",
"]	c #551F00",
"^	c #C0DCC0",
"/	c #D4BF55",
"(	c #557FAA",
"_	c #7F7F55",
":	c #AADFAA",
"<	c #A0A0A4",
"[	c #7F3F00",
"}	c #559FAA",
"|	c #7F9F55",
"1	c #D4FFAA",
"2	c #2A1F55",
"3	c #7F9FAA",
"4	c #808080",
"5	c #553F55",
"6	c #2A0000",
"7	c #555F00",
"8	c #7F1F00",
"9	c #555F55",
"0	c #000000",
"a	c #2A1F00",
"b	c #7FBF55",
"c	c #7F7F00",
"d	c #AA9FAA",
"e	c #55BFAA",
"f	c #7FDFAA",
"g	c #557F55",
"h	c #2A3F55",
"i	c #7F5F00",
"j	c #2A3F00",
"k	c #550000",
"                                ",
"       .+                       ",
"     @##$%&                     ",
"     ##*=-;> ,',)=-             ",
"     !,*~{],^#**/~--{           ",
"    (__,=-:^#,#*<=%[[]          ",
"    }|-==-1::#***~_{{]2         ",
"    3,_4_@:,,***=4-[5]6         ",
"    @|4-7@,!*,*,=~-{586         ",
"    90a55b<==,!)=4-;556>        ",
"    c2aaa3|_4=,d<~-5[560        ",
"    5;_4-b4--=<$<~-[55]0        ",
"     2_=-@|9_4=<=<_-[{]0        ",
"      7-]b3_-_~==~-5--]0        ",
"       9a@<4_-<~4~-;5-&0        ",
"        e:f,4_-_~-[{--]0        ",
"        @f:,=_--9--_-4{0        ",
"        fgg44=4;]5_--5]00       ",
"        @a0aa5_55--]00000       ",
"        @a00009a;;6000066       ",
"       @_600606a260000a952      ",
"       f-{-95]a5h5a6]5--_a      ",
"        9_9i94_-i58&];]]]       ",
"        2ja57_4=4[]]6000        ",
"          2;9_==~{[k00>         ",
"           ;-=__-i]60>          ",
"           279--;a600>          ",
"           ha;9a;60aa           ",
"             4=-_0a5            ",
"             2 29> h            ",
"                                ",
"                                "};
