/* XPM */
static char * Prey_xpm[] = {
"48 48 346 2",
"  	c None",
". 	c #06B3FF",
"+ 	c #19A6F3",
"@ 	c #06B4FF",
"# 	c #0AADFF",
"$ 	c #0AC2FF",
"% 	c #04ACFF",
"& 	c #35A5E1",
"* 	c #0AC4FF",
"= 	c #0FA1E6",
"- 	c #15E6FF",
"; 	c #247A85",
"> 	c #09A3EC",
", 	c #31342F",
"' 	c #1EA8EF",
") 	c #1E92C6",
"! 	c #109FE1",
"~ 	c #15ECFF",
"{ 	c #0ABDFF",
"] 	c #0FA3E8",
"^ 	c #1E97C9",
"/ 	c #18ACF9",
"( 	c #4F0F02",
"_ 	c #0DBDEE",
": 	c #4E1609",
"< 	c #622010",
"[ 	c #0DB5FF",
"} 	c #322D29",
"| 	c #109CDF",
"1 	c #0AA2FF",
"2 	c #0DBFFF",
"3 	c #2186B4",
"4 	c #286066",
"5 	c #0DC6FF",
"6 	c #1DAEF0",
"7 	c #288194",
"8 	c #621D0D",
"9 	c #892E16",
"0 	c #2A4240",
"a 	c #04ACFE",
"b 	c #03B2E9",
"c 	c #05AEFF",
"d 	c #1F80A4",
"e 	c #372323",
"f 	c #15B1E6",
"g 	c #2B5B6A",
"h 	c #10A1E6",
"i 	c #256E80",
"j 	c #257D98",
"k 	c #12D5FF",
"l 	c #0AABFF",
"m 	c #361607",
"n 	c #13BCFF",
"o 	c #24ECF5",
"p 	c #621F0E",
"q 	c #8D2F18",
"r 	c #C04221",
"s 	c #7A2814",
"t 	c #49A2D5",
"u 	c #07C6FB",
"v 	c #39A4DF",
"w 	c #343537",
"x 	c #2E494E",
"y 	c #372C24",
"z 	c #0CADFD",
"A 	c #0A9DFF",
"B 	c #19DBFF",
"C 	c #267687",
"D 	c #0BBCFF",
"E 	c #16A1F4",
"F 	c #390E00",
"G 	c #83240F",
"H 	c #D64924",
"I 	c #D84A24",
"J 	c #742411",
"K 	c #3CA4DD",
"L 	c #08CAF8",
"M 	c #3D2B20",
"N 	c #2D5F76",
"O 	c #4D160A",
"P 	c #3D1608",
"Q 	c #491102",
"R 	c #294D52",
"S 	c #06AAFF",
"T 	c #2386A7",
"U 	c #3D0600",
"V 	c #199DE4",
"W 	c #0CC4FF",
"X 	c #1F91BB",
"Y 	c #302018",
"Z 	c #2ED3CF",
"` 	c #862C15",
" .	c #8E2E16",
"..	c #5A1909",
"+.	c #04A4B2",
"@.	c #00BCC0",
"#.	c #6A2312",
"$.	c #551306",
"%.	c #23819F",
"&.	c #3C2413",
"*.	c #3A1D12",
"=.	c #10DEFF",
"-.	c #0AB2FF",
";.	c #322A25",
">.	c #237478",
",.	c #450A00",
"'.	c #2CBDC4",
").	c #444547",
"!.	c #5E1A0A",
"~.	c #07C3FF",
"{.	c #336770",
"].	c #611202",
"^.	c #336870",
"/.	c #07C4FF",
"(.	c #06CFFF",
"_.	c #2C6B77",
":.	c #612111",
"<.	c #4C1B0E",
"[.	c #401813",
"}.	c #1AA0D7",
"|.	c #3F0A00",
"1.	c #39281B",
"2.	c #13B3FF",
"3.	c #09A2FF",
"4.	c #344C49",
"5.	c #4E1201",
"6.	c #4C190C",
"7.	c #07B8FF",
"8.	c #1DB1F0",
"9.	c #2D6D76",
"0.	c #0BC9FF",
"a.	c #443024",
"b.	c #76230E",
"c.	c #442C1B",
"d.	c #393D37",
"e.	c #531709",
"f.	c #17B2C9",
"g.	c #08B1FF",
"h.	c #2B3A38",
"i.	c #4F0E00",
"j.	c #581D0E",
"k.	c #5E2011",
"l.	c #551A0C",
"m.	c #0FCBF4",
"n.	c #17E0FF",
"o.	c #581103",
"p.	c #842A14",
"q.	c #5B0D01",
"r.	c #16DDFF",
"s.	c #0BC7F6",
"t.	c #26BDC6",
"u.	c #44180B",
"v.	c #471905",
"w.	c #682312",
"x.	c #471307",
"y.	c #267497",
"z.	c #0CABFA",
"A.	c #22A7D1",
"B.	c #3E1302",
"C.	c #531708",
"D.	c #510D00",
"E.	c #2A676C",
"F.	c #038FFE",
"G.	c #642111",
"H.	c #692311",
"I.	c #722612",
"J.	c #6E2512",
"K.	c #3D8D90",
"L.	c #582111",
"M.	c #3D8386",
"N.	c #424F57",
"O.	c #009CA0",
"P.	c #560900",
"Q.	c #5B1C0D",
"R.	c #581C0D",
"S.	c #344D5D",
"T.	c #0AD6FF",
"U.	c #4D1409",
"V.	c #722715",
"W.	c #4D0A00",
"X.	c #742713",
"Y.	c #2F5959",
"Z.	c #05A0FF",
"`.	c #29EFEE",
" +	c #3F8888",
".+	c #3C827E",
"++	c #533428",
"@+	c #2F7785",
"#+	c #5B0D00",
"$+	c #611100",
"%+	c #3C2116",
"&+	c #2A658B",
"*+	c #049AFF",
"=+	c #420200",
"-+	c #44150A",
";+	c #852D16",
">+	c #742914",
",+	c #4A0A00",
"'+	c #22BCEF",
")+	c #4A7572",
"!+	c #427B78",
"~+	c #691C08",
"{+	c #6F1E0A",
"]+	c #15CBEF",
"^+	c #14A6DE",
"/+	c #1BBFFF",
"(+	c #39352A",
"_+	c #14F8FF",
":+	c #2B4C44",
"<+	c #420D01",
"[+	c #943217",
"}+	c #7D2B15",
"|+	c #571303",
"1+	c #472B1C",
"2+	c #79230E",
"3+	c #7D2812",
"4+	c #47250F",
"5+	c #06C2FF",
"6+	c #2C8291",
"7+	c #511301",
"8+	c #792714",
"9+	c #913118",
"0+	c #460E01",
"a+	c #792913",
"b+	c #9D3519",
"c+	c #AF3B1E",
"d+	c #9D351C",
"e+	c #8A2F17",
"f+	c #792915",
"g+	c #520A00",
"h+	c #2C9AB1",
"i+	c #18FDFF",
"j+	c #22FFFF",
"k+	c #852A15",
"l+	c #2CA2C0",
"m+	c #641E0C",
"n+	c #862F17",
"o+	c #99341A",
"p+	c #AA3A1E",
"q+	c #19B6FE",
"r+	c #4A0300",
"s+	c #8D2D15",
"t+	c #BD4120",
"u+	c #AC3A1D",
"v+	c #26F8FF",
"w+	c #530400",
"x+	c #71210D",
"y+	c #24DFFF",
"z+	c #641906",
"A+	c #96321A",
"B+	c #A7391C",
"C+	c #B93F1F",
"D+	c #B03D1E",
"E+	c #A2361B",
"F+	c #D04724",
"G+	c #6E1F0D",
"H+	c #5D0300",
"I+	c #30BDBF",
"J+	c #2EE5ED",
"K+	c #2FD5DC",
"L+	c #A6391B",
"M+	c #CC4623",
"N+	c #4A0D00",
"O+	c #2D271F",
"P+	c #702310",
"Q+	c #9D331A",
"R+	c #EB5027",
"S+	c #E24D26",
"T+	c #C54321",
"U+	c #5D1706",
"V+	c #25F1FC",
"W+	c #51362B",
"X+	c #3C817F",
"Y+	c #26FFFF",
"Z+	c #3C9292",
"`+	c #2CF2FE",
" @	c #B23C1E",
".@	c #DB4B26",
"+@	c #1ABBE5",
"@@	c #2791A5",
"#@	c #FB582B",
"$@	c #872812",
"%@	c #582E20",
"&@	c #680800",
"*@	c #47544F",
"=@	c #5C170A",
"-@	c #29FFFF",
";@	c #504138",
">@	c #A9381D",
",@	c #1AC3EF",
"'@	c #0CEAFF",
")@	c #822D16",
"!@	c #731603",
"~@	c #446F68",
"{@	c #7A1E09",
"]@	c #721E0A",
"^@	c #8D3018",
"/@	c #6D1100",
"(@	c #AB391D",
"_@	c #812B15",
":@	c #9A3319",
"<@	c #34D5F7",
"[@	c #730D00",
"}@	c #AB3A1D",
"|@	c #7A1200",
"1@	c #38B1C8",
"2@	c #2F4541",
"3@	c #75220E",
"4@	c #570D00",
"5@	c #11FEFF",
"6@	c #437A89",
"7@	c #841B04",
"8@	c #84230B",
"9@	c #A83A1C",
"0@	c #1DA9E6",
"a@	c #92290F",
"b@	c #952C12",
"c@	c #692110",
"d@	c #2DE3F6",
"e@	c #2FFFFF",
"f@	c #19C9FE",
"g@	c #36AEB1",
"h@	c #C0431F",
"i@	c #32EDF6",
"j@	c #27E0EB",
"k@	c #AA391B",
"l@	c #7C1C03",
"m@	c #05B4FF",
"n@	c #1BB3F1",
"o@	c #4A1704",
"p@	c #07F2FF",
"q@	c #9C3215",
"r@	c #25C5F1",
"s@	c #22C6FE",
"t@	c #1DD3FF",
"u@	c #306B72",
"v@	c #2DCACF",
"w@	c #772716",
"x@	c #376D6D",
"y@	c #741A05",
"z@	c #3A5855",
"A@	c #4A1E12",
"B@	c #22ACF1",
"C@	c #2498CD",
"D@	c #207478",
"E@	c #0ECCFF",
"                                                                                                ",
"    . + +                   @                           + +                                     ",
"  # # $ % % %   #         # # #                       & @ *                       % % %         ",
"  + + = % - % % ; #       > , #                       ' ) ! + +                 % % ~ %         ",
"  { # ] % ^ / % ( #     _ : < # %                   + [ } | 1 2                 % / ^ %         ",
"  % % % % 3 4 % % 5 6 7 8 9 0 a b a           % %   c d e f g h               % % i j % % % %   ",
"  % k l % ^ m n % o p q r s t u ; u t         % % v > w , x y z               % n m 3 % A B %   ",
"  % ^ C D E F 4 % % G H I J K L M L K       % % % % N O P Q R S             % % T U V W j X %   ",
"  % E F C - Y m n % Z `  ...K +.( +.K       % @.@.% : #.< $.%.+             % W &.*.=.T F V %   ",
"  % -.;.U >.;.,.4 W % '.).!.~.{.].^./.    % (._._.(.% :.<.[.}.+           % % i |.;.>.U 1.2.%   ",
"  % 3.4.5.|.m 6.|.T 7.% 8.9.0.a.b.c.5   6 % (.d.1.(.% e.0 f.g.+         % % ^ |.6.m F 5.h.-.%   ",
"    % C i.j.6.k.l.F X W % m.n.o.p.q.r.s.t.% (.u.v.(.% w.x.y.z.        % 7.A.B.C.k.6.l.D.E.F.%   ",
"    % X ,.G.H.I.J.l.|.j =.% % K.L.M.o N.p % O.i.P.O.% Q.R.S.z.    % % T.T F U.H.V.H.G.W.T %     ",
"    % V |.5.l.k.X.J.j.,.Y.=.Z.% `. +.+++% T.@+#+$+@+T.% %+&+z.  % *+=.E.|.l.J.X.k.l.5.=+^ %     ",
"    % n E.h.Y -+H.;+>+k.,+1.'+=.% % )+!+% (.d.~+{+d.T.% ]+^+% % T./+(+,.j.X.;+J.-+Y h.4 n %     ",
"    % % (._+:+<+H.[+[+}+H.|+,.C ~ (.% % % - 1+2+3+4+B % % % 5+~ 6+<+7+H.8+9+[+J.0+h.~ T.% %     ",
"      % n h.,.k.a+b+c+d+e+f+G.g+&.h+i+T.% j+|+k+e+#+j+% (.i+l+1.W.m+>+n+o+p+b+a+k.0+;.q+%       ",
"      % j r+G.H.X.s+c+t+u+o+n+>+m+P.4+h+i+v+w+{+x+w+y+i+l+1+w+z+I.}+A+B+C+D+e+X.H.k.r+_.%       ",
"      % ^ ,+k.U.j.a+E+F+F+t+p+o+e+}+G+H+I+j+J+1+6.K+j+K+w+~+a+;+A+L+C+M+M+L+8+j.U.j.N+3 %       ",
"      % E B.<+O+-+P+Q+M+R+S+F+T+C+B+s+U+V+W+X+Y+Y+Z+1+`+j.k+E+ @t+M+.@S+M+b+I.-+O+B.,.V %       ",
"      % n :++@@@,+I.E+F+R+#@R+S+M+ @$@W+Y+%@&@*@*@&@=@-@;@3+>@T+.@R+R+R+M+E+I.W.C ,@:+2.%       ",
"      % 3.k '@(+U+)@L+t+H #@R+F+ @A+!@~@-@&@9+{@]@^@&@`+Z+/@9+(@T+S+R+H t+L+_@=@1.=.k l %       ",
"        % F.A.|.P+e+s+:@t+.@M+ @A+2+P.-@<@[@}@u+>@c+|@1@Y+7+]@^@(@T+H C+o+e+n+J.0+3 *+%         ",
"        % D 2@|+V.J.G.3+L+t+ @[+3@4@`+5@6@7@T+S+S+T+8@*@5@-@7+{+^@9@C+E+3+G.H.I.|+(+W %         ",
"        % 0@0+G.U+N+-+H.9+:@9+3@P.`+Y+j+;@a@F+#@#@H b@%@j+j+Y+5.G+e+A+s+H.u.0+|+G.,.^ %         ",
"        % q+0+g+(+h+1.c@X.x+3@w+d@-@W.e@*@a@F+#@#@F+a@;@e@5.`+v+D.G+x+I.c@*.@@d.W.N+0@%         ",
"        % D E.C 5@f@i.c@|+4+w+K+Y+|+[@K+g@7@t+#@#@h@7@Z+i@&@4@V+j@r+4+7+m+5.A.5@j Y.W %         ",
"          % ~ 7.T.4.#+D.l+i+Y+Y+C.{@8@~@e@[@k@R+R+c+[@i@Z+l@2+i.j@j+~ A.5.4@d.T.m@- %           ",
"          % % % n@r+o@'+T.p@y+5.]@d+b@%@-@W+b@H .@q@k.-@;@a@o+x+D.r@p@(.s@4+r+A.% % %           ",
"              % 6+B.t@5+(.r@5.G+A+C+E+&@e@X+7@h@T+8@~@-@$+[+ @9+G+N+A.(.m@B *.u@l %             ",
"              % t@B *+% r@r+~+e+}@M+u+|@g@J+[@u+ @|@v@I+/@E+T+(@n+m+r+A.m@% B t@%               ",
"                % % % % - 4.P.x+^@c+ @8@*@-@&@b+E+&@J+~@{@k@}@^@P+4@d.t@Z.% % %                 ",
"                      % % 5@h+N+z+;+Q+{@~@K+&@:@E+&@I+X+!@:@)@z+N+6+_+% %                       ",
"                          % '@y+1+#+f+!@Z+g@/@L+k@!@Z+g@/@w@#+&.s@'@% %                         ",
"                            % % 5@x@P.#+g@X+y@L+u+y@x@v@H+4@z@i+7.%                             ",
"                              % % 5@A.r+K+z@{+B+>@]@*@j@r+h+5@% %                               ",
"                                  % '@@+I+d.x+L+u+2+(+v@u@'@%                                   ",
"                                    % _+V+1+3@9@u+3+A@j@i+%                                     ",
"                                    % *+B o@a+L+(@3+W.f@m@%                                     ",
"                                      % B@i.a+9@u+}+g+C@%                                       ",
"                                      % ^ P.}+9@}@}+D.T %                                       ",
"                                      % j 4@}+A+:@_@#+_.%                                       ",
"                                    % 3.Y.4@c@X.I.H.4@d.-.%                                     ",
"                                    % l @@&.,.5.7+,.&.6+D %                                     ",
"                                      % -.k D@:+2@D@E@7.%                                       ",
"                                        % % % W E@% % %                                         ",
"                                          % % % % %                                             ",
"                                                                                                "};
