/* XPM */
static char * PoP_WarriorWithin_xpm[] = {
"48 48 855 2",
"  	c None",
". 	c #010000",
"+ 	c #030000",
"@ 	c #1D0000",
"# 	c #3A0101",
"$ 	c #A01D1A",
"% 	c #902A27",
"& 	c #7F1E1C",
"* 	c #701413",
"= 	c #640D0C",
"- 	c #5C0B0B",
"; 	c #3C0908",
"> 	c #320C0B",
", 	c #360D0C",
"' 	c #2F0909",
") 	c #1A0404",
"! 	c #1F0303",
"~ 	c #210606",
"{ 	c #110000",
"] 	c #1B0101",
"^ 	c #420909",
"/ 	c #701917",
"( 	c #B52421",
"_ 	c #870909",
": 	c #000000",
"< 	c #100000",
"[ 	c #BD221B",
"} 	c #C5221A",
"| 	c #930E0C",
"1 	c #7C100E",
"2 	c #771C1A",
"3 	c #711817",
"4 	c #851E1B",
"5 	c #94231F",
"6 	c #B42A26",
"7 	c #C02522",
"8 	c #CD1E1B",
"9 	c #D02725",
"0 	c #D52723",
"a 	c #D43F3B",
"b 	c #EA615C",
"c 	c #EA3B34",
"d 	c #FB4239",
"e 	c #AE1E1B",
"f 	c #110303",
"g 	c #250302",
"h 	c #AB0C08",
"i 	c #B00B07",
"j 	c #6D0301",
"k 	c #6D0302",
"l 	c #5D0503",
"m 	c #510000",
"n 	c #7A0402",
"o 	c #AC0D09",
"p 	c #D3211A",
"q 	c #DF3830",
"r 	c #DE3D35",
"s 	c #DF332B",
"t 	c #E75951",
"u 	c #ED655C",
"v 	c #DE312A",
"w 	c #7D110E",
"x 	c #090000",
"y 	c #540D0D",
"z 	c #E11E1A",
"A 	c #B4110C",
"B 	c #9B0E0A",
"C 	c #A61610",
"D 	c #BF1A14",
"E 	c #C91C15",
"F 	c #DA221A",
"G 	c #D72019",
"H 	c #DB2C24",
"I 	c #BA1E18",
"J 	c #D0211A",
"K 	c #D5231C",
"L 	c #E0241D",
"M 	c #911A19",
"N 	c #3B0808",
"O 	c #B03A35",
"P 	c #EA5B4E",
"Q 	c #D9382E",
"R 	c #E61B12",
"S 	c #C71913",
"T 	c #AF1B15",
"U 	c #C8231B",
"V 	c #C6231C",
"W 	c #C5211A",
"X 	c #AF130D",
"Y 	c #AC1F18",
"Z 	c #991711",
"` 	c #A01510",
" .	c #AD1914",
"..	c #B7312F",
"+.	c #A41815",
"@.	c #971512",
"#.	c #330404",
"$.	c #140000",
"%.	c #952A26",
"&.	c #F56658",
"*.	c #FD7A61",
"=.	c #EF6149",
"-.	c #E63F2F",
";.	c #E83427",
">.	c #F02B24",
",.	c #CA2019",
"'.	c #C6271E",
").	c #D63128",
"!.	c #D32A21",
"~.	c #B81A13",
"{.	c #AA261F",
"].	c #B8261E",
"^.	c #C41A14",
"/.	c #EA5349",
"(.	c #CF3E32",
"_.	c #B7211B",
":.	c #D82E26",
"<.	c #D61D18",
"[.	c #830F0D",
"}.	c #0D0000",
"|.	c #3E0B0A",
"1.	c #B73C37",
"2.	c #F15D4E",
"3.	c #F06F55",
"4.	c #F77D5E",
"5.	c #F96148",
"6.	c #E24232",
"7.	c #9F1D17",
"8.	c #991612",
"9.	c #DE3B31",
"0.	c #CF3026",
"a.	c #D4372C",
"b.	c #D02820",
"c.	c #C12820",
"d.	c #DA3D33",
"e.	c #DD352B",
"f.	c #860F0C",
"g.	c #98251E",
"h.	c #D63428",
"i.	c #F44B3E",
"j.	c #E33C30",
"k.	c #D6221A",
"l.	c #EB221B",
"m.	c #B8110D",
"n.	c #330202",
"o.	c #691715",
"p.	c #C94841",
"q.	c #C04234",
"r.	c #CE3E2E",
"s.	c #F1604A",
"t.	c #ED5843",
"u.	c #8D221A",
"v.	c #220303",
"w.	c #170302",
"x.	c #DB3129",
"y.	c #DF3227",
"z.	c #E0382B",
"A.	c #E14032",
"B.	c #E64F41",
"C.	c #F76657",
"D.	c #8C2924",
"E.	c #6C1310",
"F.	c #DA372B",
"G.	c #F3372A",
"H.	c #DB261C",
"I.	c #E7281F",
"J.	c #DF1D17",
"K.	c #520504",
"L.	c #601514",
"M.	c #D24F47",
"N.	c #AC3529",
"O.	c #D43D2E",
"P.	c #E24030",
"Q.	c #BB2F24",
"R.	c #370807",
"S.	c #020000",
"T.	c #640E0C",
"U.	c #D1251E",
"V.	c #D8271D",
"W.	c #DB3126",
"X.	c #DE3125",
"Y.	c #C11A13",
"Z.	c #1C0101",
"`.	c #170000",
" +	c #9F1612",
".+	c #F43629",
"++	c #E6392C",
"@+	c #DF211A",
"#+	c #E62821",
"$+	c #4D0808",
"%+	c #DE544B",
"&+	c #BD4D3C",
"*+	c #E6624A",
"=+	c #EB4633",
"-+	c #A31D17",
";+	c #120203",
">+	c #3E0605",
",+	c #7D100D",
"'+	c #520F0D",
")+	c #520B0A",
"!+	c #901513",
"~+	c #CC2D27",
"{+	c #BF271E",
"]+	c #BF211A",
"^+	c #5A0B0B",
"/+	c #1D0707",
"(+	c #360B0A",
"_+	c #6E0D0B",
":+	c #390605",
"<+	c #740E0B",
"[+	c #F53C2D",
"}+	c #E7392C",
"|+	c #E4281F",
"1+	c #D81B16",
"2+	c #2E0505",
"3+	c #C8423E",
"4+	c #D95143",
"5+	c #E45E49",
"6+	c #EA5D47",
"7+	c #95221C",
"8+	c #0D0001",
"9+	c #0C0000",
"0+	c #D03E37",
"a+	c #E3584C",
"b+	c #C54039",
"c+	c #CD372F",
"d+	c #C02E27",
"e+	c #AF231A",
"f+	c #AF2721",
"g+	c #AF312C",
"h+	c #D4453C",
"i+	c #D8433B",
"j+	c #B82A26",
"k+	c #160202",
"l+	c #6A0B07",
"m+	c #F53E31",
"n+	c #E02C23",
"o+	c #EF4236",
"p+	c #B71B17",
"q+	c #060001",
"r+	c #812422",
"s+	c #F76554",
"t+	c #E86045",
"u+	c #EA694E",
"v+	c #A7211A",
"w+	c #100102",
"x+	c #63110F",
"y+	c #E23A2F",
"z+	c #B0281F",
"A+	c #C43529",
"B+	c #C4291F",
"C+	c #C72C22",
"D+	c #A82A20",
"E+	c #A0362D",
"F+	c #C54136",
"G+	c #A71C17",
"H+	c #250404",
"I+	c #850E0B",
"J+	c #F6423A",
"K+	c #DB3A2F",
"L+	c #ED3126",
"M+	c #6C0C0B",
"N+	c #220101",
"O+	c #E85B4D",
"P+	c #F66C4E",
"Q+	c #DF6649",
"R+	c #CF4532",
"S+	c #370908",
"T+	c #080000",
"U+	c #B9221B",
"V+	c #D6372C",
"W+	c #CF3C31",
"X+	c #D53C2F",
"Y+	c #E84A39",
"Z+	c #E15C4B",
"`+	c #F18671",
" @	c #E04B3F",
".@	c #3F0505",
"+@	c #BD2520",
"@@	c #E33E31",
"#@	c #DD3B30",
"$@	c #C21B15",
"%@	c #180303",
"&@	c #821C1B",
"*@	c #FF6F5A",
"=@	c #D0503A",
"-@	c #D4523D",
";@	c #811F1A",
">@	c #3A0303",
",@	c #DD3229",
"'@	c #D33B31",
")@	c #D0382D",
"!@	c #E74838",
"~@	c #E75948",
"{@	c #F66C57",
"]@	c #731F1B",
"^@	c #3F0000",
"/@	c #E6362E",
"(@	c #D9493C",
"_@	c #D9463C",
":@	c #6C1311",
"<@	c #0E0000",
"[@	c #D4453E",
"}@	c #F15E48",
"|@	c #C24D39",
"1@	c #C2382B",
"2@	c #1E0304",
"3@	c #7B1512",
"4@	c #EE4235",
"5@	c #D93428",
"6@	c #D8291F",
"7@	c #E64030",
"8@	c #A01C16",
"9@	c #A2201C",
"0@	c #EE4D3C",
"a@	c #ED5340",
"b@	c #BB221B",
"c@	c #070000",
"d@	c #4D0D0C",
"e@	c #F3584A",
"f@	c #DF4734",
"g@	c #E34E3C",
"h@	c #84201A",
"i@	c #D4372D",
"j@	c #E14437",
"k@	c #DA3528",
"l@	c #E5402F",
"m@	c #3F0A08",
"n@	c #410706",
"o@	c #F04E3B",
"p@	c #F06747",
"q@	c #F0452E",
"r@	c #420B09",
"s@	c #852420",
"t@	c #F65443",
"u@	c #E7533E",
"v@	c #EE5642",
"w@	c #440C0B",
"x@	c #982923",
"y@	c #ED4F41",
"z@	c #E23A2C",
"A@	c #CB2E22",
"B@	c #0A0000",
"C@	c #D04333",
"D@	c #F16949",
"E@	c #FF724E",
"F@	c #802018",
"G@	c #B13E36",
"H@	c #F1513D",
"I@	c #F37557",
"J@	c #E15844",
"K@	c #140001",
"L@	c #1B0000",
"M@	c #320808",
"N@	c #7A0D0B",
"O@	c #6F1311",
"P@	c #EB4D41",
"Q@	c #F04935",
"R@	c #951F17",
"S@	c #0B0000",
"T@	c #761110",
"U@	c #200304",
"V@	c #280505",
"W@	c #570B0B",
"X@	c #060000",
"Y@	c #9F342B",
"Z@	c #FF7853",
"`@	c #FF9065",
" #	c #AB3B2A",
".#	c #DF5D4C",
"+#	c #F1694F",
"@#	c #FFAF8B",
"##	c #C05B4D",
"$#	c #040000",
"%#	c #AA2D26",
"&#	c #CF382F",
"*#	c #A0312B",
"=#	c #982B26",
"-#	c #BE3D35",
";#	c #F15846",
">#	c #C23D2E",
",#	c #770505",
"'#	c #FB4D3C",
")#	c #F96143",
"!#	c #B8231C",
"~#	c #360000",
"{#	c #D0594B",
"]#	c #F36F5B",
"^#	c #CC483D",
"/#	c #C53830",
"(#	c #C63D36",
"_#	c #ED5B4A",
":#	c #D14C3D",
"<#	c #7C201C",
"[#	c #FFAE85",
"}#	c #FFC597",
"|#	c #D0705C",
"1#	c #E37565",
"2#	c #F9A586",
"3#	c #FFCBAB",
"4#	c #A14F47",
"5#	c #993028",
"6#	c #FF7054",
"7#	c #FE745C",
"8#	c #FD6A54",
"9#	c #F87358",
"0#	c #FF7F5A",
"a#	c #842A1F",
"b#	c #5E0E0E",
"c#	c #FF8D6D",
"d#	c #F9885D",
"e#	c #FF8F72",
"f#	c #671312",
"g#	c #80251D",
"h#	c #FF7253",
"i#	c #FA7D62",
"j#	c #F9755C",
"k#	c #EA4D3C",
"l#	c #F47052",
"m#	c #AD513F",
"n#	c #631210",
"o#	c #FFD4BD",
"p#	c #FEC8A3",
"q#	c #E06F57",
"r#	c #120000",
"s#	c #E86E5E",
"t#	c #FDC7A6",
"u#	c #FFC9A9",
"v#	c #882E23",
"w#	c #400100",
"x#	c #F9745F",
"y#	c #F9B9A4",
"z#	c #F6A592",
"A#	c #F2866B",
"B#	c #FB8E70",
"C#	c #40100E",
"D#	c #5A0C0C",
"E#	c #FF9A78",
"F#	c #F99F74",
"G#	c #FFA886",
"H#	c #70211B",
"I#	c #D03628",
"J#	c #FA7558",
"K#	c #F0654D",
"L#	c #E04835",
"M#	c #F76548",
"N#	c #701C16",
"O#	c #5B1514",
"P#	c #FFBAA7",
"Q#	c #FA8966",
"R#	c #E1442F",
"S#	c #190201",
"T#	c #DE5043",
"U#	c #FA9370",
"V#	c #FF8769",
"W#	c #8B251D",
"X#	c #9F332C",
"Y#	c #FB725D",
"Z#	c #E85342",
"`#	c #DC4734",
" $	c #C62B20",
".$	c #751C19",
"+$	c #FF977E",
"@$	c #F9A482",
"#$	c #FA6F55",
"$$	c #64100C",
"%$	c #7A1E1A",
"&$	c #FF7B5D",
"*$	c #E8513A",
"=$	c #CF392A",
"-$	c #D83928",
";$	c #5F1110",
">$	c #FFA891",
",$	c #FE9C7A",
"'$	c #E45041",
")$	c #1A0201",
"!$	c #C53D32",
"~$	c #F77355",
"{$	c #FF6F52",
"]$	c #B64237",
"^$	c #370202",
"/$	c #E53B2F",
"($	c #D84936",
"_$	c #CE3D2D",
":$	c #871611",
"<$	c #7D2623",
"[$	c #FFAB9A",
"}$	c #F5937A",
"|$	c #F14F3B",
"1$	c #5A0805",
"2$	c #51110E",
"3$	c #F25343",
"4$	c #DA4B3A",
"5$	c #C72C21",
"6$	c #A21914",
"7$	c #791E1E",
"8$	c #FFA893",
"9$	c #F8876B",
"0$	c #E25146",
"a$	c #150606",
"b$	c #AE332B",
"c$	c #FB6C53",
"d$	c #F77658",
"e$	c #E45644",
"f$	c #150000",
"g$	c #BF251D",
"h$	c #F55E47",
"i$	c #DF412F",
"j$	c #4E0F0C",
"k$	c #731816",
"l$	c #FC7267",
"m$	c #EF6955",
"n$	c #F35944",
"o$	c #530B09",
"p$	c #D63731",
"q$	c #E5564A",
"r$	c #D4221C",
"s$	c #570D0C",
"t$	c #A44743",
"u$	c #FF947E",
"v$	c #EA5441",
"w$	c #C8382E",
"x$	c #831E1B",
"y$	c #EF5645",
"z$	c #EC624C",
"A$	c #EF533F",
"B$	c #460909",
"C$	c #881D19",
"D$	c #FF6D5A",
"E$	c #D94437",
"F$	c #190202",
"G$	c #6E110E",
"H$	c #F65044",
"I$	c #F1725F",
"J$	c #EC5343",
"K$	c #450604",
"L$	c #A42622",
"M$	c #D53930",
"N$	c #C41611",
"O$	c #1F0505",
"P$	c #D85A50",
"Q$	c #EC5C47",
"R$	c #E84D3A",
"S$	c #A62F27",
"T$	c #4C0808",
"U$	c #E74C3F",
"V$	c #E55945",
"W$	c #EF5240",
"X$	c #8A1814",
"Y$	c #5B100E",
"Z$	c #FF7E6D",
"`$	c #BB4339",
" %	c #741713",
".%	c #FC7566",
"+%	c #F28B80",
"@%	c #E7453B",
"#%	c #3C0604",
"$%	c #6C1513",
"%%	c #E0342C",
"&%	c #A8130F",
"*%	c #050001",
"=%	c #460E0F",
"-%	c #F35D50",
";%	c #C43828",
">%	c #F05744",
",%	c #130000",
"'%	c #D74036",
")%	c #E75644",
"!%	c #E95D49",
"~%	c #D3362B",
"{%	c #1A0304",
"]%	c #220504",
"^%	c #F12F25",
"/%	c #921A13",
"(%	c #731B18",
"_%	c #FFA89B",
":%	c #F39185",
"<%	c #D92720",
"[%	c #270505",
"}%	c #410B0A",
"|%	c #FC6962",
"1%	c #7C1816",
"2%	c #A13734",
"3%	c #E24F41",
"4%	c #C03F30",
"5%	c #EB4A3A",
"6%	c #330909",
"7%	c #912521",
"8%	c #F35948",
"9%	c #E35440",
"0%	c #F85B46",
"a%	c #7B1915",
"b%	c #050000",
"c%	c #CF2F27",
"d%	c #781A16",
"e%	c #661412",
"f%	c #FFA594",
"g%	c #F16B56",
"h%	c #CF1C15",
"i%	c #150303",
"j%	c #360808",
"k%	c #EB5754",
"l%	c #430E0D",
"m%	c #1A0102",
"n%	c #E25249",
"o%	c #B83829",
"p%	c #E34734",
"q%	c #BC3329",
"r%	c #350706",
"s%	c #E34439",
"t%	c #DA4536",
"u%	c #DC513D",
"v%	c #C42E24",
"w%	c #2C0506",
"x%	c #9C1511",
"y%	c #620E0C",
"z%	c #550E0C",
"A%	c #FB765E",
"B%	c #EA412D",
"C%	c #BB1812",
"D%	c #0B0101",
"E%	c #380808",
"F%	c #D5201E",
"G%	c #1A0000",
"H%	c #822726",
"I%	c #E84C40",
"J%	c #B21B11",
"K%	c #E82E20",
"L%	c #631412",
"M%	c #9E231F",
"N%	c #E94438",
"O%	c #CB4939",
"P%	c #D94636",
"Q%	c #BF2C25",
"R%	c #500F0F",
"S%	c #150202",
"T%	c #540807",
"U%	c #370C0A",
"V%	c #4E0B0A",
"W%	c #FC7457",
"X%	c #F35439",
"Y%	c #A51914",
"Z%	c #210404",
"`%	c #9E1614",
" &	c #050101",
".&	c #7A1A19",
"+&	c #9F3130",
"@&	c #E54B46",
"#&	c #D53628",
"$&	c #C21B13",
"%&	c #BE1A15",
"&&	c #0E0304",
"*&	c #270404",
"=&	c #D72F26",
"-&	c #E04F3C",
";&	c #DE4A37",
">&	c #F04B3B",
",&	c #F2463C",
"'&	c #DE3B2F",
")&	c #4D0F0C",
"!&	c #4F0909",
"~&	c #FB765C",
"{&	c #FE6546",
"]&	c #911914",
"^&	c #0E0202",
"/&	c #3A0808",
"(&	c #B02E2C",
"_&	c #961E1D",
":&	c #BD1A17",
"<&	c #D92820",
"[&	c #B1261C",
"}&	c #CC251C",
"|&	c #4E0D0D",
"1&	c #560B09",
"2&	c #F34535",
"3&	c #C73729",
"4&	c #410A09",
"5&	c #340504",
"6&	c #CA392D",
"7&	c #EB352A",
"8&	c #210304",
"9&	c #440B0C",
"0&	c #F56752",
"a&	c #FB4C33",
"b&	c #75100C",
"c&	c #B42C2C",
"d&	c #B61E1E",
"e&	c #250101",
"f&	c #7D1411",
"g&	c #AE221C",
"h&	c #811310",
"i&	c #000001",
"j&	c #2B0D0D",
"k&	c #F7564B",
"l&	c #6B130F",
"m&	c #480B0B",
"n&	c #F54438",
"o&	c #6A0F0C",
"p&	c #33090A",
"q&	c #F25F4E",
"r&	c #FF7258",
"s&	c #751712",
"t&	c #260000",
"u&	c #E13A3B",
"v&	c #A72122",
"w&	c #400908",
"x&	c #B82522",
"y&	c #600B0B",
"z&	c #1C0406",
"A&	c #F45446",
"B&	c #8A201A",
"C&	c #621716",
"D&	c #F96453",
"E&	c #EF5442",
"F&	c #992D27",
"G&	c #ED766D",
"H&	c #FF8573",
"I&	c #8B2723",
"J&	c #110001",
"K&	c #6F1717",
"L&	c #D03535",
"M&	c #EC4C4E",
"N&	c #DC3837",
"O&	c #410504",
"P&	c #100100",
"Q&	c #8A2322",
"R&	c #91211F",
"S&	c #420504",
"T&	c #932721",
"U&	c #FF5340",
"V&	c #962622",
"W&	c #892926",
"X&	c #E44F46",
"Y&	c #E94130",
"Z&	c #EE6E5E",
"`&	c #FF9C86",
" *	c #EE6252",
".*	c #A81C17",
"+*	c #560D0C",
"@*	c #260808",
"#*	c #D95E55",
"$*	c #FF6C58",
"%*	c #952824",
"&*	c #1C0404",
"**	c #4B0808",
"=*	c #902523",
"-*	c #D3322E",
";*	c #BE2D2B",
">*	c #901111",
",*	c #B01616",
"'*	c #EA4946",
")*	c #F0423D",
"!*	c #D22F2D",
"~*	c #A52928",
"{*	c #5F0808",
"]*	c #0B0303",
"^*	c #0A0001",
"/*	c #DD362C",
"(*	c #DE3F35",
"_*	c #DF2A21",
":*	c #ED382B",
"<*	c #E96055",
"[*	c #EC7466",
"}*	c #E64332",
"|*	c #E9372D",
"1*	c #EE493D",
"2*	c #EA4C3F",
"3*	c #DB493C",
"4*	c #EE5E50",
"5*	c #E95642",
"6*	c #D8453D",
"7*	c #D14F47",
"8*	c #D63834",
"9*	c #EE453D",
"0*	c #EF362F",
"a*	c #D22D29",
"b*	c #670705",
"c*	c #570000",
"d*	c #610605",
"e*	c #C22924",
"f*	c #921715",
"g*	c #730C0B",
"h*	c #4E0706",
"i*	c #0F0202",
"j*	c #280303",
"k*	c #A21C18",
"l*	c #E72E28",
"m*	c #EF392E",
"n*	c #D2281D",
"o*	c #C31A13",
"p*	c #D72B1F",
"q*	c #E73F2D",
"r*	c #F15A41",
"s*	c #F15A49",
"t*	c #D93E2F",
"u*	c #E16454",
"v*	c #D53229",
"w*	c #E64B3B",
"x*	c #DD261E",
"y*	c #B02420",
"z*	c #4C0605",
"A*	c #6B0402",
"B*	c #680A09",
"C*	c #3C0303",
"D*	c #CE211B",
"E*	c #CB1A13",
"F*	c #E83124",
"G*	c #F24A35",
"H*	c #E8422F",
"I*	c #EB5143",
"J*	c #CB3A2C",
"K*	c #DA4D40",
"L*	c #D6392C",
"M*	c #DF3228",
"N*	c #FE715D",
"O*	c #EE4439",
"P*	c #AF120E",
"Q*	c #650908",
"R*	c #420908",
"S*	c #0C0203",
"T*	c #200505",
"U*	c #5D0B0A",
"V*	c #8C1A14",
"W*	c #AC2A20",
"X*	c #B7251B",
"Y*	c #D84740",
"Z*	c #C33A2D",
"`*	c #CD2E24",
" =	c #B1261D",
".=	c #AA241B",
"+=	c #972D25",
"@=	c #711311",
"#=	c #2E0707",
"$=	c #070101",
"%=	c #A62A23",
"&=	c #DA2C21",
"*=	c #78130F",
"==	c #A42C28",
"-=	c #F74034",
";=	c #600D0C",
">=	c #8F2521",
",=	c #FD513F",
"'=	c #52100D",
")=	c #822421",
"!=	c #F94C3B",
"~=	c #420B0A",
"{=	c #6C1816",
"]=	c #F35244",
"^=	c #320908",
"/=	c #380C0B",
"(=	c #E33D37",
"_=	c #1E0807",
":=	c #9B1918",
"<=	c #150404",
"[=	c #140405",
"                            . .                                 + @ +                           ",
"                            # $ % & * = - ; > , ' ) ! ~ { ] ^ / ( _ :                           ",
"                            < [ } | 1 2 3 4 5 6 7 8 9 0 a b c d e f                             ",
"                              g h i j k l m n o p q r s t u v w x                               ",
"                              : y z A B C D E F G H I J K L M :                                 ",
"                          : N O P Q R S T U V W X Y Z `  ...+.@.#.:                             ",
"                        $.%.&.*.=.-.;.>.,.'.).!.~.{.].^./.(._.:.<.[.}.                          ",
"                      |.1.2.3.4.5.6.7.8.9.0.a.b.c.d.e.f.g.h.i.j.k.l.m.n.                        ",
"                  : o.p.q.r.s.t.u.v.: w.x.y.z.A.B.C.D.:   f E.F.G.H.I.J.K.:                     ",
"                : L.M.N.O.P.Q.R.: S.  : T.U.V.W.X.Y.Z.        `. +.+++@+#+$+:                   ",
"                N %+&+*+=+-+;+    >+,+'+)+!+~+{+]+^+/+(+_+:+    : <+[+}+|+1+2+                  ",
"              < 3+4+5+6+7+8+      9+0+a+b+c+d+e+f+g+h+i+j+k+      : l+m+n+o+p+q+                ",
"            : r+s+t+u+v+w+          x+y+z+A+B+C+D+E+F+G+H+          : I+J+K+L+M+:               ",
"            N+O+P+Q+R+S+            T+U+V+W+X+Y+Z+`+ @.@              T++@@@#@$@%@              ",
"          : &@*@=@-@;@:               >@,@'@)@!@~@{@]@:                 ^@/@(@_@:@:             ",
"          <@[@}@|@1@2@                : 3@4@5@6@7@8@S.                  : 9@0@a@b@c@            ",
"          d@e@f@g@h@:                   $.i@j@k@l@m@                      n@o@p@q@r@            ",
"          s@t@u@v@w@                    : x@y@z@A@<@:                     B@C@D@E@F@:           ",
"        : G@H@I@J@K@        L@T+: : + M@N@O@P@Q@R@S@T@U@+ S.+ V@W@X@      : Y@Z@`@ #:           ",
"        S@.#+#@###$#      : %#&#*#=#-#;#>#,#'#)#!#~#{#]#^#/#(#_#:#T+        <#[#}#|#c@          ",
"        9+1#2#3#4#:         5#6#7#8#9#0#a#b#c#d#e#f#g#h#i#j#k#l#m#:         n#o#p#q#r#          ",
"        <@s#t#u#v#          w#x#y#z#A#B#C#D#E#F#G#H#< I#J#K#L#M#N#          O#P#Q#R#S#          ",
"        <@T#U#V#W#          : X#Y#Z#`# $+ .$+$@$#$$$: %$&$*$=$-$H+          ;$>$,$'$)$          ",
"        T+!$~${$]$:           ^$/$($_$:$: <$[$}$|$1$: 2$3$4$5$6$:           7$8$9$0$a$          ",
"        : b$c$d$e$f$          S.g$h$i$j$: k$l$m$n$o$  r#p$q$r$s$          : t$u$v$w$T+          ",
"          x$y$z$A$B$            C$D$E$F$  G$H$I$J$K$  : L$M$N$O$          S@P$Q$R$S$:           ",
"          T$U$V$W$X$:           Y$Z$`$S.   %.%+%@%#%    $%%%&%*%          =%-%;%>%.$            ",
"          ,%'%)%!%~%{%          ]%^%/%    (%_%:%<%[%    }%|%1%:         : 2%3%4%5%6%            ",
"          : 7%8%9%0%a%:         b%c%d%    e%f%g%h%i%    j%k%l%          m%n%o%p%q%+             ",
"            r%s%t%u%v%w%        : x%y%    z%A%B%C%D%    E%F%G%        : H%I%J%K%L%              ",
"            : M%N%O%P%Q%R%S%      T%U%    V%W%X%Y%S.    Z%`% &    V@.&+&@&#&$&%&&&              ",
"              *&=&-&;&>&,&'&)&:   :       !&~&{&]&:       ^&    /&(&_&:&<&[&}&|&                ",
"                1&2&3&4&5&6&7&8&          9&0&a&b&            : c&d&e&+ f&g&h&i&                ",
"                j&k&l&    m&n&o&:         p&q&r&s&          : t&u&v&S.  w&x&y&                  ",
"                z&A&B&: : C&D&E&F&*&:     `.G&H&I&      : J&K&L&M&N&O&P&Q&R&S&                  ",
"                : T&U&V&W&X&Y&Z&`& *.*+*@*,%#*$*%*: &***=*-*;*>*,*'*)*!*~*{*]*                  ",
"                  ^*4 /*(*_*:*<*[*}*|*1*2*3*4*5*6*7*8*9*0*a*b*c*d*e*f*g*h*i*                    ",
"                      B@c@j*k*l*m*n*o*p*q*r*s*t*u*~@v*w*x*y*z*A*B*S+:                           ",
"                            : C* +D*E*F*G*H*I*J*K*L*M*N*O*P*Q*R*S*                              ",
"                                : T*U*V*W*X*Y*Z*`* =.=+=@=#=$=                                  ",
"                                          b%%=&=*=: .                                           ",
"                                            ==-=;=                                              ",
"                                            >=,='=                                              ",
"                                            )=!=~=                                              ",
"                                            {=]=^=                                              ",
"                                            /=(=_=                                              ",
"                                            c@:=<=                                              ",
"                                              [= &                                              "};
