/* XPM */
/* c:\windows\profiles\tinou\Application Data\Microsoft\Installer\{9011040C-6000-11D3-8CFE-0150048383C9}\pubs.exe */
static char *icon[] = {
"48 48 256 2",
"01 c #FCFDFE",
"02 c #FBFCFD",
"03 c #273948",
"04 c #2D4152",
"05 c #2B3E4E",
"06 c #2C3F4F",
"07 c #293D4C",
"08 c #243542",
"09 c #2C4050",
"0A c #283B49",
"0B c #1F2D38",
"0C c #22313D",
"0D c #1D2A34",
"0E c #1B2730",
"0F c #18242C",
"10 c #263845",
"11 c #F7FAFC",
"12 c #172229",
"13 c #152026",
"14 c #FBFDFE",
"15 c #F9FBFC",
"16 c #F2F7F9",
"17 c #F1F6F8",
"18 c #F0F5F7",
"19 c #E8F1F4",
"1A c #E7F0F3",
"1B c #E6EFF2",
"1C c #E1EAED",
"1D c #F7FAFB",
"1E c #F6F9FA",
"1F c #437785",
"20 c #477A88",
"21 c #4C7E8C",
"22 c #518290",
"23 c #568693",
"24 c #5A8996",
"25 c #618E9B",
"26 c #8EB3BD",
"27 c #AAD1DC",
"28 c #B0D5DF",
"29 c #B5D8E2",
"2A c #D4E2E6",
"2B c #D3E1E5",
"2C c #DEE9EC",
"2D c #E2EDF0",
"2E c #E5EFF2",
"2F c #EFF6F8",
"30 c #EDF4F6",
"31 c #ECF3F5",
"32 c #E8EFF1",
"33 c #1E5461",
"34 c #5C8B97",
"35 c #5E8D99",
"36 c #63919D",
"37 c #66939E",
"38 c #8BC0CD",
"39 c #91C4D0",
"3A c #99C8D4",
"3B c #88B0BA",
"3C c #9ECBD6",
"3D c #8BB2BC",
"3E c #A4CED9",
"3F c #95B7BF",
"40 c #C4D9DE",
"41 c #B9CACE",
"42 c #E0ECEF",
"43 c #DFEBEE",
"44 c #DAE6E9",
"45 c #E1EDF0",
"46 c #EAF2F4",
"47 c #E6EEF0",
"48 c #F5F9FA",
"49 c #F4F8F9",
"4A c #1F4C56",
"4B c #568E99",
"4C c #66A8B5",
"4D c #68AAB7",
"4E c #598F9B",
"4F c #639EAA",
"50 c #6AA1AC",
"51 c #6CA2AD",
"52 c #7CB9C6",
"53 c #70A6B1",
"54 c #6899A3",
"55 c #6A9AA4",
"56 c #74A6B1",
"57 c #6C9BA5",
"58 c #84BDC9",
"59 c #78A8B2",
"5A c #7AAAB4",
"5B c #7DABB5",
"5C c #96C7D2",
"5D c #85AFB8",
"5E c #8DB2BA",
"5F c #92B5BD",
"60 c #98B9C0",
"61 c #9ABAC1",
"62 c #B3CCD1",
"63 c #C9DDE1",
"64 c #D0DFE2",
"65 c #D8E5E8",
"66 c #D7E4E7",
"67 c #E2ECEE",
"68 c #E9F2F4",
"69 c #E8F1F3",
"6A c #E4EDEF",
"6B c #F3F8F9",
"6C c #EFF4F5",
"6D c #165D6A",
"6E c #19626F",
"6F c #1A6572",
"70 c #1E7280",
"71 c #1A5F6B",
"72 c #1D5B67",
"73 c #2B7582",
"74 c #2D707B",
"75 c #31737E",
"76 c #3B8693",
"77 c #39828E",
"78 c #3F8D9A",
"79 c #26535B",
"7A c #387782",
"7B c #45909D",
"7C c #438995",
"7D c #4A939F",
"7E c #3E7B85",
"7F c #4B8F9B",
"80 c #4F95A1",
"81 c #44808A",
"82 c #5298A4",
"83 c #4F929E",
"84 c #5395A1",
"85 c #4B8691",
"86 c #49838D",
"87 c #5597A3",
"88 c #4E8892",
"89 c #5B9EAA",
"8A c #518B96",
"8B c #5EA1AD",
"8C c #538D98",
"8D c #62A5B2",
"8E c #5B9BA6",
"8F c #548B95",
"90 c #6AACB8",
"91 c #5D97A1",
"92 c #588E98",
"93 c #426B72",
"94 c #5B929C",
"95 c #41686F",
"96 c #5D939D",
"97 c #5F949E",
"98 c #67A0AB",
"99 c #6AA5AF",
"9A c #41656B",
"9B c #6397A1",
"9C c #62959E",
"9D c #4C747B",
"9E c #699EA7",
"9F c #6699A3",
"A0 c #64969F",
"A1 c #6FA4AE",
"A2 c #74AAB3",
"A3 c #7AADB7",
"A4 c #70A0A8",
"A5 c #6D9CA4",
"A6 c #7CAFB8",
"A7 c #6F9AA2",
"A8 c #78A5AD",
"A9 c #82B2BA",
"AA c #7EABB3",
"AB c #80ADB5",
"AC c #83AEB6",
"AD c #7EA8AF",
"AE c #8AB6BE",
"AF c #789FA6",
"B0 c #89B4BC",
"B1 c #88B2BA",
"B2 c #8FBAC2",
"B3 c #90B9C0",
"B4 c #89AFB6",
"B5 c #94BDC4",
"B6 c #7A959A",
"B7 c #A6C9CF",
"B8 c #A4C4CA",
"B9 c #A1BFC4",
"BA c #AECDD3",
"BB c #A5C2C7",
"BC c #A9C6CB",
"BD c #B5D2D7",
"BE c #AEC8CD",
"BF c #ACC4C8",
"C0 c #B9D0D4",
"C1 c #C0D5D9",
"C2 c #CADFE3",
"C3 c #DCE8EA",
"C4 c #E5F0F2",
"C5 c #E4EFF1",
"C6 c #E3EEF0",
"C7 c #F0F6F7",
"C8 c #EFF5F6",
"C9 c #176E7C",
"CA c #196A77",
"CB c #1D6A76",
"CC c #216E7A",
"CD c #26717D",
"CE c #276C77",
"CF c #317B86",
"D0 c #357E89",
"D1 c #3F8691",
"D2 c #478D98",
"D3 c #315E65",
"D4 c #346067",
"D5 c #366268",
"D6 c #569AA5",
"D7 c #589CA7",
"D8 c #3A656C",
"D9 c #528992",
"DA c #65A3AD",
"DB c #5C9199",
"DC c #3F6166",
"DD c #3C5A5E",
"DE c #537B81",
"DF c #5C8389",
"E0 c #74A3AA",
"E1 c #62878D",
"E2 c #7DACB3",
"E3 c #8EB7BD",
"E4 c #9CC2C8",
"E5 c #8DADB2",
"E6 c #90B0B5",
"E7 c #89A6AA",
"E8 c #9DBDC2",
"E9 c #BAD6DA",
"EA c #BFD8DC",
"EB c #DFECEE",
"EC c #D4E1E3",
"ED c #EFF6F7",
"EE c #3E5E62",
"EF c #3C575A",
"F0 c #6A9095",
"F1 c #A5BCBF",
"F2 c #CADCDE",
"F3 c #EBF4F5",
"F4 c #E9F2F3",
"F5 c #ECF4F5",
"F6 c #EAF2F3",
"F7 c #E4F0F1",
"F8 c #E6F0F1",
"F9 c #D4EBEB",
"FA c #F9FCFC",
"FB c #F8FBFB",
"FC c #F6F9F9",
"FD c #FCFDFD",
"FE c #FFFFFF",
"FF c #FEFEFE",
"   c None",
"                                                                                                ",
"                                                                                                ",
"                                                                                                ",
"                                                                                                ",
"        37373737363636252525353534342424232423232222222221212121202120201F201F1F1F1F1F1F        ",
"        3729EA292928292828272827273E3E3E3E3C3C3A3A5C5C3939383838385858585852585252525204        ",
"        3729616060603F3F5FB326263D5E3B3B5D5D5BAB5B5B595956595353A151515050984F984F4F8E04        ",
"        3729615757555755555454549F549B9B9B9C9C9797969694944E4E4B4E4B4B8C8C8C8C8A7F908E09        ",
"        36296057FEFEFEFFFFFFFFFF01FD01FDFA02FA021515FB1D1E1E48FC166B166B17ED18ED934D8709        ",
"        36286157FEFEFEFFFFFFFF01FF01010214FAFA15FAFB1D1DFBFCFC496B6B6BC76BC718C8934CD606        ",
"        36293F55FEFFFFFFFFFF0101FDFDFA02FA151515FB1DFC4848484949176B1717C71830C8954D8705        ",
"        36283F55FEFF99DADA8B4F89D7D68280807D7B788A4FB248486B6B6B6B17EDC72FC86C30934C8707        ",
"        25285F55FFFF99B7BDC2636329EABDBDBAB7E4B526A9847EAF16166B17172FC83030F3F5958D8407        ",
"        25273F54FFFFDAE4B8E9C24040BABABAB7B5B2A9A25A53536E81E0176B2FC7C8C8303131958D8407        ",
"        3527265401FFDA7D7DA6E9C2E989D6D67D7B7878A9B0A85674BFAD75E81830C830F5F531958D830A        ",
"        35272654FF01010114A3BD63BDC9FEFEFEFEFEA24FB2B0A28886F6C18681F230F531F346958B8303        ",
"        34273D540101FD01FAA2BA40B8C9FEFEFEFEFEFA84E4B3A9D96F321B6A6175A0443146469A8B7F03        ",
"        343E3DA001FDFD141453BAEAB8C9FEFEFEFEFEF387B5B5B18A6DF8476A1C2AA0745F466895897F10        ",
"        243E3B9B0114FA02FA53B7E9B9C9FEFEFEFEFEEB82B2B0AC886E476A67EB63BE74B8F4699A89D210        ",
"        243E3BA0FD02FDFAFA99B7BDB5CAFEFEFEFEFEF987B0ABA8887A47671C2BC0DB88F6691A9AD7D208        ",
"        233C5DA0FA02FAFA15DAE4BA3DCAFEFEFEFEFEA28E5DE055D835674366C15FCE9DEC6969DCD67C08        ",
"        233C5D9702FAFA15FA4FE4B7B46F8282D6D6D7A259A49B9C6EBEEBC3F2BE77DB9DD3E7F89A827C08        ",
"        233C5B9715FA15151D89B2B8AA84D6A253A1A49E964B856DA72CC364C0E0755FE8D4F11ADC82D108        ",
"        233AAC971515FB11158EAEE8A89B919191968F8681747E372CC366C1BB74E061DF9DC42EDC80D10C        ",
"        223A5B96FAFB11FB4882A9B5A56F6D717171716E6F88E42C4465C1BE8F8160E6D3F12E2ED583770C        ",
"        225C5B96FBFB1D1E1E80A6E39B6F17C76CF6F6476A2C2C446663C03FCEB4BB93A71B2EC5DC7F770C        ",
"        225C5994FB1D48481E7D59B1346F303032F6C6672CC3662A63C1BB818FB9B6D81BC52D2EEE7FD00B        ",
"        223959DBFB484848487BA2ACD96EDB64326A1CC344662A6440BEA475E8BCD5F12E2EC645EED2D00B        ",
"        2139564E1D484849497851E2866E5474A42A4465EC2B6440BE6174A8BBE1B647C5C6C6C6DDD2CF0B        ",
"        2138594E111E48496B78DA59816DEBE89474E52A2B64F2C0BC8F81BBB9D34147C52D2D45EE7CCF0D        ",
"        2138534E48494949EA8E4F56816DEA2AC1B4857AB9F2C0BEB4CE5F6293E7C52E2DC62D45DD7C730D        ",
"        2138564B494949EA76B3E2A1DBD96DF0BFC1BCAF7E86E8E88192BEE7D8F2C5C6F72D4567EED1CF0E        ",
"        2038A14B6B6B8476E3AB9E9F9CDB8F6D79DEBBBEB49C748674B8BDD5F1C62D2D2DC64542DDD1730E        ",
"        2158A18C6B17709E4F94838581CF73CC4ADED3DFB93FAF88A8BDF09D2EC6C5452D452D42DD77730E        ",
"        2058518C1616CACB6F6F727233334A4A4A46F193D4F060BB62BED3F12DC62D4545424242EFD1CD0E        ",
"        2058508C161717C72FC82F3030F5F3F64668691ABFD895E5C1D5F045C62D2D45454242EBDD77CD0F        ",
"        1F58988CC717C718C8C83031F331684668F4696932F8F1E1D59A2DC62D45EB4242421CEBEF77CC0F        ",
"        2052508AED2F2F186C30303131314668F6691AF81AF8F7C52E2DC62D2D42454242EBEB43EFD0CC0F        ",
"        1F524F8AC7ED303030304631F4466846C4191A1B2E2EC5C6C62E2D4545424242EB43EB43EFD0CB12        ",
"        2052988A2FC8C8F5F5306C46466968191A1AC42EF72EC5C62E4545674242EB4342434343EFD0CC12        ",
"        1F524F8A93939593959595959A9A9A9ADCDCDCDCEEEEEEEEDDEEDDDDDDDDEFDDEFEFEFEF04CFCA12        ",
"        1F524F90904C4C4C4C8D8D8B8B8989D7D6828280837F7FD2D27C78D1D177777777D0D0CFCFCFCB13        ",
"        1F528E8E87D68787848483837F7FD2D27C7CD1D17777D0D0CFCF73737373CDCDCCCCCBCCCBCB6F13        ",
"        1F0404090405050707070A030A1010080808080C0C0B0B0B0B0D0D0E0E0E0E0F0F12121212131313        ",
"                                                                                                ",
"                                                                                                ",
"                                                                                                ",
"                                                                                                "};
