/* XPM */
/* c:\windows\profiles\tinou\Application Data\Microsoft\Installer\{95A890AA-B3B1-44B6-9C18-A8F7AB3EE7FC}\QTPlayer.ico */
static char *icon[] = {
"48 48 28 2",
"09 c #A6CAF0",
"22 c #0258C5",
"23 c #0266CA",
"26 c #126AC2",
"27 c #027DE3",
"30 c #4E66F6",
"42 c #068EAA",
"45 c #028FFD",
"46 c #029AFE",
"47 c #0E9DFE",
"48 c #17A4FE",
"4B c #3296EE",
"4E c #45B7FE",
"50 c #68AAE5",
"52 c #68C7FE",
"9D c #81BDEC",
"A5 c #8FC9FE",
"A6 c #89D0FE",
"A7 c #92C3EE",
"A8 c #9ACEFE",
"AD c #ADDDFE",
"D0 c #D9D9FE",
"E8 c #E0E0FE",
"F3 c #FEF5FE",
"F4 c #FDFDF5",
"F6 c #FFFBF0",
"FF c #FFFFFF",
"   c None",
"                                                                                                ",
"                                                                                                ",
"                                                                                                ",
"                                                                                                ",
"                                                                                                ",
"                                          4242424242424242                                      ",
"                                    4242429D9D9D9DA69D9DA8424242                                ",
"                                4242A54E504E484E484B48504E504EA54242                            ",
"                            42424B4B48474646464646464746464646484B4E4242                        ",
"                          424B454545464646464846484848484746464545454B3042                      ",
"                        2645454546464648484E484E484E484E484B464646484B454B23                    ",
"                      4227454646464846484E48424242424242484E484648E8D048452723                  ",
"                    234545464646464648424242            4242464BD0FFF6F648452723                ",
"                  42272745464648464842                      42A7FFF4F6FFD04B452742              ",
"                  422745464648484642                        42A609FFFFFFFF09452723              ",
"                424545464646464642                        429D30459DFFFFD04845452742            ",
"                2345464646464642                        265250484B46ADD0484646452723            ",
"              4227274646464642                        429D504846484E484B46464645452723          ",
"              42274546464642                      F3269D4E4B464B4E48422646464646454542          ",
"              42274646464642                      429D4E4B45484E4842    42454646452723          ",
"            2645454646464542                  F3239D504847484E4842      4245464645452742        ",
"            42274646464642                    429D4E4B45484E4842          42464646454526        ",
"            42274646464642                  269D4E4B46484E4842            42454646454542        ",
"            42454646464642                  424E4B46484E4842              42454646464542        ",
"            42454646464642                  42484B484E4842                42454646464642        ",
"            42454646464542                  42484E484242                  42454546464642        ",
"            42454646464526                    424242                      23454646464642        ",
"            4245464646452726                                            4227274646464642        ",
"              42464646454542                                            42274546464642          ",
"              42454646464526                                            42454646464642          ",
"              424546464B464526                                        4245464646464642          ",
"                424546484B484526                                    424B4B4847464642            ",
"                424546484E4E4E4526                                424B4B484746484B42            ",
"                  424546484E4E4E4B22                            424E4E4B484746484B42            ",
"                  4245464648504EA54E42                        239D504B484746464842              ",
"                    4245454648504BA59D234242            4223429D4E4B48464646464E4842            ",
"                      424845464B504B509DA89D2642264242269D9D4E504B48474646464646485042          ",
"                        424B4845484E4E50504E529D9DA54E504E50484B4847464B4B46464646485042        ",
"                          424B484545484B484B504E504B4B484B484646464B484B484B484746464842        ",
"                            42424B484B464646484B48464B46464646484B484842484B484B46464642        ",
"                                42424846484B4846464648484B484846424242  4248464646464642        ",
"                                    4242424646464646464646424242          42464848484642        ",
"                                          4242424242424242                  424242424242        ",
"                                                                                                ",
"                                                                                                ",
"                                                                                                ",
"                                                                                                ",
"                                                                                                "};
