/* XPM */
/* c:\windows\profiles\tinou\Application Data\Microsoft\Installer\{DDEDBEE3-E5B7-454A-A457-9B06C5C67B85}\SafariIco.exe */
static char *icon[] = {
"48 48 44 2",
"07 c #808080",
"08 c #C0DCC0",
"09 c #A6CAF0",
"0A c #2A3FAA",
"0E c #2A5FAA",
"12 c #2A7FAA",
"16 c #2A9FAA",
"17 c #2A9FFF",
"1B c #2ABFFF",
"2D c #553F55",
"31 c #555F55",
"32 c #555FAA",
"36 c #557FAA",
"3A c #559FAA",
"3B c #559FFF",
"3F c #55BFFF",
"50 c #7F3F00",
"51 c #7F3F55",
"55 c #7F5F55",
"5A c #7F7FAA",
"5E c #7F9FAA",
"63 c #7FBFFF",
"74 c #AA3F00",
"79 c #AA5F55",
"82 c #AA9FAA",
"86 c #AABFAA",
"98 c #D43F00",
"9D c #D45F55",
"A1 c #D47F55",
"A6 c #D49FAA",
"AA c #D4BFAA",
"AF c #D4DFFF",
"B3 c #D4FFFF",
"BE c #FF5F00",
"D4 c #CCCCFF",
"DC c #007FAA",
"DD c #007FFF",
"F0 c #2A1F00",
"F1 c #2A1F55",
"F5 c #2A3F55",
"F6 c #FFFBF0",
"F7 c #A0A0A4",
"FF c #FFFFFF",
"   c None",
"                                    86828282                                                    ",
"                                  8207F78207F7                                                  ",
"                                  F782AF088607                                                  ",
"                                  F7F7F7F70707                                                  ",
"                                    F7F7088682070707070707                                      ",
"                                  0786F6FFFFFFFFFFFFFFFFF6070707                                ",
"                              0707FFFFFFAF088682F7828608AFF6F6F60707                            ",
"                          0707FFFFF68607313131313131313107078208AFF60707                        ",
"                        07AFFFF68607313107F7F7828282F7F707073107F782080807                      ",
"                      07F6FFAF073107F7F75A5E5A07070707075AF7F707310707F70807                    ",
"                    07F6FF083131F7F707075A820982090909825E5A075A82073107078607                  ",
"                  07AFFF863107F707075E0909088609860909090808825A07F7F7070731F707                ",
"                0708FF863107F7323686090982AFAF085E860909860909095E325E82070731F707              ",
"              0782F6863107F7325A868282825E5E86AF825E8282828282090982325A860707310707            ",
"              07AF085507F73236825E5E5E5E5E5E5E5E5E5E5E5E5E5E5E8209A1F7325E8207073107            ",
"            0786080707F707325E5E5E5E5E5E5E5A5E095E5E5E5E5E5E5E5E9D795E5E3282F707313107          ",
"            0708F755F7F7325A5E5E5A5A5A5A5A5A5EAF5E5A5A5A5A365A9D795A5A5E36368607072D07          ",
"          07F78607078207325E5E363636363636365EFF09363636365A9D98363636365E32F78207313107        ",
"          0782F707F7F732363636363636363636365EFFAF36363607BE98553636363636365A86F7073107        ",
"          07820707825A0E363636363636363636365EB3AF095E07BE985136363636320E36368682073107        ",
"        0707F7070786360E32323636363636090909095E3636A1BE987432363636365A8209368686F731F707      ",
"        07070707F78632323232323636363636D4090E0E0E79BE987432363636365ED4D45E5E0886F731F707      ",
"        07075507F78632323636360E120E0E0E5E0E0E0E79BE98743108B3AFAF093636365E365E0882310707      ",
"        07F73107828636360E0E0E0E0E0E0E365E0E0EF7A67974500EAFAF09120E0E120E0E125E0886070707      ",
"        07F7310786860E0E0E0E360E0E1209B3090E09F6AF82743212091212121212DCDC0E125E0886073107      ",
"        0786310786820E0A36AF5E0E09AFFFFF093AFFF6860731123A5E1212121216121212125E0886073107      ",
"        0708070786825E0E5E5E5E36363636125EFFF682070E121209091216161616121212125E0886313107      ",
"        0708F7078686820E1208090E1212121209FF825A0E0E16636309631616163B16121212860886312D07      ",
"        0782860786865E0E363ADC121212125EFF8607365E09D45E16163B3A3A3B3B161616360808822D2D55      ",
"          0708318286F73612121212121216FFAA0712123BFFB316163B3B3B3B3F3B1717165E08AFF7F531        ",
"          070855F786865E121212121212AFAA321216161709B33B173B3F3F3F3F3B3F161609F60831F531        ",
"          07F707078686F7361216161709080E12171717173FB33B17173F3F3F3F3F3F175EAFF6862DF52D        ",
"            078231F708865E121616630836121717171717170917173B3F3F3F3F3F3B3A08F6AF07F52D          ",
"            310731070808865E123F093A16171717173B3B173B3B173F3F3F3F3F3F3B09F6FF862DF5F5          ",
"              31072DF70808865E5E3A3F3F3F3B3B3F3F1717093BDD1B3F3F3F3F3B09F6FFAF31F5F5            ",
"              3131312D82AF08085E163F3F3F3F3F3F3F17DD6309171B3F633F3F09F6FFF607F5F5F1            ",
"                2D312D3186F6AF08633B3B3F3F3F3F3F3FDD1B171B3F3F3F6308F6FFF607F5F5F0              ",
"                  F52DF53186F6F6AF08633F3B3F3F3F3F3F1B3F3F3F3F09AFF6FFF607F5F5F1                ",
"                    F52DF531F7AFFFF6AF080963633F3F3F3FAF0909AFF6FFFF0855F5F5F1                  ",
"                      F1F5F52D0708F6FFF6F6AFAFAFAFAFAFAFF6F6FFFFAFF72DF5F5F5                    ",
"                        F5F1F5F52D0786AFFFFFFFFFFFFFFFFFFFF608F731F5F5F5F5                      ",
"                          2DF0F1F5F5F53107F786080808868207552D2D2D312DF5                        ",
"                              F5F0F5F5F5F5F5F52D2D2D2D313131313131F5                            ",
"                                  2DF5F5F52D3131310707070731312D                                ",
"                                        2D2D2D2D2D2D2D2D2D                                      ",
"                                                                                                ",
"                                                                                                ",
"                                                                                                "};
