/* XPM */
/* C:\Program Files\Steam\steam.exe */
static char *icon[] = {
"32 32 23 2",
"00 c #000000",
"11 c #FFFFFF",
"13 c #A0A0A4",
"EC c #F2F2F2",
"ED c #E6E6E6",
"EE c #DADADA",
"EF c #CECECE",
"F0 c #C2C2C2",
"F1 c #B6B6B6",
"F2 c #AAAAAA",
"F3 c #9E9E9E",
"F4 c #929292",
"F5 c #868686",
"F6 c #7A7A7A",
"F7 c #6E6E6E",
"F8 c #626262",
"F9 c #565656",
"FA c #4A4A4A",
"FC c #323232",
"FD c #262626",
"FE c #1A1A1A",
"FF c #0E0E0E",
"   c None",
"    00000000000000000000000000000000000000000000000000000000    ",
"  000000000000000000000000000000000000000000000000000000000000  ",
"0000000000000000000000000000000000000000000000000000000000000000",
"0000000000000000000000000000000000000000000000000000000000000000",
"0000000000000000000000000000000000000000000000000000000000000000",
"0000000000000000000000000000000000000000000000000000000000000000",
"0000000000000000000000000000000000000000000000000000000000000000",
"0000000000000000000000000000000000000000000000000000000000000000",
"000000000000000000000000000000000000000000000000FEFEFAFC00000000",
"000000FCFCFC0000000000000000000000000000000000F9F0111111F0FF0000",
"000000ECECECECFF0000000000000000000000000000FEF011FFFFFF11F00000",
"0000ECF5FEFEF5EC0000000000000000000000000000FE11FFF311F3FE110000",
"0000EDFEF2111111F5FC000000000000000000000000F911FF111111FFEDF800",
"0000EDFEF01111111111EDF700000000000000000000ED11FFF311F3FEEDF800",
"0000F0EEFEFE1111111111111113FD000000000000F41111F1FFFFFFF7110000",
"000000F0EEEEFAF511111111111111FA00000000FC1111111111ECEC11F80000",
"000000000000000000F9EE1111111111ECF6F6F0EC1111111111ECF4FE000000",
"0000000000000000000000FCF211111111111111FEF1111111F7000000000000",
"00000000000000000000000000F811111111111111FEEDEFFE00000000000000",
"0000000000000000000000000000FCF21111111111FEEC000000000000000000",
"000000000000000000000000000000F8EEF8F1F1F1FEEE000000000000000000",
"00000000000000000000000000000000F811FEFEFEEEF7000000000000000000",
"0000000000000000000000000000000000F6EFEFEFF7FE000000000000000000",
"0000000000000000000000000000000000000000000000000000000000000000",
"0000000000000000000000000000000000000000000000000000000000000000",
"0000000000000000000000000000000000000000000000000000000000000000",
"0000000000000000000000000000000000000000000000000000000000000000",
"0000000000000000000000000000000000000000000000000000000000000000",
"0000000000000000000000000000000000000000000000000000000000000000",
"0000000000000000000000000000000000000000000000000000000000000000",
"  000000000000000000000000000000000000000000000000000000000000  ",
"    00000000000000000000000000000000000000000000000000000000    "};
