/* XPM */
static char * The Witcher Enhanced Edition_xpm[] = {
"32 32 553 2",
"  	c None",
". 	c #3B3D35",
"+ 	c #404137",
"@ 	c #3D3E34",
"# 	c #34342A",
"$ 	c #2E2F25",
"% 	c #313229",
"& 	c #3A3B31",
"* 	c #36382F",
"= 	c #62655B",
"- 	c #5B5E54",
"; 	c #3F4138",
"> 	c #36362C",
", 	c #2F2E24",
"' 	c #252921",
") 	c #272920",
"! 	c #343228",
"~ 	c #49473A",
"{ 	c #4E5045",
"] 	c #494C43",
"^ 	c #34372F",
"/ 	c #9C9B89",
"( 	c #4B4E45",
"_ 	c #707369",
": 	c #5B6055",
"< 	c #45473E",
"[ 	c #48473C",
"} 	c #39362A",
"| 	c #413E32",
"1 	c #292921",
"2 	c #24231C",
"3 	c #4F4C3F",
"4 	c #2F2C22",
"5 	c #403E33",
"6 	c #42433A",
"7 	c #5E6157",
"8 	c #454940",
"9 	c #373B32",
"0 	c #A2A19C",
"a 	c #2D2D27",
"b 	c #494133",
"c 	c #6A6B5E",
"d 	c #7F8577",
"e 	c #92948C",
"f 	c #B4BCAE",
"g 	c #909786",
"h 	c #7F8375",
"i 	c #353B34",
"j 	c #56594C",
"k 	c #6E6E60",
"l 	c #636254",
"m 	c #807F71",
"n 	c #6E6F63",
"o 	c #40443B",
"p 	c #787A6F",
"q 	c #8E968C",
"r 	c #51574D",
"s 	c #6C7066",
"t 	c #7E817B",
"u 	c #2E2C25",
"v 	c #31312A",
"w 	c #41423A",
"x 	c #362418",
"y 	c #3D3D35",
"z 	c #787D70",
"A 	c #91998C",
"B 	c #747C6D",
"C 	c #7E8B7F",
"D 	c #5A645A",
"E 	c #29332D",
"F 	c #565F54",
"G 	c #666D60",
"H 	c #767E73",
"I 	c #6D7369",
"J 	c #1F2722",
"K 	c #48504B",
"L 	c #4F5851",
"M 	c #5C635A",
"N 	c #383D38",
"O 	c #191E1C",
"P 	c #201D19",
"Q 	c #7C7E73",
"R 	c #5F6359",
"S 	c #372920",
"T 	c #373530",
"U 	c #40433D",
"V 	c #333931",
"W 	c #2D3E3D",
"X 	c #53645F",
"Y 	c #4B5C57",
"Z 	c #212C2A",
"` 	c #263330",
" .	c #28322F",
"..	c #2A3533",
"+.	c #1C2827",
"@.	c #1D2521",
"#.	c #181E1B",
"$.	c #2B322F",
"%.	c #202623",
"&.	c #111818",
"*.	c #121818",
"=.	c #161715",
"-.	c #30342D",
";.	c #93968D",
">.	c #818275",
",.	c #272C27",
"'.	c #362F27",
").	c #323F41",
"!.	c #333A39",
"~.	c #566058",
"{.	c #A2B0A5",
"].	c #5C6E69",
"^.	c #5A6257",
"/.	c #475048",
"(.	c #3F4740",
"_.	c #474F49",
":.	c #2B3634",
"<.	c #394541",
"[.	c #1B2625",
"}.	c #1A211F",
"|.	c #091215",
"1.	c #0B1516",
"2.	c #0A1012",
"3.	c #141A1A",
"4.	c #22261F",
"5.	c #252820",
"6.	c #A6AAA0",
"7.	c #A0ADA7",
"8.	c #7C8279",
"9.	c #212A27",
"0.	c #1C292B",
"a.	c #3E4440",
"b.	c #55625E",
"c.	c #D7D9D1",
"d.	c #E3EBE8",
"e.	c #A0B0AB",
"f.	c #627068",
"g.	c #3E4A46",
"h.	c #4B5853",
"i.	c #2D3835",
"j.	c #394542",
"k.	c #3F4D4A",
"l.	c #2F3A37",
"m.	c #2E352F",
"n.	c #131B1B",
"o.	c #071013",
"p.	c #060B0E",
"q.	c #222927",
"r.	c #3B433E",
"s.	c #37403A",
"t.	c #88887D",
"u.	c #63665D",
"v.	c #3E5052",
"w.	c #313B3D",
"x.	c #27393A",
"y.	c #97A7A2",
"z.	c #485A59",
"A.	c #7A7C76",
"B.	c #C5C0B6",
"C.	c #93988E",
"D.	c #656C65",
"E.	c #414A43",
"F.	c #3E4843",
"G.	c #404C49",
"H.	c #34413E",
"I.	c #222D2A",
"J.	c #252B26",
"K.	c #383F38",
"L.	c #0B1316",
"M.	c #091113",
"N.	c #1D2421",
"O.	c #2D3631",
"P.	c #2D352F",
"Q.	c #1B1D17",
"R.	c #63655C",
"S.	c #676457",
"T.	c #656F6B",
"U.	c #5C6B6B",
"V.	c #4D6264",
"W.	c #93AAA7",
"X.	c #465958",
"Y.	c #8E9287",
"Z.	c #474B47",
"`.	c #2F3333",
" +	c #2B3334",
".+	c #2B3633",
"++	c #2F3632",
"@+	c #1E2624",
"#+	c #161C1A",
"$+	c #2E332F",
"%+	c #353A35",
"&+	c #232822",
"*+	c #3D433A",
"=+	c #232B27",
"-+	c #0E191A",
";+	c #182321",
">+	c #393E36",
",+	c #1F211B",
"'+	c #23261F",
")+	c #767A70",
"!+	c #828A83",
"~+	c #ACBDB9",
"{+	c #B6C8C5",
"]+	c #C7D3CC",
"^+	c #C6CFC7",
"/+	c #D4DCD6",
"(+	c #AABEBA",
"_+	c #637876",
":+	c #374542",
"<+	c #152122",
"[+	c #26363A",
"}+	c #324243",
"|+	c #37413C",
"1+	c #1F2520",
"2+	c #0E1210",
"3+	c #262C26",
"4+	c #252D28",
"5+	c #3A4039",
"6+	c #4A5048",
"7+	c #343D37",
"8+	c #323B36",
"9+	c #363F3A",
"0+	c #2F3732",
"a+	c #323A34",
"b+	c #2A2D26",
"c+	c #BFC0B9",
"d+	c #B6B2AC",
"e+	c #A39E97",
"f+	c #9E9892",
"g+	c #ABA59E",
"h+	c #C4BBB5",
"i+	c #DDD7D1",
"j+	c #E4E7DE",
"k+	c #CDDAD6",
"l+	c #879D9B",
"m+	c #94A098",
"n+	c #9EAAA3",
"o+	c #8E9C95",
"p+	c #535F57",
"q+	c #373E37",
"r+	c #323934",
"s+	c #2D342E",
"t+	c #50534C",
"u+	c #4A4D44",
"v+	c #474B43",
"w+	c #494E46",
"x+	c #3F4640",
"y+	c #373F3A",
"z+	c #2C332E",
"A+	c #2B322D",
"B+	c #343F3A",
"C+	c #394641",
"D+	c #51493D",
"E+	c #555448",
"F+	c #535044",
"G+	c #4A473C",
"H+	c #3E3C32",
"I+	c #3A382E",
"J+	c #37322A",
"K+	c #312F2B",
"L+	c #4C3F38",
"M+	c #74706E",
"N+	c #C8D1C7",
"O+	c #B9C4BF",
"P+	c #9AA7A0",
"Q+	c #8E9E96",
"R+	c #59675E",
"S+	c #3A4139",
"T+	c #3B423B",
"U+	c #54574E",
"V+	c #2C2F2A",
"W+	c #1C201D",
"X+	c #1D221F",
"Y+	c #202725",
"Z+	c #1E2827",
"`+	c #202B29",
" @	c #1E2927",
".@	c #1F2724",
"+@	c #232A26",
"@@	c #1A201D",
"#@	c #65685D",
"$@	c #494B41",
"%@	c #4A4A40",
"&@	c #2B2D26",
"*@	c #21211E",
"=@	c #13181B",
"-@	c #0E181E",
";@	c #11171C",
">@	c #1A1819",
",@	c #4C463E",
"'@	c #E4DFD4",
")@	c #D3D4CE",
"!@	c #818881",
"~@	c #485048",
"{@	c #353B33",
"]@	c #393E38",
"^@	c #2A2D27",
"/@	c #131412",
"(@	c #0B1011",
"_@	c #0E1413",
":@	c #081112",
"<@	c #0C1415",
"[@	c #0E1516",
"}@	c #141814",
"|@	c #353831",
"1@	c #30342B",
"2@	c #171915",
"3@	c #65685E",
"4@	c #53564D",
"5@	c #575E53",
"6@	c #3C443D",
"7@	c #38392F",
"8@	c #2B2E29",
"9@	c #191E1F",
"0@	c #0E1013",
"a@	c #04090A",
"b@	c #101011",
"c@	c #77756B",
"d@	c #68675D",
"e@	c #48443D",
"f@	c #111111",
"g@	c #19201E",
"h@	c #363B34",
"i@	c #101515",
"j@	c #080C0E",
"k@	c #080E0E",
"l@	c #1D211C",
"m@	c #313934",
"n@	c #2D3632",
"o@	c #262F2B",
"p@	c #2E342E",
"q@	c #32352D",
"r@	c #2F3229",
"s@	c #141511",
"t@	c #63675C",
"u@	c #757B6E",
"v@	c #7A8276",
"w@	c #787969",
"x@	c #454339",
"y@	c #0E0D0B",
"z@	c #060605",
"A@	c #0B0A0A",
"B@	c #131111",
"C@	c #0D1114",
"D@	c #5E625D",
"E@	c #4F504D",
"F@	c #212726",
"G@	c #131719",
"H@	c #1C231F",
"I@	c #252A24",
"J@	c #0D1214",
"K@	c #0E1010",
"L@	c #050708",
"M@	c #060A09",
"N@	c #131715",
"O@	c #2D3431",
"P@	c #3C443F",
"Q@	c #464E48",
"R@	c #5A5F53",
"S@	c #757667",
"T@	c #534E44",
"U@	c #18100C",
"V@	c #050100",
"W@	c #090401",
"X@	c #0C0807",
"Y@	c #1C1310",
"Z@	c #1A1718",
"`@	c #1F2428",
" #	c #3E4949",
".#	c #7A776E",
"+#	c #2F312A",
"@#	c #1E211C",
"##	c #131716",
"$#	c #191F1E",
"%#	c #1D1F1D",
"&#	c #151815",
"*#	c #121311",
"=#	c #0D110F",
"-#	c #060C0D",
";#	c #0E1313",
">#	c #272D2A",
",#	c #3E4540",
"'#	c #444C47",
")#	c #373930",
"!#	c #292922",
"~#	c #0E0905",
"{#	c #030201",
"]#	c #010000",
"^#	c #090100",
"/#	c #18120E",
"(#	c #403B35",
"_#	c #484037",
":#	c #282523",
"<#	c #151113",
"[#	c #3A3A36",
"}#	c #9D9C91",
"|#	c #625E52",
"1#	c #3C3C33",
"2#	c #323129",
"3#	c #181E1C",
"4#	c #101716",
"5#	c #1C221F",
"6#	c #2C332D",
"7#	c #1E2623",
"8#	c #1A1D1B",
"9#	c #121615",
"0#	c #121716",
"a#	c #151C1B",
"b#	c #1C2624",
"c#	c #2F3733",
"d#	c #3E4641",
"e#	c #232119",
"f#	c #090703",
"g#	c #161713",
"h#	c #2C2E28",
"i#	c #383A33",
"j#	c #4C4E45",
"k#	c #262721",
"l#	c #42463F",
"m#	c #4F4941",
"n#	c #201B19",
"o#	c #0E1213",
"p#	c #191817",
"q#	c #41423E",
"r#	c #3F423B",
"s#	c #13100C",
"t#	c #080C0B",
"u#	c #151814",
"v#	c #0A1111",
"w#	c #0B1211",
"x#	c #262D29",
"y#	c #323A35",
"z#	c #29322E",
"A#	c #30322C",
"B#	c #20211B",
"C#	c #282B24",
"D#	c #2F3936",
"E#	c #38413C",
"F#	c #43463C",
"G#	c #3E4138",
"H#	c #4A4B41",
"I#	c #2D2C25",
"J#	c #201913",
"K#	c #161616",
"L#	c #151617",
"M#	c #101718",
"N#	c #161E1C",
"O#	c #484D46",
"P#	c #3E4742",
"Q#	c #1B2725",
"R#	c #1F2824",
"S#	c #18211F",
"T#	c #1B221F",
"U#	c #333932",
"V#	c #27312B",
"W#	c #222A26",
"X#	c #1C2220",
"Y#	c #1E2521",
"Z#	c #303834",
"`#	c #383F39",
" $	c #292C25",
".$	c #22251D",
"+$	c #30332A",
"@$	c #2E2C24",
"#$	c #303129",
"$$	c #222624",
"%$	c #28302C",
"&$	c #1A1F1D",
"*$	c #080D0C",
"=$	c #4C4E48",
"-$	c #2F3C3A",
";$	c #38453F",
">$	c #4D574E",
",$	c #1B2423",
"'$	c #222825",
")$	c #0A0B0B",
"!$	c #1A201E",
"~$	c #303831",
"{$	c #2B2E27",
"]$	c #323731",
"^$	c #292D26",
"/$	c #252821",
"($	c #191C15",
"_$	c #393A32",
":$	c #383D37",
"<$	c #0E1415",
"[$	c #354542",
"}$	c #65695E",
"|$	c #4A5047",
"1$	c #111B1B",
"2$	c #070A09",
"3$	c #252B28",
"4$	c #313731",
"5$	c #272922",
"6$	c #1B1D16",
"7$	c #131510",
"8$	c #23261E",
"9$	c #22241D",
"0$	c #2D2F28",
"a$	c #2C2F28",
"b$	c #31342B",
"c$	c #4A5955",
"d$	c #2A4042",
"e$	c #0F2327",
"f$	c #131C1B",
"g$	c #2C2E27",
"h$	c #242620",
"i$	c #282C27",
"j$	c #151711",
"k$	c #12130E",
"l$	c #191B15",
"m$	c #171813",
"n$	c #1E201A",
"o$	c #292A22",
"p$	c #636F67",
"q$	c #677066",
"r$	c #6D766C",
"s$	c #212926",
"t$	c #373D36",
"u$	c #2E3129",
"v$	c #2F3129",
"w$	c #1B1C16",
"x$	c #151611",
"y$	c #12120E",
"z$	c #10100C",
"A$	c #12140F",
"B$	c #10110D",
"C$	c #0F0F0C",
"D$	c #141510",
"E$	c #191A15",
"F$	c #696D61",
"G$	c #4B5047",
"H$	c #393F39",
"I$	c #333D37",
"J$	c #2B2F29",
"K$	c #1C1E18",
"L$	c #11110D",
"M$	c #10100D",
"N$	c #0D0D0A",
"O$	c #0F100C",
"P$	c #0E0F0B",
"Q$	c #0E0E0B",
"R$	c #313029",
"S$	c #343935",
"T$	c #242827",
"U$	c #202826",
"V$	c #121310",
"W$	c #0F0E0B",
"X$	c #171814",
"Y$	c #15130F",
"Z$	c #181813",
"`$	c #141310",
" %	c #0F100E",
"                                                                ",
"                                                                ",
"                                                                ",
"                        . + @ # $ % & *                         ",
"                    = - ; > , ' ) ! ~ { ] ^                     ",
"            /   ( _ : < [ } | 1 2 3 4 5 6 7 8 9   0 a           ",
"            b c d e f g h i j k l m n o p q r s t u v           ",
"            w x y z A B C D E F G H I J K L M N O P             ",
"          Q R S T U V W X Y Z `  ...+.@.#.$.%.&.*.=.-.          ",
"          ;.>.,.'.).!.~.{.].^./.(._.:.<.[.}.|.1.2.3.4.5.        ",
"        6.7.8.9.0.a.b.c.d.e.f.g.h.i.j.k.l.m.n.o.p.q.r.s.        ",
"        t.u.v.w.x.y.z.A.B.C.D.E.F...G.H.I.J.K.L.M.N.O.P.Q.      ",
"      _ R.S.T.U.V.W.X.Y.Z.`. +.+++@+#+$+%+&+*+=+-+;+>+,+'+      ",
"      )+!+~+{+]+^+/+(+_+:+<+[+}+|+1+2+3+4+5+6+7+8+9+0+a+b+      ",
"      c+d+e+f+g+h+i+j+k+l+m+n+o+p+q+r+s+t+u+v+w+x+y+z+A+B+C+    ",
"    D+E+F+G+H+I+J+K+L+M+N+O+P+Q+R+S+T+U+V+W+X+Y+Z+`+ @.@+@@@    ",
"      #@$@%@&@*@=@-@;@>@,@'@)@!@~@{@]@^@/@(@_@:@<@[@}@|@1@2@    ",
"      3@4@5@6@7@8@9@0@a@b@c@d@e@f@g@h@i@j@k@l@m@n@o@p@q@r@s@    ",
"      t@u@v@w@x@y@z@A@B@C@D@E@F@G@H@I@J@K@L@M@N@O@P@y+Q@q@      ",
"      R@S@T@U@V@W@X@Y@Z@`@ #.#w +#@###$#%#&#*#=#-#;#>#,#'#      ",
"    )#!#~#{#]#^#/#(#_#:#<#[#}#|#1#2#3#4#5#6#7#8#9#0#a#b#c#d#    ",
"  e#f#g#h#i#j#k#l#m#n#o#p#q#r#s#t#u#g@#.v#w#x#y#z#A#B#C#I@D#E#  ",
"        F#G#H#I#J#K#L#M#N#O#P#Q#R#S#T#U#V#W#X#Y#Z#`# $.$        ",
"          +$@$1##$$$%$&$*$=$-$;$>$,$'$)$!$~$B+  {$]$^$          ",
"          /$($b+_$:$<$      [$}$|$1$      2$3$4$5$6$7$          ",
"            8$9$0$a$b$      c$d$e$f$      g$h$i$j$k$            ",
"              7$l$m$n$'+/$o$p$q$r$s$t$u$v$w$x$y$z$              ",
"                A$B$C$D$x$E$F$G$H$I$J$K$E$L$M$N$                ",
"                    O$P$P$Q$R$S$T$U$V$M$W$N$                    ",
"                          X$Y$Z$`$ %Q$                          ",
"                                                                ",
"                                                                "};
