/* XPM */
static char * W40K_DoW_DC_xpm[] = {
"32 32 770 2",
"  	c None",
". 	c #61685E",
"+ 	c #272F22",
"@ 	c #141E0F",
"# 	c #141D0F",
"$ 	c #141F0F",
"% 	c #15210F",
"& 	c #14220F",
"* 	c #16270F",
"= 	c #182F0F",
"- 	c #19330F",
"; 	c #19340F",
"> 	c #182E0F",
", 	c #15260F",
"' 	c #131D0F",
") 	c #131C0F",
"! 	c #262F22",
"~ 	c #60655E",
"{ 	c #293124",
"] 	c #061000",
"^ 	c #061100",
"/ 	c #061200",
"( 	c #071600",
"_ 	c #091C00",
": 	c #0A2100",
"< 	c #0A2400",
"[ 	c #0C2A00",
"} 	c #0D2C00",
"| 	c #0C2C00",
"1 	c #0C2B00",
"2 	c #0A2300",
"3 	c #071700",
"4 	c #071500",
"5 	c #071800",
"6 	c #081B00",
"7 	c #091E00",
"8 	c #081C00",
"9 	c #061300",
"0 	c #050E00",
"a 	c #272E24",
"b 	c #5F655D",
"c 	c #0C1707",
"d 	c #212C1C",
"e 	c #1C2917",
"f 	c #071A00",
"g 	c #0A2500",
"h 	c #0C2D00",
"i 	c #0E3600",
"j 	c #0B3300",
"k 	c #0A3100",
"l 	c #0B3200",
"m 	c #0B3000",
"n 	c #092A00",
"o 	c #092600",
"p 	c #0D2F00",
"q 	c #0E3400",
"r 	c #0D3001",
"s 	c #0C2A01",
"t 	c #0A1F00",
"u 	c #1E2F17",
"v 	c #212D1C",
"w 	c #0C1607",
"x 	c #040D00",
"y 	c #5E635D",
"z 	c #242C20",
"A 	c #060F00",
"B 	c #242D1F",
"C 	c #0F1B0A",
"D 	c #061500",
"E 	c #071900",
"F 	c #0A1E00",
"G 	c #0B2F00",
"H 	c #0C3B00",
"I 	c #115500",
"J 	c #196A00",
"K 	c #277C0E",
"L 	c #409425",
"M 	c #54A436",
"N 	c #589D3D",
"O 	c #498731",
"P 	c #386D23",
"Q 	c #21510F",
"R 	c #103D01",
"S 	c #0D3700",
"T 	c #0F3D00",
"U 	c #124600",
"V 	c #154804",
"W 	c #154006",
"X 	c #0B2900",
"Y 	c #091A00",
"Z 	c #0F1C0A",
"` 	c #232C1F",
" .	c #222A20",
"..	c #121A0E",
"+.	c #1A2515",
"@.	c #061600",
"#.	c #071B00",
"$.	c #082000",
"%.	c #092500",
"&.	c #0C3A00",
"*.	c #105900",
"=.	c #136E00",
"-.	c #33A310",
";.	c #68D53D",
">.	c #80E858",
",.	c #7DE756",
"'.	c #7DDD59",
").	c #78CB59",
"!.	c #61A845",
"~.	c #5C9942",
"{.	c #579A3C",
"].	c #3A881E",
"^.	c #21620A",
"/.	c #103F00",
"(.	c #0F3F00",
"_.	c #113F02",
":.	c #0F3401",
"<.	c #192315",
"[.	c #121C0E",
"}.	c #061400",
"|.	c #061900",
"1.	c #071F00",
"2.	c #082500",
"3.	c #093300",
"4.	c #0B4900",
"5.	c #116800",
"6.	c #46C122",
"7.	c #74F048",
"8.	c #77E551",
"9.	c #6CD24B",
"0.	c #47B327",
"a.	c #3DA121",
"b.	c #378A20",
"c.	c #32791D",
"d.	c #407F28",
"e.	c #47852E",
"f.	c #49952B",
"g.	c #459628",
"h.	c #2A6B13",
"i.	c #134402",
"j.	c #0E3800",
"k.	c #0A2200",
"l.	c #051000",
"m.	c #131B0F",
"n.	c #071E00",
"o.	c #082300",
"p.	c #0A2D00",
"q.	c #092C00",
"r.	c #0A3600",
"s.	c #0D5500",
"t.	c #42A723",
"u.	c #6BD945",
"v.	c #41B122",
"w.	c #369F1C",
"x.	c #399A21",
"y.	c #21840A",
"z.	c #227C0B",
"A.	c #31851B",
"B.	c #3B8C24",
"C.	c #377F21",
"D.	c #408429",
"E.	c #4E9535",
"F.	c #5BAA3E",
"G.	c #408626",
"H.	c #2D6B16",
"I.	c #134701",
"J.	c #072000",
"K.	c #082A00",
"L.	c #0A3000",
"M.	c #0B3600",
"N.	c #0A3D00",
"O.	c #218008",
"P.	c #52B532",
"Q.	c #489B2E",
"R.	c #328917",
"S.	c #47A728",
"T.	c #54B535",
"U.	c #6AC54B",
"V.	c #7ECF64",
"W.	c #94E67C",
"X.	c #97EE81",
"Y.	c #8CE47C",
"Z.	c #62C954",
"`.	c #4EB640",
" +	c #4FB540",
".+	c #409E2A",
"++	c #459A26",
"@+	c #23690B",
"#+	c #081900",
"$+	c #092000",
"%+	c #14200F",
"&+	c #15380F",
"*+	c #082D00",
"=+	c #093200",
"-+	c #0A3500",
";+	c #125A01",
">+	c #46A829",
",+	c #77D956",
"'+	c #77D45A",
")+	c #7CDD60",
"!+	c #81ED64",
"~+	c #77E65E",
"{+	c #8FF17B",
"]+	c #C1FFB2",
"^+	c #78D16B",
"/+	c #54AE47",
"(+	c #51AB46",
"_+	c #135909",
":+	c #073B00",
"<+	c #052E00",
"[+	c #063800",
"}+	c #124D04",
"|+	c #123F03",
"1+	c #091D00",
"2+	c #142F0F",
"3+	c #072900",
"4+	c #093500",
"5+	c #093800",
"6+	c #0A4300",
"7+	c #0C5401",
"8+	c #319B1B",
"9+	c #57C23E",
"0+	c #348F21",
"a+	c #237B14",
"b+	c #2C7C1D",
"c+	c #216815",
"d+	c #217212",
"e+	c #47A730",
"f+	c #479A33",
"g+	c #266C15",
"h+	c #022400",
"i+	c #011F00",
"j+	c #021500",
"k+	c #031700",
"l+	c #041400",
"m+	c #051C00",
"n+	c #051700",
"o+	c #14390F",
"p+	c #073A01",
"q+	c #093E01",
"r+	c #083A01",
"s+	c #0A3E00",
"t+	c #0E4F01",
"u+	c #1D690C",
"v+	c #0E4A02",
"w+	c #032700",
"x+	c #021B00",
"y+	c #001300",
"z+	c #000A00",
"A+	c #062000",
"B+	c #0D3A01",
"C+	c #021D00",
"D+	c #030F00",
"E+	c #041600",
"F+	c #051D00",
"G+	c #041900",
"H+	c #072400",
"I+	c #072300",
"J+	c #071400",
"K+	c #15240F",
"L+	c #14340F",
"M+	c #081D00",
"N+	c #092200",
"O+	c #051A00",
"P+	c #051800",
"Q+	c #031000",
"R+	c #041200",
"S+	c #051B00",
"T+	c #041100",
"U+	c #031100",
"V+	c #031500",
"W+	c #0A2A00",
"X+	c #062100",
"Y+	c #041700",
"Z+	c #031A00",
"`+	c #012300",
" @	c #052B00",
".@	c #114B02",
"+@	c #124803",
"@@	c #0C2800",
"#@	c #19320F",
"$@	c #14250F",
"%@	c #081E00",
"&@	c #092100",
"*@	c #061800",
"=@	c #051600",
"-@	c #041300",
";@	c #051500",
">@	c #052000",
",@	c #104601",
"'@	c #104201",
")@	c #1E510A",
"!@	c #1E520C",
"~@	c #1E540C",
"{@	c #32791C",
"]@	c #165407",
"^@	c #1D4E0D",
"/@	c #337C1F",
"(@	c #268713",
"_@	c #3D9626",
":@	c #30791D",
"<@	c #0A2000",
"[@	c #0D3300",
"}@	c #1B3C0F",
"|@	c #131F0F",
"1@	c #061700",
"2@	c #091F00",
"3@	c #0D2C01",
"4@	c #194808",
"5@	c #0E3702",
"6@	c #082700",
"7@	c #082400",
"8@	c #092D00",
"9@	c #196506",
"0@	c #318915",
"a@	c #2E8313",
"b@	c #59B337",
"c@	c #84D961",
"d@	c #7DCF5D",
"e@	c #84D862",
"f@	c #4DA432",
"g@	c #37811F",
"h@	c #76CA54",
"i@	c #6AD951",
"j@	c #33911F",
"k@	c #1C590A",
"l@	c #0B2500",
"m@	c #0C2900",
"n@	c #0D2D00",
"o@	c #1A380F",
"p@	c #15220F",
"q@	c #0B2800",
"r@	c #144403",
"s@	c #317A18",
"t@	c #266D0E",
"u@	c #36831A",
"v@	c #2F7B13",
"w@	c #318014",
"x@	c #4FB42C",
"y@	c #3B961C",
"z@	c #4DA72D",
"A@	c #8AEA64",
"B@	c #BAFE9B",
"C@	c #A4FC7F",
"D@	c #A4F97F",
"E@	c #7DDD5A",
"F@	c #307919",
"G@	c #256010",
"H@	c #36A021",
"I@	c #135D03",
"J@	c #092B00",
"K@	c #0D2E00",
"L@	c #081A00",
"M@	c #0E3500",
"N@	c #0F3B00",
"O@	c #134B01",
"P@	c #185703",
"Q@	c #36811A",
"R@	c #73D34A",
"S@	c #54AA31",
"T@	c #2E7B12",
"U@	c #27750E",
"V@	c #3C981E",
"W@	c #66BD44",
"X@	c #6EC84B",
"Y@	c #71C94F",
"Z@	c #56AB39",
"`@	c #52A935",
" #	c #5CC23C",
".#	c #429A27",
"+#	c #185205",
"@#	c #0D5B00",
"##	c #0B3500",
"$#	c #0E3300",
"%#	c #172A0F",
"&#	c #15230F",
"*#	c #113A03",
"=#	c #134003",
"-#	c #164C04",
";#	c #1A5406",
">#	c #235E0E",
",#	c #347719",
"'#	c #27670F",
")#	c #155400",
"!#	c #236C0B",
"~#	c #48AB27",
"{#	c #489C2A",
"]#	c #419324",
"^#	c #74C157",
"/#	c #49982E",
"(#	c #3A9621",
"_#	c #67D346",
":#	c #61C543",
"<#	c #2E8214",
"[#	c #0B4500",
"}#	c #15250F",
"|#	c #0F3601",
"1#	c #144104",
"2#	c #164904",
"3#	c #154D03",
"4#	c #154903",
"5#	c #154B03",
"6#	c #195405",
"7#	c #175602",
"8#	c #39881B",
"9#	c #59BD36",
"0#	c #57BB34",
"a#	c #53AE33",
"b#	c #54AA36",
"c#	c #38881E",
"d#	c #277612",
"e#	c #379A20",
"f#	c #50BF35",
"g#	c #3DA723",
"h#	c #0D4200",
"i#	c #0D3200",
"j#	c #103B00",
"k#	c #0D3100",
"l#	c #0B2600",
"m#	c #0A2700",
"n#	c #162A0F",
"o#	c #113903",
"p#	c #144404",
"q#	c #174B04",
"r#	c #124501",
"s#	c #104300",
"t#	c #1A5805",
"u#	c #1B5C05",
"v#	c #39841C",
"w#	c #59C134",
"x#	c #207D07",
"y#	c #0D4300",
"z#	c #0E4E00",
"A#	c #0F4C00",
"B#	c #0C4200",
"C#	c #0B5100",
"D#	c #147100",
"E#	c #187404",
"F#	c #0E3D00",
"G#	c #0F3600",
"H#	c #0F3900",
"I#	c #0D3000",
"J#	c #182C0F",
"K#	c #163B08",
"L#	c #1C460C",
"M#	c #184B06",
"N#	c #154C03",
"O#	c #134802",
"P#	c #184D05",
"Q#	c #134801",
"R#	c #154F03",
"S#	c #195605",
"T#	c #24670C",
"U#	c #267A0D",
"V#	c #116200",
"W#	c #126600",
"X#	c #135900",
"Y#	c #124C00",
"Z#	c #104100",
"`#	c #105100",
" $	c #146D00",
".$	c #157500",
"+$	c #0F3700",
"@$	c #114000",
"#$	c #113E00",
"$$	c #0C2F00",
"%$	c #113305",
"&$	c #1D470E",
"*$	c #1C440D",
"=$	c #144204",
"-$	c #134602",
";$	c #154A02",
">$	c #174C04",
",$	c #174E05",
"'$	c #144C01",
")$	c #124B00",
"!$	c #115300",
"~$	c #156F00",
"{$	c #157600",
"]$	c #126500",
"^$	c #135001",
"/$	c #114500",
"($	c #146400",
"_$	c #126A01",
":$	c #168001",
"<$	c #156600",
"[$	c #0F3500",
"}$	c #114200",
"|$	c #124800",
"1$	c #114300",
"2$	c #0E2F00",
"3$	c #1D3C0F",
"4$	c #213E16",
"5$	c #18390C",
"6$	c #193E0A",
"7$	c #153708",
"8$	c #123405",
"9$	c #123804",
"0$	c #103A02",
"a$	c #144304",
"b$	c #1C4F09",
"c$	c #1B4A09",
"d$	c #144902",
"e$	c #155202",
"f$	c #146401",
"g$	c #167201",
"h$	c #187F00",
"i$	c #145E00",
"j$	c #116700",
"k$	c #0C4F00",
"l$	c #126700",
"m$	c #1B8600",
"n$	c #175E00",
"o$	c #114400",
"p$	c #134E00",
"q$	c #145200",
"r$	c #134C00",
"s$	c #113F00",
"t$	c #123E00",
"u$	c #113901",
"v$	c #1C3B0F",
"w$	c #1E3813",
"x$	c #122E07",
"y$	c #113004",
"z$	c #0F2D03",
"A$	c #103004",
"B$	c #133307",
"C$	c #183B0C",
"D$	c #1A400B",
"E$	c #184009",
"F$	c #113504",
"G$	c #103502",
"H$	c #124802",
"I$	c #135B01",
"J$	c #106700",
"K$	c #2A8E0F",
"L$	c #5BB43A",
"M$	c #71C455",
"N$	c #24870E",
"O$	c #226C11",
"P$	c #0F4900",
"Q$	c #177100",
"R$	c #208101",
"S$	c #268501",
"T$	c #247C00",
"U$	c #217000",
"V$	c #1E6B01",
"W$	c #1B6001",
"X$	c #174F01",
"Y$	c #103500",
"Z$	c #0B2601",
"`$	c #0E2F02",
" %	c #143608",
".%	c #1F4210",
"+%	c #204413",
"@%	c #143507",
"#%	c #0E3B00",
"$%	c #186302",
"%%	c #39991B",
"&%	c #4FB52C",
"*%	c #7BDB55",
"=%	c #89D869",
"-%	c #49AD2F",
";%	c #5DB841",
">%	c #24660D",
",%	c #134A00",
"'%	c #186200",
")%	c #237E04",
"!%	c #298206",
"~%	c #277F05",
"{%	c #1F6F02",
"]%	c #154E00",
"^%	c #0C2901",
"/%	c #0F2F04",
"(%	c #193A0D",
"_%	c #264718",
":%	c #1F4212",
"<%	c #0D2E02",
"[%	c #0E3202",
"}%	c #154304",
"|%	c #1C5B07",
"1%	c #38861A",
"2%	c #6CCA44",
"3%	c #66CB40",
"4%	c #68CA45",
"5%	c #70D64A",
"6%	c #75DB51",
"7%	c #45A229",
"8%	c #307A16",
"9%	c #419223",
"0%	c #216A08",
"a%	c #217007",
"b%	c #217009",
"c%	c #1D6B04",
"d%	c #165701",
"e%	c #0B2B00",
"f%	c #0B2C00",
"g%	c #0B2700",
"h%	c #15280F",
"i%	c #16290F",
"j%	c #0A2201",
"k%	c #102906",
"l%	c #142F0A",
"m%	c #15310A",
"n%	c #1E3D12",
"o%	c #294B1B",
"p%	c #214613",
"q%	c #133706",
"r%	c #123705",
"s%	c #184109",
"t%	c #225210",
"u%	c #296413",
"v%	c #57AC31",
"w%	c #56B231",
"x%	c #66C740",
"y%	c #A7F980",
"z%	c #91F16A",
"A%	c #94F66C",
"B%	c #76E24F",
"C%	c #52BA30",
"D%	c #5DC739",
"E%	c #359617",
"F%	c #227606",
"G%	c #1B6602",
"H%	c #145400",
"I%	c #0C3100",
"J%	c #0B2E00",
"K%	c #1E3A13",
"L%	c #17390B",
"M%	c #19390C",
"N%	c #15330A",
"O%	c #1D3712",
"P%	c #2F4D22",
"Q%	c #335924",
"R%	c #234814",
"S%	c #143A06",
"T%	c #19400A",
"U%	c #204A0F",
"V%	c #295C15",
"W%	c #245711",
"X%	c #37841A",
"Y%	c #63C43B",
"Z%	c #9BED76",
"`%	c #95ED6F",
" &	c #68D343",
".&	c #A7F984",
"+&	c #A5FC7F",
"@&	c #6FE041",
"#&	c #57C930",
"$&	c #329A13",
"%&	c #1B7001",
"&&	c #145100",
"*&	c #0E3900",
"=&	c #14210F",
"-&	c #28491C",
";&	c #1E4410",
">&	c #2B4A1F",
",&	c #17380A",
"'&	c #264618",
")&	c #355826",
"!&	c #2E531E",
"~&	c #1F4211",
"{&	c #1D400F",
"]&	c #264B16",
"^&	c #285317",
"/&	c #275615",
"(&	c #397A20",
"_&	c #74CF4E",
":&	c #8BE765",
"<&	c #6EC94C",
"[&	c #4BA92D",
"}&	c #5DC13D",
"|&	c #69CF44",
"1&	c #59C133",
"2&	c #43AA21",
"3&	c #228306",
"4&	c #145B00",
"5&	c #104600",
"6&	c #0D3800",
"7&	c #1B2B14",
"8&	c #131F0E",
"9&	c #37532D",
"0&	c #183B0A",
"a&	c #334F28",
"b&	c #19390D",
"c&	c #1E3F11",
"d&	c #1F3D12",
"e&	c #1C3C0F",
"f&	c #1E3F10",
"g&	c #294B1C",
"h&	c #2F571F",
"i&	c #2B551A",
"j&	c #255214",
"k&	c #235411",
"l&	c #356F1F",
"m&	c #43862A",
"n&	c #36841D",
"o&	c #277711",
"p&	c #216F0C",
"q&	c #1D6F08",
"r&	c #287610",
"s&	c #2E7714",
"t&	c #1F6608",
"u&	c #0F3C00",
"v&	c #0D2304",
"w&	c #273721",
"x&	c #252E20",
"y&	c #667960",
"z&	c #17340C",
"A&	c #27421D",
"B&	c #29441F",
"C&	c #143009",
"D&	c #132F09",
"E&	c #153509",
"F&	c #1D3F0F",
"G&	c #224713",
"H&	c #214A11",
"I&	c #1A440B",
"J&	c #163F06",
"K&	c #1A4909",
"L&	c #194A07",
"M&	c #154A03",
"N&	c #145402",
"O&	c #105000",
"P&	c #0F5000",
"Q&	c #104D00",
"R&	c #144E01",
"S&	c #0E3200",
"T&	c #203D16",
"U&	c #203517",
"V&	c #0F2208",
"W&	c #60675D",
"X&	c #2A4320",
"Y&	c #0F2A06",
"Z&	c #122D07",
"`&	c #123006",
" *	c #102C05",
".*	c #0C2802",
"+*	c #103103",
"@*	c #123605",
"#*	c #0F3302",
"$*	c #0B2A00",
"%*	c #103A01",
"&*	c #0C2E00",
"**	c #0D3600",
"=*	c #144B02",
"-*	c #123D01",
";*	c #253220",
">*	c #5D6D57",
",*	c #223A19",
"'*	c #1C3711",
")*	c #1C3A10",
"!*	c #1A330F",
"~*	c #182D0F",
"{*	c #19350F",
"]*	c #1A390F",
"^*	c #19360F",
"/*	c #18310F",
"(*	c #1A370F",
"_*	c #1A360F",
":*	c #1A3A0F",
"<*	c #1E450F",
"[*	c #275F13",
"}*	c #1F4B0F",
"|*	c #1C410F",
"1*	c #1C3F0F",
"2*	c #1C3D0F",
"3*	c #1C3E0F",
"4*	c #214016",
"5*	c #5C6E55",
"    . + @ # # $ $ % % & * = - ; > * * , , & @ ' ' ) ) ) ! ~     ",
"  { ] ] ^ ^ / ( _ : : < [ } | 1 2 3 4 5 6 _ 7 8 3 4 ( 9 0 0 a   ",
"b 0 c d e ( f : 2 g h i j k l l m n o [ | p q r s : t u v w x y ",
"z A B C D E F < G H I J K L M N O P Q R S T U V W X Y 5 Z ` x  .",
"..A +.@.#.$.%.&.*.=.-.;.>.,.'.).!.~.{.].^./.(._.:.2 5 D 9 <.0 [.",
"' }.|.1.2.n 3.4.5.6.7.8.9.0.a.b.c.d.e.f.g.h.i.j.< k.: 6 3 9 l.m.",
"$ 5 n.o.p.q.r.s.t.u.v.w.x.y.z.A.B.C.D.E.F.G.H.I.[ F 2 k.t 5 }.$ ",
"& #.J.K.L.M.N.O.P.Q.R.S.T.U.V.W.X.Y.Z.`. +.+++@+G #+6 $+: 7 5 %+",
"&+*+=+-+&.H ;+>+,+'+)+!+~+{+]+^+/+(+_+:+<+[+}+|+2 3 5 6 1+8 3 $ ",
"2+3+4+5+6+7+8+9+0+a+b+c+d+e+f+g+h+i+j+k+l+@.m+n+#+3 #+1+F 8 3 $ ",
"o+p+q+r+s+t+u+v+w+x+y+z+A+B+C+3+A+D+E+F+G+n+H+I+( 3 9 J+5 _ #+K+",
"L+q.L.n.M+N+O+P+Q+R+l+E+S+T+U+V+W+X+Y+Z+`+ @.@+@8 6 5 }.3 : @@#@",
"$@%@&@*@#.6 =@E+-@;@-@>@,@'@)@!@~@{@]@^@/@(@_@:@o.1+_ <@k.X [@}@",
"|@1@3 5 2@3@4@5@6@7@8@9@0@a@b@c@d@e@f@g@h@i@j@k@N+<@l@1 [ m@n@o@",
"p@5 8 2 q@r@s@t@u@v@w@x@y@z@A@B@C@D@E@F@G@H@I@J@k.X [ } K@p q@- ",
"p@L@1 M@N@O@P@Q@R@S@T@U@V@W@X@Y@Z@`@ #.#+#@###2@@@$#K@X [ [ < %#",
"&#f } *#=#-#;#>#,#'#)#!#~#{#]#^#/#(#_#:#<#[#$.k.@@K@q@<@: : 7 }#",
"&#E l@|#1#2#3#4#5#6#7#8#9#0#a#b#c#d#e#f#g#h#i#j#k#} @@l#X m#&@n#",
"}#2@3@o#p#q#r#U s#t#u#v#w#x#y#z#A#B#C#D#E#F#G#H#K@p I#q [@h g J#",
"* < K#L#M#N#O#P#Q#R#S#T#U#V#W#X#Y#Z#`# $.$U n@@@@@p +$@$#$$$l@J#",
"= %$&$*$=$-$;$>$,$>$'$)$!$~${$]$^$/$($_$:$<$k#} [$}$|$1$H#[@2$3$",
"4$5$6$7$8$9$0$a$b$c$p#d$e$f$g$h$($i$j$k$l$m$n$o$p$q$r$o$s$t$u$v$",
"w$x$y$z$A$B$C$D$E$F$G$s#H$I$J$K$L$M$N$O$P$Q$R$S$T$U$V$W$X$Y$2 %#",
"= Z$l@X `$ %.%+%@%l#l##%p$$%%%&%*%=%-%;%>%,%'%)%!%~%{%]%[@X < %#",
"%#8 2@^%/%(%_%:%%$<%[%}%|%1%2%3%4%5%6%7%8%9%0%a%b%c%d%H#e%f%g%h%",
"i%j%k%l%m%n%o%p%q%r%s%t%u%v%w%x%y%z%A%B%C%D%E%F%G%H%s#I%e%J%N+, ",
"K%L%M%N%O%P%Q%R%S%T%U%V%W%X%Y%Z%`% &.&+&@&#&$&%&&&(.*&[@i#X 8 =&",
"-&;&>&,&'&)&!&~&{&]&^&/&Q (&_&:&<&[&}&|&1&2&3&4&5&#%6&$$< 7&D 8&",
"9&0&a&b&c&d&e&f&g&h&i&j&k&l&m&n&o&p&q&r&s&t&Y#u&I#[ n@1 v&w&D x&",
"y&A$z&A&B&C&D&E&F&G&H&I&J&K&L&M&N&O&P&Q&R&)$q S&[ m@} T&U&V&}.W&",
"  X&Y&k%Z&`& *.*+*9$@*#*$*I%i %*M@p &*I%**=*-*$*p 1 m@X k.L@;*  ",
"    >*,*'*)*!*~*{*}@]*^*/*- (*o@_*_*#@(*:*<*[*}*|*1*2*3*4*5*    "};
