/* XPM */
static char * W40K_DoW_WA_xpm[] = {
"32 32 104 2",
"  	c None",
". 	c #FEFAFE",
"+ 	c #416540",
"@ 	c #426E40",
"# 	c #447142",
"$ 	c #5B855B",
"% 	c #1B431A",
"& 	c #2C812A",
"* 	c #349132",
"= 	c #489B46",
"- 	c #549B52",
"; 	c #64B762",
"> 	c #74B473",
", 	c #86C085",
"' 	c #A2D0A1",
") 	c #648464",
"! 	c #0C3B0B",
"~ 	c #156313",
"{ 	c #197317",
"] 	c #489246",
"^ 	c #64A462",
"/ 	c #6DB56B",
"( 	c #95C494",
"_ 	c #125410",
": 	c #267C24",
"< 	c #488E46",
"[ 	c #7DAA7C",
"} 	c #8BBA8A",
"| 	c #9FCC9E",
"1 	c #A0D09F",
"2 	c #0A2F09",
"3 	c #135C11",
"4 	c #2A7A28",
"5 	c #478945",
"6 	c #81AF80",
"7 	c #4CA04A",
"8 	c #051A05",
"9 	c #1B7619",
"0 	c #3A8C38",
"a 	c #569655",
"b 	c #72B570",
"c 	c #61B45F",
"d 	c #166B14",
"e 	c #61AF5F",
"f 	c #DCECDC",
"g 	c #E3EEE3",
"h 	c #B7D6B6",
"i 	c #194C18",
"j 	c #0B350A",
"k 	c #10430E",
"l 	c #2B7C29",
"m 	c #3A8538",
"n 	c #99BC98",
"o 	c #D4DAD4",
"p 	c #F2F5F2",
"q 	c #F6F9F6",
"r 	c #FAFBFA",
"s 	c #C1D3C1",
"t 	c #0F410D",
"u 	c #8DB58C",
"v 	c #C4CAC4",
"w 	c #ECF1EC",
"x 	c #ACBBAC",
"y 	c #CCCECB",
"z 	c #D0D3CF",
"A 	c #E5EFE5",
"B 	c #D4E4D4",
"C 	c #529D50",
"D 	c #3C6C3B",
"E 	c #9BBB9A",
"F 	c #B4C2B4",
"G 	c #A5B6A4",
"H 	c #B2BEB2",
"I 	c #D2D5D2",
"J 	c #80AC7F",
"K 	c #A3BAA2",
"L 	c #A2CDA1",
"M 	c #BDD3BC",
"N 	c #D5E8D5",
"O 	c #85BC84",
"P 	c #144113",
"Q 	c #1C7C1A",
"R 	c #1E811B",
"S 	c #2E8A2C",
"T 	c #248121",
"U 	c #041404",
"V 	c #69B767",
"W 	c #CED1CE",
"X 	c #C0D4BF",
"Y 	c #318E2F",
"Z 	c #072206",
"` 	c #082607",
" .	c #389436",
"..	c #B8CFB7",
"+.	c #B7CBB7",
"@.	c #020E02",
"#.	c #447C43",
"$.	c #3B7239",
"%.	c #468144",
"&.	c #669B64",
"*.	c #84B283",
"=.	c #3A7839",
"-.	c #A3C3A2",
";.	c #092C08",
". . . . . . . . . . . . + + + + @ # $ $ . . . . . . . . . . . . ",
". . . . . . . . . % % % & * = - ; > , ' ) ) ) . . . . . . . . . ",
". . . . . . . % ! ~ { & ] ^ > , , , / / > ( ( $ ) . . . . . . . ",
". . . . . . ! _ ~ { : < ^ [ } | 1 1 ( ( , , ; ( , $ . . . . . . ",
". . . . . 2 _ 3 ~ 4 5 - ^ 6 } ( ( 1 ( 1 ' ' ( ; > 7 + . . . . . ",
". . . . 8 ! _ ~ 9 4 0 a b [ , ( ( } , 1 ' ' ' ( > c 0 + . . . . ",
". . . 8 2 ! 3 d { & 5 ] ^ e | f g h , ( 1 ' ' 1 ( / 0 & i . . . ",
". . 8 j j k ~ ~ { l m 0 n o g p q r p s ( 1 ' ( } / 0 m & + . . ",
". . 8 j t _ d { { l u v o f f p q w r r q f ( ( , / ] l & i . . ",
". 8 j ! k ~ d m n x v y o z g p p f A r r r w B 1 ; C m 9 : i . ",
". 8 j ! k D E F G E H y I s w p w f f p r r g q r f e m 9 l % . ",
". 8 j t k $ u J [ [ J K E L M h M M M M g B h N A A O & 4 9 P . ",
"8 j ! k k _ d d d d { Q R S * = 7 7 - C = * T R T T R Q 9 d 9 i ",
"8 j ! k _ 3 J F F a 9 Q R = ( g q f , = * S > r r h R : { d 9 P ",
"U j j k _ 3 x v v ] 9 Q ^ v f w p q r h = * > r w ' T : 9 d 9 t ",
"U 2 ! k _ 3 x v v 9 Q m I o g w p q q q b C V r g h S : 9 { 9 ! ",
"U 2 j t _ 3 u G G 9 { E z o g g w q r r h ; ; r p h S : { { 9 ! ",
"U 2 2 j k 3 G G G { { F W o f g g f w w X c ; r r f Y : 9 { 9 j ",
"U 2 2 2 t _ G G G 9 { F W I o g g B N f h = = q A N T T { { 9 j ",
"U Z ` 2 ! 4 G H u 9 d F y I y o o y B N h Y  .w N B * 9 { { 9 j ",
"U Z Z Z 2 + F v x d 4 H y v F ..M s v B ' S T h B N V 9 d { { 2 ",
"U 8 8 8 ` + H F x d G v n [ K F ..+.} > s > R ' B w > 9 { d { 2 ",
"@.8 8 8 Z $ G F x ~ x v #.~ $.u E %.{ 5 s > R h f r L { d { 9 ` ",
"@.U 8 8 Z 2 j t k _ [ v E $.#.$ u $ %.M s &.Q { { 9 9 { d d d Z ",
"@.U 8 8 % ) [ *.u + i F v v H u x o o v F T < f f y L m { { ~ Z ",
". U U 8 % ) ) ) [ % ! $ x v v $ # v F n =.~ a w w y y 5 d { _ . ",
". U U U % + + + + 2 j ! ) F x u u x x # 3 ~ 4 -.-.E E < ~ d t . ",
". . U U 8 8 8 Z Z ` 2 j + *.4 ) @ ) @ 4 _ 3 ~ ~ ~ ~ ~ ~ _ 3 . . ",
". . U U U 8 8 8 8 Z ` 2 j j ! t k k k _ _ _ _ 3 3 ~ 3 3 k _ . . ",
". . U U U U 8 8 8 Z ` ;.2 j ! ! ! k k k k _ _ k _ _ _ k ! ! . . ",
". . . 8 8 U 8 8 8 8 Z 2 2 2 j j j ! ! ! ! t ! t j j ! 2 2 . . . ",
". . . U @.@.@.@.@.@.@.@.U U U U U U 8 8 8 8 8 8 8 8 8 8 U . . . "};
