/* XPM */
static char * W40K_DoW_xpm[] = {
"32 32 252 2",
"  	c None",
". 	c #FFFF00",
"+ 	c #770017",
"@ 	c #9E0224",
"# 	c #B7002F",
"$ 	c #C90037",
"% 	c #D4033C",
"& 	c #BF0430",
"* 	c #9B001F",
"= 	c #590113",
"- 	c #8E0322",
"; 	c #960323",
"> 	c #93001F",
", 	c #91001D",
"' 	c #94001E",
") 	c #A70027",
"! 	c #A41734",
"~ 	c #3D010D",
"{ 	c #710018",
"] 	c #7B011C",
"^ 	c #7D1025",
"/ 	c #81011A",
"( 	c #8B001C",
"_ 	c #8E001D",
": 	c #870E25",
"< 	c #8B0B23",
"[ 	c #8E0F28",
"} 	c #991B33",
"| 	c #C9375D",
"1 	c #DC3D68",
"2 	c #A7324B",
"3 	c #49000F",
"4 	c #680116",
"5 	c #740A1F",
"6 	c #88011B",
"7 	c #440B14",
"8 	c #392F2B",
"9 	c #474345",
"0 	c #5B595C",
"a 	c #5D5F60",
"b 	c #4E4949",
"c 	c #44302F",
"d 	c #865961",
"e 	c #9B243B",
"f 	c #AE2544",
"g 	c #D85C7A",
"h 	c #41010E",
"i 	c #5D0113",
"j 	c #34000A",
"k 	c #2A2223",
"l 	c #898685",
"m 	c #AFAFB0",
"n 	c #BEBEBE",
"o 	c #C7C8C9",
"p 	c #D1D2D1",
"q 	c #DEDEDE",
"r 	c #E3E4E5",
"s 	c #D6D6D8",
"t 	c #959393",
"u 	c #382B33",
"v 	c #43181E",
"w 	c #38000B",
"x 	c #520011",
"y 	c #610115",
"z 	c #100406",
"A 	c #666465",
"B 	c #A7A8AB",
"C 	c #C1C1C1",
"D 	c #CACACA",
"E 	c #CCCCCC",
"F 	c #D6D6D6",
"G 	c #DDDDDC",
"H 	c #E1E1E1",
"I 	c #E7E7E5",
"J 	c #ECEBEB",
"K 	c #F4F4F4",
"L 	c #DCDFE3",
"M 	c #666771",
"N 	c #160403",
"O 	c #6E1B27",
"P 	c #93001D",
"Q 	c #2C010A",
"R 	c #050000",
"S 	c #646061",
"T 	c #A6A6A6",
"U 	c #AFAFAE",
"V 	c #BBBBBA",
"W 	c #DAD9DA",
"X 	c #E1E0DF",
"Y 	c #E3E3E2",
"Z 	c #E8E8E7",
"` 	c #F0F0EF",
" .	c #E7EEF1",
"..	c #4F5358",
"+.	c #080002",
"@.	c #680D1E",
"#.	c #96001E",
"$.	c #BF1B45",
"%.	c #D12151",
"&.	c #1A0508",
"*.	c #270208",
"=.	c #352F2D",
"-.	c #8A8A8B",
";.	c #9D9B9C",
">.	c #A9A9AA",
",.	c #B6B6B6",
"'.	c #BAB9BA",
").	c #C6C6C6",
"!.	c #D1D0CF",
"~.	c #E7E7E6",
"{.	c #EEEEEE",
"].	c #110003",
"^.	c #000000",
"/.	c #1D161A",
"(.	c #757576",
"_.	c #909090",
":.	c #999A99",
"<.	c #A9A7A7",
"[.	c #B1B1B0",
"}.	c #B8B8B7",
"|.	c #C5C4C3",
"1.	c #D4D4D3",
"2.	c #DBDADA",
"3.	c #E6E5E5",
"4.	c #EAEAEA",
"5.	c #ECECEC",
"6.	c #F9F9F9",
"7.	c #C8CAD0",
"8.	c #1C0005",
"9.	c #960D28",
"0.	c #160709",
"a.	c #3A010C",
"b.	c #6D0116",
"c.	c #020000",
"d.	c #3E3938",
"e.	c #878788",
"f.	c #999998",
"g.	c #ADACAC",
"h.	c #B4B3B3",
"i.	c #D9D9D8",
"j.	c #F5F7F9",
"k.	c #970925",
"l.	c #1F0006",
"m.	c #868585",
"n.	c #838384",
"o.	c #A3A2A2",
"p.	c #CECECE",
"q.	c #E5E7E6",
"r.	c #010000",
"s.	c #883042",
"t.	c #240007",
"u.	c #7A0018",
"v.	c #0D0102",
"w.	c #070203",
"x.	c #555352",
"y.	c #7D7D7E",
"z.	c #828181",
"A.	c #A0A09F",
"B.	c #BDBCBC",
"C.	c #C5C3C3",
"D.	c #DAD9D9",
"E.	c #E5E5E4",
"F.	c #060000",
"G.	c #97132D",
"H.	c #9D9C9D",
"I.	c #20040A",
"J.	c #160104",
"K.	c #8D8D8D",
"L.	c #9B9B9B",
"M.	c #D9D7D7",
"N.	c #040404",
"O.	c #1A0105",
"P.	c #75041B",
"Q.	c #797979",
"R.	c #7C7A7A",
"S.	c #B4B4B3",
"T.	c #030002",
"U.	c #1D0006",
"V.	c #772235",
"W.	c #17100E",
"X.	c #8A888A",
"Y.	c #E8E7E7",
"Z.	c #BAB6B4",
"`.	c #827F7E",
" +	c #230007",
".+	c #0C0402",
"++	c #747170",
"@+	c #B2B2B1",
"#+	c #E0DFDF",
"$+	c #E8E7E8",
"%+	c #EEF1F4",
"&+	c #7F3647",
"*+	c #100807",
"=+	c #868583",
"-+	c #98999A",
";+	c #E6E7E9",
">+	c #A2A3AA",
",+	c #8C4655",
"'+	c #130D0D",
")+	c #0A0505",
"!+	c #2E2A2D",
"~+	c #6A6B6C",
"{+	c #AAAAAD",
"]+	c #9D9994",
"^+	c #766D68",
"/+	c #EBEDEE",
"(+	c #C2C4CB",
"_+	c #810921",
":+	c #861B31",
"<+	c #A8A4A2",
"[+	c #534E4C",
"}+	c #DEE2E3",
"|+	c #878384",
"1+	c #060607",
"2+	c #666A6B",
"3+	c #1C1311",
"4+	c #6F6867",
"5+	c #C9CCCF",
"6+	c #86001B",
"7+	c #980E29",
"8+	c #030303",
"9+	c #504E52",
"0+	c #96999A",
"a+	c #67645E",
"b+	c #8A8991",
"c+	c #79717A",
"d+	c #D6DADB",
"e+	c #B6294C",
"f+	c #635D5A",
"g+	c #979797",
"h+	c #211D21",
"i+	c #93969B",
"j+	c #1F1D1D",
"k+	c #98999C",
"l+	c #70727E",
"m+	c #989AA7",
"n+	c #A8AAB2",
"o+	c #151317",
"p+	c #221E1D",
"q+	c #4C423D",
"r+	c #9D9591",
"s+	c #B0B8BE",
"t+	c #0C0505",
"u+	c #0B0202",
"v+	c #797B7C",
"w+	c #0D0C0E",
"x+	c #140203",
"y+	c #7D001A",
"z+	c #5A1B29",
"A+	c #80051E",
"B+	c #1E0105",
"C+	c #46000E",
". . . . . . . . . . . . + @ # $ % $ & * . . . . . . . . . . . . ",
". . . . . . . . . = - ; ; > > , ' * ) # $ % ! . . . . . . . . . ",
". . . . . . . ~ { ] ^ / ( _ : < < [ } } } ! | 1 2 . . . . . . . ",
". . . . . . 3 4 4 5 6 + 7 8 9 0 a 0 b 8 c d e f g g . . . . . . ",
". . . . . h = i 5 4 j k l m n o p q r s t u v e } g g . . . . . ",
". . . . w 3 x y h z A B C D E F G H I J K L M N O P f g . . . . ",
". . . Q h 3 x Q R S T U V C D p W X Y Z J `  ...+.@.#.$.%.. . . ",
". . &.w h i *.R =.-.;.>.,.'.).!.F G H ~.J {.K L 9 ].^ #.$.- . . ",
". . Q j = h ^./.(._.:.<.[.}.|.E 1.2.X 3.4.5.{.6.7./.8.9.@ % . . ",
". 0.Q a.b.+.c.d.e.e.f.T g.h.C D p i.q Y ~.4.{.K j.0 ^.7 k.# * . ",
". l.Q b.~ c.+.b m.n.t o.T [.n ).p.F G Y q.4.{.` 6.B r.+.s.@ % . ",
". t.Q u.v.c.w.x.y.z._.A.o.g.B.C.E 1.D.H E.Z J {.6.).F.^.v G.$ . ",
"].t.Q y ^.c.w.x.y.z._.H.H.g.'.C D p i.q E.~.4.{.6.n c.c.I.} # @ ",
"J.t.= h r.c.R b y.y.K.f.L.>.,.n o p M.G Y 3.4.` 6.U N.+.v.G.) & ",
"O.t.P.&.c.c.^.d.Q.R.-.t f.T S.B.C.p.F D.H E.I K 4.t c.F.T.^ @ % ",
"U.t.V.w.c.c.c.W.A y.X._.:.T h.V |.p.1.i.X E.4.Y.Z.`.c.F.T.^ #.% ",
"U. +s..+T.c.R c.k ++-._.f.T @+V C.E 1.i.#+$+%+t l `.R R r.5 ' %.",
"8. +&+*+R c.R R R 0 =+e.-+<.m ,.C D !.W ;+q q.>+X.`.F.R r.^ , %.",
"l. +,+'+c.c.R )+!+~+=.8 K.{+m ,.n D s !.]+d.^+/+(+`.F.F.^._+P %.",
"l. +:+'+^.R c.W.~+0 w.c.8 `.o.,.C |.<+b v.w.[+5.}+|+F.R r./ P %.",
"l.t.: 1+^.c.c.)+x.2+'+^.^.3+4+'.o '.S k +.1+`.6.5+z.F.c.^.6+P %.",
"l.t.7+8+r.r.c.r.=.(.9+!+0 X.>.0+a+}.p o b+c+F d+;.`.R ^.^.( ' e+",
"l.t.9.r.8+^.c.c.'+A -.K.L.<.m 9 ^.++F M.r K %+=+m.z.r.^.^.( #.e+",
"8.t.9.r.^.r.c.R c.k [+f+g+T 2+F.^.k '.i.C l R.d.l `.^.^.^.( ' e+",
"O.t.k.r.^.r.c.R T.^.^.!+:.0+h+9 M /.R.H i+)+j+=.|+R.^.^.^.6+#.e+",
"J.t.k.8+^.^.8+^.c.R r.d.g+k+l+{+o m+{+2.n+o+p+d.z.Q.^.^.^.{ #.e+",
"].t.; 8+^.^.^.1+^.r.r.9 (.q+`.R.f+<.T r+s+p+j+d.z.Q.^.^.^.b.P e+",
"v. +; 8+^.^.^.^.1+N.^.!+b t+f+2+u+^+v+[+z.'+j+b z.Q.r.^.^.u.#.f ",
"u+l.P.w+r.^.^.^.^.N.o+w+R ^.3+p+c.3+3+R *+!+d.!+(.~+N.^.^./ #.f ",
"+.x+h G._ y+u.u.y+( ( [ :+V.z+z+z+z+z+V.&+s.A+A+_+_+6+, ( 6+#.f ",
"R +.B+j w w ~ h 3 x x i y 4 b.{ + y+/ 6+6 ( , ' #.#.#.#.#.#.#.2 ",
"F.F.u+x+O.*.j w ~ h C+3 x x = i y 4 4 b.b.{ + u.u.u.u.u.y+y+y+s."};
