/* XPM */
/* c:\Program Files\Windows Media Player\wmplayer.exe */
static char *icon[] = {
"48 48 253 2",
"00 c #000000",
"01 c #FFFFFF",
"03 c #DDDBDD",
"04 c #F9F8F9",
"05 c #F0EFF0",
"06 c #E1DEE4",
"07 c #79787A",
"09 c #FCFBFE",
"0A c #8E8C93",
"0B c #F9F8FC",
"0C c #ECEBEF",
"0D c #8A898E",
"0E c #848389",
"0F c #6C6B72",
"10 c #51515C",
"11 c #6F6F7B",
"12 c #D5D5DA",
"13 c #757576",
"14 c #686869",
"15 c #585859",
"16 c #DEDEDF",
"17 c #D8D8D9",
"18 c #22278D",
"19 c #111A9B",
"1A c #3B4187",
"1B c #4A4D73",
"1C c #0A18A3",
"1D c #192598",
"1E c #5E5F68",
"1F c #616580",
"20 c #33343B",
"21 c #0B21A9",
"22 c #1326A2",
"23 c #3F414C",
"24 c #4A4B51",
"25 c #1932AA",
"26 c #0A2AB1",
"27 c #2D303D",
"28 c #3B3E4A",
"29 c #0D33B5",
"2A c #4C5EA2",
"2B c #193CB3",
"2C c #3051B7",
"2D c #272A34",
"2E c #1B46BA",
"2F c #E7E8EB",
"30 c #0F49D4",
"31 c #375DC2",
"32 c #5577CC",
"33 c #6D81B1",
"34 c #0F47C0",
"35 c #1D52C1",
"36 c #3466C9",
"37 c #205CC8",
"38 c #1459CA",
"39 c #2264CE",
"3A c #3872D0",
"3B c #1865D2",
"3C c #246BD2",
"3D c #C2C4C7",
"3E c #2371D7",
"3F c #89B2E8",
"40 c #2675D9",
"41 c #2778DB",
"42 c #2A7CDD",
"43 c #1E77DE",
"44 c #2880E0",
"45 c #1E7FE4",
"46 c #2B88E5",
"47 c #5FA3E8",
"48 c #1E84E6",
"49 c #2B92ED",
"4A c #97C6F1",
"4B c #2B9AF3",
"4C c #34A2F6",
"4D c #C8DDED",
"4E c #D8E6F1",
"4F c #CED3D5",
"50 c #D4DCDF",
"51 c #D9DEDF",
"52 c #D2D3D3",
"53 c #FEFFFE",
"54 c #F7F8F7",
"55 c #7E7F7D",
"56 c #70B700",
"57 c #6AAC00",
"58 c #D5DEC7",
"59 c #68A800",
"5A c #63A000",
"5B c #85D301",
"5C c #8EE204",
"5D c #9EE722",
"5E c #8BC91E",
"5F c #96D42B",
"60 c #A7CE62",
"61 c #CBD7B7",
"62 c #7FC500",
"63 c #79BA00",
"64 c #74B300",
"65 c #70AC00",
"66 c #679C00",
"67 c #609500",
"68 c #598800",
"69 c #6CA401",
"6A c #5F8E03",
"6B c #6EA10C",
"6C c #6FA310",
"6D c #658D16",
"6E c #76A31E",
"6F c #5B7C1B",
"70 c #6C9422",
"71 c #7EA72E",
"72 c #BDD492",
"73 c #4D7100",
"74 c #436300",
"75 c #557E01",
"76 c #6D9C0E",
"77 c #50710D",
"78 c #6A9514",
"79 c #709A1C",
"7A c #86A34B",
"7B c #7A8562",
"7C c #E6ECD9",
"7D c #3A5300",
"7E c #445B11",
"7F c #809D40",
"80 c #5A6C30",
"81 c #DFE4D4",
"82 c #5D6153",
"83 c #EEF2E3",
"84 c #6C715D",
"85 c #EAEBE4",
"86 c #4C4E2B",
"87 c #56583B",
"88 c #545453",
"89 c #454544",
"8A c #FFFFFD",
"8B c #676766",
"8C c #5D5D5C",
"8D c #E3E3E2",
"8E c #EEC000",
"8F c #EABD00",
"90 c #E2B700",
"91 c #DFB400",
"92 c #DDB300",
"93 c #DAB100",
"94 c #D8AF00",
"95 c #D6AD00",
"96 c #E5B901",
"97 c #D7AF06",
"98 c #D8B007",
"99 c #DFB508",
"9A c #D4AE08",
"9B c #D9AF09",
"9D c #D9B30D",
"9E c #C5A20D",
"9F c #E0BA11",
"A0 c #DAB514",
"A1 c #E3BD1B",
"A2 c #E3BF24",
"A3 c #AC901C",
"A4 c #DDBB28",
"A5 c #E3C337",
"A6 c #8D7924",
"A7 c #E3C544",
"A8 c #E7CA4D",
"A9 c #E5CA52",
"AA c #E7CB55",
"AB c #E9CE58",
"AC c #E8CD59",
"AD c #EACF5F",
"AE c #615628",
"AF c #736631",
"B0 c #F0DB82",
"B1 c #F5E7AB",
"B2 c #FAF3D4",
"B3 c #FEFDF9",
"B4 c #F5CE45",
"B5 c #F5D45B",
"B6 c #FCF8EA",
"B7 c #393732",
"B8 c #FEFBF5",
"BA c #D7C6C0",
"BB c #E4BFB5",
"BC c #F04014",
"BD c #F24419",
"BE c #EC461C",
"BF c #F34B21",
"C0 c #ED4C23",
"C1 c #F44F25",
"C2 c #F75228",
"C3 c #F35129",
"C4 c #EF5029",
"C5 c #F9552B",
"C6 c #F5532B",
"C7 c #FC582E",
"C8 c #F7552D",
"C9 c #FB5930",
"CA c #FA572F",
"CB c #F3552E",
"CC c #FE5A31",
"CD c #FF5C33",
"CE c #F15731",
"CF c #FF5D35",
"D0 c #EC5632",
"D1 c #FF6039",
"D2 c #EC5B36",
"D3 c #FF653E",
"D4 c #FF6C46",
"D5 c #FF734F",
"D6 c #E96C4C",
"D7 c #FF7D5D",
"D8 c #FF886A",
"D9 c #FF957A",
"DA c #FD9D85",
"DB c #FAA691",
"DC c #F2B3A3",
"DD c #DACDCA",
"DE c #FF4832",
"DF c #FC6E5F",
"E0 c #3F3E3E",
"E1 c #4F4E4E",
"E2 c #FCFCFC",
"E3 c #F5F5F5",
"E4 c #F2F2F2",
"E5 c #EDEDED",
"E6 c #EAEAEA",
"E7 c #E8E8E8",
"E8 c #E5E5E5",
"E9 c #E0E0E0",
"EA c #DDDDDD",
"EB c #DBDBDB",
"EC c #D9D9D9",
"ED c #D6D6D6",
"EE c #CECECE",
"EF c #B8B8B8",
"F0 c #A7A7A7",
"F1 c #989898",
"F2 c #909090",
"F3 c #8B8B8B",
"F4 c #888888",
"F5 c #828282",
"F6 c #707070",
"F7 c #626262",
"F8 c #383838",
"F9 c #323232",
"FA c #2C2C2C",
"FB c #202020",
"FC c #161616",
"FD c #0D0D0D",
"FE c #050505",
"FF c #020202",
"   c None",
"                                                                                                ",
"                                                                                                ",
"                                    D2D2D2D2D27070707070F4F4F4                                  ",
"                              D2D2D2D2C0BEBCBE5759696C71707070F4F4                              ",
"                          BFBFC4BDBCBDBEC0C0C0635665595A6767707070F4F4                          ",
"                      D2D2C0BDBFC3C6C6C3C3C3C46263636465696667686D7070F4                        ",
"                    D2CBBDC1C8C8C8C8C8C8C8C8C65B626263646569666768757070F4F4                    ",
"                  D2BFBFC8C7C7C7C7C7C7C7C7C7DE5B5B626263646569666768756F6FF4F4                  ",
"                D2BDC2C9C9CCCDCFD1D1D1CFCCCCCC5C5B5B626263646569666A6875776FF4F4                ",
"              D2BDC5C9CCCFD3D4D5D5D5D5D4D3D3D35C5C5B5B62626465696667687573777BF4F4              ",
"            D2BDC5C9CCD1D4D5D7D8D8D8D7D7D7DFDF5D5C5C5B5B6263646569666A687573777BF4F4            ",
"          D2BDC2CACCD1D5D7D8D9D9D9DADBBBBABABA616172605F62636364696667687573748055F4F4          ",
"        D2CEBFCACCD1D4D7D8D9DADBDCBAEEEEEE4F121212031658725E5664656976686875737480F4F4          ",
"        D2BDC5C7CDD4D7D8DADBDCBA4F4F4F5252EDED1717EC03160658605665696E78757573747E840AF4        ",
"      D2BFC1CACCD1D5D8D9DBDCDD4F3DEEEB17ED17ECEBEBEAEAE9E98DE96057696B716D757374748007F4        ",
"      D2BCC8CACCD3D7D8DADCDD4FEBF055F0EDE903EBEA1616E98D8DE82FE8605A666E7F7573737D7E840DF4      ",
"    D2D0BFC8CACDD4D7D9DBBBED52EAEF0713F3EFE9E8E9168D8DE8E8E8E70C816E5A767A707373747D8713F4      ",
"    D2BDC3C8C7CFD4D7D9DC5212ED16EFF3F355F6F5EFE7E6E8E8E8E7E6E6E5E4726766717F7574747D868BF4      ",
"    D2BCC3C8C7CFD4D7D9BB50EDECE9EFF2F2F4138CE113EFE5E5E6E6E5E5E5E4837168797A7074747D7E820E      ",
"    D6BDC3C8CACDD4D7DADD50ECEB8DEF0EF555F6F788F8FA143DE4E4050505E4E37268787A7F73747D7D8707F4    ",
"  D2D0BEC3C6CACCD1D5DB50510316E7EF13F6F6148CE1E0FAFDFCF7EE0454E3E30B586A6A7A7F77747D7D870FF4    ",
"  D2BEBEC1C2C5C7CDD4DC515116E9E5EF8BF7F715E189F8FAFB0000FD13EC5404097C79687F7A6F7D7D7D86F7F4    ",
"  D2BEBEC1C2C5C7CDD4DC4EE9E98DE4F015E188E189F8FAFBFDFE000000FCF5E7018371757F7A6F7D7D7D868CF4    ",
"  F43C3E424446494B4B3D858D8DE8E3F089E089E0F8FAFBFCFD00000000FDF9EE53B6B4A4B5ACA5959591A315F4    ",
"  F43C3E424449494B4C4A85E8E8E704F0F8F9F9FAFAFBFCFD000000FDF8F252E8E4B6B4A2B5AAA4959490A315F4    ",
"  F43C3E424446494B4C4A85E6E6E6E2F0FAFBFBFBFCFDFD0000FDF9F4EE16EEEE2FB2A2A2ADACA5959490A615F4    ",
"  F43A3B40444649494B47E6E5E6E553F1FCFDFCFDFDFF00FDF9553D165252E8048AB29FA5ADAAA4959399A610F4    ",
"  F43A3B3E41444646494C4DB6E5E401F1FD00FF0000FEFAF63DEA52528D040101B8B099A9ACA8A4959198AF1EF4    ",
"  F43A383C3E41444646494AB6E4E401F1FD000000FA14EFEA52EE16E301010101B2A5A2ADAAA7A095969E870FF4    ",
"    F438393C3E414446484C4EB8E301F1FE00FBF7F0EBEDEE03E4010101010101B099A8ACAAA597948FA3E055F4    ",
"    F43138393C3E404142453F54B301F2FA88F0EDECEEEBE55301010101018AB2A1A2ADAAA9A4959196AF280A      ",
"    F4333437393C3E404143444A8A01EEEFECEDEEECE5E201010101010101B2A79FABACAAA79D958F9E861EF4      ",
"    F4F435353739393C3E403E424A8A0101E952E6E20101010101010101B2A89FA8ACAAA8A495918FA620F4F4      ",
"      F4333435373739393C3C3B403F4E01B8040101010101010101B3B1A59FA8ACAAA9A59A948F9E8610F4        ",
"      F40E2C3435353737393A3C383B323F4E01010101010101B8B1ADA1A2A8ACAAA9A79D949090A62DF4F4        ",
"        F4332B3435353537363A363838393A473F4A4FB1B1B0A8A2A1A5AAACAAA9A79D95918FA3FA1EF4          ",
"        F4F42A292B2E2E353536323A3635342E2E3030A29F9FA2A5A8ABACAAA9A79D94928E9E8628F4F4          ",
"          F3F32A292B2E2E2E2E313232323236313131A5A5A8A8ACACAAAAA9A49D94928E9AAE2755F4            ",
"            F40E2A26292B2B2B2E2E31323232323232ABABACACACACA9A5A09794928E9AAE2D55F4              ",
"              F4552A2526252B252B2B2B2C31323232ABABAAA7A7A4A0979493968E9E862D14F4                ",
"                F4071F2521212525252525252525259D9F9D9D98979594928E96A6B72055F4                  ",
"                  F455111A221C21222222221D221D9B9394959493918F8F9EAEFA23F4F4                    ",
"                    F455F61F1A1D1C1C1C191919199B9293908F8F91A3AFB72DF7F4F4                      ",
"                      F4F4F48B1E1B1A18191919199990929EA3A687B7F915F4F4F4                        ",
"                          F4F2F4F7151510101010AFAF8789E0208914F4F4F4                            ",
"                              F4F4F455F68C88E12424158B13F4F4F4F4                                ",
"                                      F4F4F4F4F4F4F4F4F4                                        ",
"                                                                                                "};
