/* XPM */
/* c:\windows\profiles\tinou\Application Data\Microsoft\Installer\{9011040C-6000-11D3-8CFE-0150048383C9}\wordicon.exe */
static char *icon[] = {
"48 48 256 2",
"01 c #FFFEFF",
"02 c #FDFDFF",
"03 c #FCFCFD",
"04 c #F0F1FA",
"05 c #F0F1F9",
"06 c #F4F5FC",
"07 c #DDE1F4",
"08 c #E2E5F5",
"09 c #E4E7F6",
"0A c #E6E9F7",
"0B c #E5E8F6",
"0C c #F6F7FC",
"0D c #F5F6FB",
"0E c #E2E6F6",
"0F c #E0E4F4",
"10 c #E7EAF7",
"11 c #E9ECF8",
"12 c #E8EBF7",
"13 c #EFF1FA",
"14 c #EEF0F9",
"15 c #F1F3FB",
"16 c #F0F2FA",
"17 c #F8F9FD",
"18 c #F7F8FC",
"19 c #DDE2F4",
"1A c #DCE1F3",
"1B c #E3E7F6",
"1C c #E2E6F5",
"1D c #EAEDF8",
"1E c #F3F5FC",
"1F c #DEE3F4",
"20 c #DFE4F4",
"21 c #E0E5F5",
"22 c #E4E8F5",
"23 c #EDF0FA",
"24 c #ECEFF9",
"25 c #EBEEF8",
"26 c #5876C8",
"27 c #5F7CCB",
"28 c #586FAD",
"29 c #6077B8",
"2A c #5E74B3",
"2B c #6B84C8",
"2C c #667DBF",
"2D c #6F88CE",
"2E c #738CD1",
"2F c #6678AC",
"30 c #8097D7",
"31 c #7081B2",
"32 c #889ACA",
"33 c #BDC4D8",
"34 c #DBE1F3",
"35 c #E0E6F6",
"36 c #E1E6F5",
"37 c #E3E8F6",
"38 c #E7EBF7",
"39 c #EDF0F9",
"3A c #EFF2FA",
"3B c #F3F5FB",
"3C c #F2F4FA",
"3D c #FAFBFE",
"3E c #F9FAFD",
"3F c #3F62BF",
"40 c #4266C1",
"41 c #4A6FC9",
"42 c #4A6CC3",
"43 c #4E72CA",
"44 c #5375C9",
"45 c #597BCC",
"46 c #6486DA",
"47 c #6689DD",
"48 c #5C79C1",
"49 c #6E91E4",
"4A c #607CC1",
"4B c #6A89D4",
"4C c #5066A0",
"4D c #6581C7",
"4E c #7C9BE7",
"4F c #7F9EE8",
"50 c #7590D5",
"51 c #7B94D6",
"52 c #8AA6EA",
"53 c #8FAAEB",
"54 c #849BD8",
"55 c #6B7EAF",
"56 c #8AA3E1",
"57 c #89A1DE",
"58 c #8EA7E4",
"59 c #91AAE8",
"5A c #8FA7E2",
"5B c #95AEEB",
"5C c #91A7E0",
"5D c #9BB3ED",
"5E c #95ABE4",
"5F c #9BB1E7",
"60 c #99AEE5",
"61 c #A2B7EE",
"62 c #A8BCF0",
"63 c #AEC1F2",
"64 c #7A87A9",
"65 c #B5C6F3",
"66 c #B1C2EC",
"67 c #E5EAF6",
"68 c #F5F7FC",
"69 c #1D4AAB",
"6A c #2550AF",
"6B c #2E58B9",
"6C c #2950A3",
"6D c #2D55AB",
"6E c #335BB3",
"6F c #3259AD",
"70 c #3156A9",
"71 c #3861BF",
"72 c #355AAD",
"73 c #3961B8",
"74 c #3B61BB",
"75 c #3D64BD",
"76 c #3F67C2",
"77 c #3D63B5",
"78 c #456ABB",
"79 c #496EBE",
"7A c #4D72C3",
"7B c #5175C6",
"7C c #5478CB",
"7D c #5378C9",
"7E c #587ED1",
"7F c #567BCD",
"80 c #587DCE",
"81 c #577AC8",
"82 c #6187DC",
"83 c #5F84D8",
"84 c #5E82D5",
"85 c #5C81D2",
"86 c #6186DA",
"87 c #5B7FCE",
"88 c #678CE2",
"89 c #5F80CE",
"8A c #6284D2",
"8B c #4A629A",
"8C c #6787D2",
"8D c #7395E5",
"8E c #536CA4",
"8F c #6F90D9",
"90 c #7899E7",
"91 c #5A74AC",
"92 c #3C4D73",
"93 c #38486B",
"94 c #354466",
"95 c #7493DC",
"96 c #374769",
"97 c #5870A6",
"98 c #7797DE",
"99 c #84A2E9",
"9A c #809EE1",
"9B c #7D9ADC",
"9C c #6A82B5",
"9D c #86A2E3",
"9E c #89A5E5",
"9F c #768AB7",
"A0 c #7E93C2",
"A1 c #A9B4CC",
"A2 c #D4DBEA",
"A3 c #EFF2F9",
"A4 c #173C83",
"A5 c #1B4495",
"A6 c #1B4390",
"A7 c #1A408A",
"A8 c #1E4797",
"A9 c #22499A",
"AA c #204692",
"AB c #244B9C",
"AC c #274FA1",
"AD c #284E9D",
"AE c #2C53A5",
"AF c #2A4D91",
"B0 c #16274B",
"B1 c #2E539A",
"B2 c #3358A3",
"B3 c #365DAA",
"B4 c #3960AE",
"B5 c #416CC4",
"B6 c #436FC8",
"B7 c #4774D0",
"B8 c #3D63B2",
"B9 c #4673CB",
"BA c #4B78D7",
"BB c #4A77D4",
"BC c #4D7AD9",
"BD c #4066B5",
"BE c #4269B7",
"BF c #4D79CE",
"C0 c #517ACE",
"C1 c #547DD0",
"C2 c #5981D2",
"C3 c #5C84D3",
"C4 c #5073B7",
"C5 c #5E85D5",
"C6 c #5579C2",
"C7 c #5376BD",
"C8 c #4F71B3",
"C9 c #597DC9",
"CA c #4E6FB0",
"CB c #6489D6",
"CC c #698ED8",
"CD c #546FA8",
"CE c #50699D",
"CF c #5772AA",
"D0 c #445984",
"D1 c #3E5178",
"D2 c #394A6E",
"D3 c #435780",
"D4 c #41547C",
"D5 c #5F79AE",
"D6 c #647DB2",
"D7 c #6F87B9",
"D8 c #738BBA",
"D9 c #778EBD",
"DA c #7A91BF",
"DB c #D5DEF1",
"DC c #FBFCFE",
"DD c #FAFBFD",
"DE c #143673",
"DF c #133063",
"E0 c #17356B",
"E1 c #204484",
"E2 c #1D3D77",
"E3 c #1B396F",
"E4 c #20417E",
"E5 c #254887",
"E6 c #3664B4",
"E7 c #3866B9",
"E8 c #3C6ABE",
"E9 c #37578F",
"EA c #3E5C93",
"EB c #466193",
"EC c #0C2855",
"ED c #0F2D5C",
"EE c #2C5AA3",
"EF c #2E5DA8",
"F0 c #3160AC",
"F1 c #3462B1",
"F2 c #254477",
"F3 c #2F5189",
"F4 c #C9D2E1",
"F5 c #F3F6FB",
"F6 c #021C43",
"F7 c #07224C",
"F8 c #F9FBFE",
"F9 c #8899AE",
"FA c #FDFEFF",
"FB c #FCFDFE",
"FC c #7E91A1",
"FD c #6F8695",
"FE c #0A2230",
"FF c #193E52",
"   c None",
"                                                                                                ",
"                                                                                                ",
"                                                                                                ",
"                                                                                                ",
"        4788474746478686848384847E7E807F7C7D7D7B7A7A7A7A79797878BEBEBDBDB8B8B4B8B4B4B3B4        ",
"        8865656565636563636262616161615D5D5B5B5353525299994F4E90908D8D4949884988888888B3        ",
"        4765616161615D5D5B5B595958589D9D9A9A98989595CCCCCBCBC3C3C2C2C0C0BFBFB9B9B9B9BCB3        ",
"        CC6562A0F9A0DADADAD9D9D9D9D8D8D7D7D7D79C9CD655D6D6D5D52AD59191CFCFCDCFCDCD82BCB3        ",
"        476561A00101010101FA01020303FBDC3DDDF83E171718180D0D1E3B3B3C151516051439D086BAB3        ",
"        476361A0010101010102010202FB03DD3D3E3E171718180C68063B3B06163C163A23A339D086BAB2        ",
"        46655DA001010101FA0203FBFBDCDD3D3E3E181718180C0D0DF53B3C153C16A314233924D086BBB2        ",
"        46635DDA0101FA01FA03FB0302DDDD3E3E173E180C0C0D0D3B3C1E153C163A23A3243925D083BBB1        ",
"        83635BDA01FA030203FB03DC3DDD3E3E1818180C0C68063B3C3C153C1616141424241D1DD383B7B1        ",
"        83625FDAFA549A54545130515150502E1718342E8A27272626163C267A4242424240403FD083BBB1        ",
"        84625ED9FB30666666665F615F5E582C180C332E60585858551516429D4F9B98494B463FD3C5B7B1        ",
"        84625BD902502E605A5A5A5A5AA02FF918DB3132569B548C5516A3264D7FC17FB741B942D384B7AF        ",
"        7E6158D9FBFB3554605A565AA0D735180CA132329B505027D5133914F9D67FB64173FDF4D485B9AF        ",
"        856158D8FB03DCDD2E5E5630550C180CDB55329B958C4B442F2314F49F28C07673FFF410D487B9AF        ",
"        80619ED803033EDD2D5E9A51CD170D34A13298508C8987B6971424332A854241DEF91010D487B6E5        ",
"        7E5D9DD7FB3D3D3E2D5C9A50CF0C68F45554508C897C7C409739A29FCB7D766EFFF4120AD487B6E5        ",
"        7C5D9AD73EDD173E2B569B2E8E0DF4A1A08F8A87444141718B2464CE7FB540DEFC673767D1C9B5E5        ",
"        C05B9AD70317F8172B57518CCD0DA12F8F8A87444140B671CEF964807A716FFFF40A6737D1C9B6E4        ",
"        445B989C3E3E17172C542E898EA1D5504D457B7940763F6BEAEB4C437475DEFC0A670922D1C9E8E4        ",
"        7D539B9C3E1717182C308C26CE8B4A89454381797573736DEA43796B6EAEFFF46737091BD181E8E2        ",
"        7A53959C171818182951C97A4CCA482642E126446F6E6F6E6B716B6F6DDEFC0A09091B1C92C6E8E2        ",
"        7B5298D6171818682950C67A7B7A267977F328436DAE6D6D6F6D6DAEAFFFF4370B1B1C1C92C6E8E3        ",
"        79528FD6180C0C682A2E42787979BDB4E1A14C42ABACAC6C6C6CADADDEFC0B221B1C080892C6E7DE        ",
"        7A998FD618680C0D2A2DBDB8BDB8B3AEF3A2CE4069ABABABABA9AFAAFFF4221C3708082192C6E7E0        ",
"        7999CBD60C680D1E8E2B72727070ACE1A125CE74A5A8A8A8A8AAAADEFD371C0E1C080F21D2C7E6E0        ",
"        794F47D5680D0D3B284D70AE6CABA9F3A225CE6EA5A6A5A6A6A6AAFFF41B22080821211FD2C7E6DF        ",
"        784FC5D53C3B3B3C4C27ADABA9A8E1A12525EB6BA6A6A7A7A7A7DEFD1B0908080F21070F93C7F1DF        ",
"        784EC5D53B3B1E3C8E48A9A8A8A5F3A21D1DEA6AA6A7A7A4A7A4FFF41C21080F0F20351FD2C7F1ED        ",
"        BE90C2D53B3C3C3C8B48A5A5A6E1A1251D1DE969A4A7A4A4A4DEFD0E08362021190F071F96C4F0ED        ",
"        BE8DC2913C1615164CC7A4A4A4F2A21D1112E969E3E3E3E3DEFFF41C362121201F1F1F1A93C4F0EC        ",
"        BD8DC191163C16A38BB0B0B0B0A11D111138F2B0B0B0B0B0FEA10E36212007211F1F191994C4EFEC        ",
"        BD8DC1CF3C16131414393925231D25381210106767371B1B0E1C36210F0F1F1F1F19190796C8F0F7        ",
"        E649BFCF161314232424251D1D1D111210670A670B1B1B22361C0F2107201F1F1934340794C8EFF7        ",
"        B849C0CD0414A3392425251D11381238380B670B0B1B1C1C08212120201F0F1907341A1A94C8EFF7        ",
"        B449B9CD1423242425251D111212100A676709371C1C36082121070F1F1F190734071A3494C8EEF7        ",
"        B888BFCD3A392425251D1D123810380B6737091B1C36080F2120201F1F0707341A1A343494CAEFF6        ",
"        B488B9CDD0D0D0D0D3D0D3D3D4D4D4D4D1D1D1D192929292D2D2D2D29393969694949494FFCAEEF6        ",
"        B488B982828682838683C585C38585878780C9C9C9C6C6C6C6C7C7C7C7C4C4C8C4C8C8CAC8CAEEF6        ",
"        B388BCBCBABABBBBBBBBB7B7B9B7B6B6B5B5E8E8E8E8E7E7E6E6F1F1F1F1F0F0EFEFEEEEEEEEACF6        ",
"        B4B3B3B3B3B2B2B1B2B1B1AFAFAFAFE5E5E4E4E2E2E3E3E0E0DFDFEDEDECECF7ECF7F7F6F7F6F6F6        ",
"                                                                                                ",
"                                                                                                ",
"                                                                                                ",
"                                                                                                "};
