/* XPM */
static char * WorldOfGoo_xpm[] = {
"32 32 363 2",
"  	c None",
". 	c #200404",
"+ 	c #210505",
"@ 	c #130000",
"# 	c #1D0E0E",
"$ 	c #282525",
"% 	c #403D3D",
"& 	c #4E4F4F",
"* 	c #505353",
"= 	c #4E5252",
"- 	c #4C4D4D",
"; 	c #494646",
"> 	c #3E3636",
", 	c #2A1919",
"' 	c #210101",
") 	c #010000",
"! 	c #000000",
"~ 	c #000101",
"{ 	c #3F4141",
"] 	c #646565",
"^ 	c #6D6E6E",
"/ 	c #767777",
"( 	c #7B7B7B",
"_ 	c #797979",
": 	c #747474",
"< 	c #777878",
"[ 	c #7A7D7D",
"} 	c #707272",
"| 	c #575858",
"1 	c #342828",
"2 	c #180303",
"3 	c #5C4747",
"4 	c #3B3232",
"5 	c #121212",
"6 	c #707070",
"7 	c #777777",
"8 	c #818181",
"9 	c #878787",
"0 	c #838383",
"a 	c #858585",
"b 	c #8C8C8C",
"c 	c #7E7E7E",
"d 	c #737474",
"e 	c #191A1A",
"f 	c #F2C4C4",
"g 	c #FBDBDB",
"h 	c #FEEBEB",
"i 	c #FFEFEF",
"j 	c #BEA9A9",
"k 	c #231B1B",
"l 	c #484848",
"m 	c #848484",
"n 	c #8A8A8A",
"o 	c #8B8B8B",
"p 	c #969696",
"q 	c #959595",
"r 	c #696969",
"s 	c #100C0C",
"t 	c #342B2B",
"u 	c #FACFCF",
"v 	c #FFE5E5",
"w 	c #FFEDED",
"x 	c #FFF4F4",
"y 	c #FFFCFC",
"z 	c #FFFFFF",
"A 	c #BBACAC",
"B 	c #232424",
"C 	c #888888",
"D 	c #898989",
"E 	c #8F8F8F",
"F 	c #919191",
"G 	c #8D8D8D",
"H 	c #989898",
"I 	c #9B9B9B",
"J 	c #4B4C4C",
"K 	c #160E0E",
"L 	c #A98989",
"M 	c #E5BEBE",
"N 	c #E1BABA",
"O 	c #CB9F9F",
"P 	c #F6CCCC",
"Q 	c #FFE6E6",
"R 	c #FFECEC",
"S 	c #FFF0F0",
"T 	c #FFF8F8",
"U 	c #4E4343",
"V 	c #060707",
"W 	c #909090",
"X 	c #939393",
"Y 	c #9E9E9E",
"Z 	c #959696",
"` 	c #1B1C1C",
" .	c #816767",
"..	c #EDC6C6",
"+.	c #F7D4D4",
"@.	c #FFE2E2",
"#.	c #F9D5D5",
"$.	c #D8AEAE",
"%.	c #F3C5C5",
"&.	c #FFE0E0",
"*.	c #FFEBEB",
"=.	c #FFF7F7",
"-.	c #817777",
";.	c #737373",
">.	c #979797",
",.	c #A2A2A2",
"'.	c #9D9D9D",
").	c #A1A1A1",
"!.	c #8F9090",
"~.	c #1C1717",
"{.	c #B49393",
"].	c #F6D2D2",
"^.	c #FFE1E1",
"/.	c #F5CECE",
"(.	c #EDBFBF",
"_.	c #FAD3D3",
":.	c #FFFDFD",
"<.	c #FFFBFB",
"[.	c #A59696",
"}.	c #0A0808",
"|.	c #9C9C9C",
"1.	c #AAAAAA",
"2.	c #A5A5A5",
"3.	c #929292",
"4.	c #999999",
"5.	c #A3A3A3",
"6.	c #838585",
"7.	c #2B2323",
"8.	c #D0AAAA",
"9.	c #FFDCDC",
"0.	c #FFE7E7",
"a.	c #FFDDDD",
"b.	c #E5BABA",
"c.	c #F3C4C4",
"d.	c #FFE8E8",
"e.	c #CDB4B4",
"f.	c #705A5A",
"g.	c #E2D4D4",
"h.	c #746A6A",
"i.	c #1A1818",
"j.	c #9F9F9F",
"k.	c #777979",
"l.	c #322828",
"m.	c #E2B9B9",
"n.	c #FFE3E3",
"o.	c #FFE9E9",
"p.	c #FBD2D2",
"q.	c #CEA3A3",
"r.	c #F1C3C3",
"s.	c #F9D1D1",
"t.	c #534545",
"u.	c #856B6B",
"v.	c #4A4545",
"w.	c #424343",
"x.	c #A8A8A8",
"y.	c #A0A0A0",
"z.	c #A7A7A7",
"A.	c #2F2525",
"B.	c #E3B8B8",
"C.	c #FFE4E4",
"D.	c #E1B7B7",
"E.	c #F4CBCB",
"F.	c #FFF2F2",
"G.	c #907979",
"H.	c #050000",
"I.	c #AFA1A1",
"J.	c #BFBABA",
"K.	c #120D0D",
"L.	c #979898",
"M.	c #A4A4A4",
"N.	c #878989",
"O.	c #251D1D",
"P.	c #D7AEAE",
"Q.	c #B19595",
"R.	c #796161",
"S.	c #E4BCBC",
"T.	c #F3C9C9",
"U.	c #FADADA",
"V.	c #FEF1F1",
"W.	c #F6EDED",
"X.	c #FEFCFC",
"Y.	c #FEF5F5",
"Z.	c #403737",
"`.	c #5A5C5C",
" +	c #B1B1B1",
".+	c #A6A6A6",
"++	c #141010",
"@+	c #BE9898",
"#+	c #F4D6D6",
"$+	c #0B0909",
"%+	c #796060",
"&+	c #BA9797",
"*+	c #E4C8C8",
"=+	c #FFF1F1",
"-+	c #FCF4F4",
";+	c #604F4F",
">+	c #2C2D2D",
",+	c #ABACAC",
"'+	c #181A1A",
")+	c #A07F7F",
"!+	c #FFDBDB",
"~+	c #FEDDDD",
"{+	c #4F4242",
"]+	c #0A0404",
"^+	c #B79797",
"/+	c #C89898",
"(+	c #4D3C3C",
"_+	c #B9A2A2",
":+	c #FFF5F5",
"<+	c #C6BFBF",
"[+	c #362E2E",
"}+	c #1C1D1D",
"|+	c #ABABAB",
"1+	c #444747",
"2+	c #674F4F",
"3+	c #FACBCB",
"4+	c #FFDFDF",
"5+	c #FBDADA",
"6+	c #FBD7D7",
"7+	c #C09191",
"8+	c #040303",
"9+	c #312828",
"0+	c #B49A9A",
"a+	c #DFC2C2",
"b+	c #D9C0C0",
"c+	c #928686",
"d+	c #444040",
"e+	c #0A0505",
"f+	c #343636",
"g+	c #6B6C6C",
"h+	c #1D1515",
"i+	c #E0B4B4",
"j+	c #FED5D5",
"k+	c #F8D2D2",
"l+	c #BE8D8D",
"m+	c #030101",
"n+	c #070404",
"o+	c #1D1E1E",
"p+	c #696A6A",
"q+	c #A3A2A2",
"r+	c #9A9A9A",
"s+	c #242525",
"t+	c #846868",
"u+	c #FED1D1",
"v+	c #FFDADA",
"w+	c #FFD9D9",
"x+	c #F4CDCD",
"y+	c #BA8888",
"z+	c #181212",
"A+	c #353333",
"B+	c #545555",
"C+	c #575757",
"D+	c #616161",
"E+	c #626363",
"F+	c #D2AAAA",
"G+	c #FDD2D2",
"H+	c #FED6D6",
"I+	c #FFD7D7",
"J+	c #FFD6D6",
"K+	c #F2CBCB",
"L+	c #A77070",
"M+	c #220F0F",
"N+	c #473F3F",
"O+	c #818282",
"P+	c #8E8E8E",
"Q+	c #383A3A",
"R+	c #443535",
"S+	c #DEB4B4",
"T+	c #F2C7C7",
"U+	c #F5CBCB",
"V+	c #F9CECE",
"W+	c #E7C0C0",
"X+	c #160202",
"Y+	c #282020",
"Z+	c #6E6F6F",
"`+	c #868686",
" @	c #252727",
".@	c #3D2E2E",
"+@	c #B38E8E",
"@@	c #DBB2B2",
"#@	c #DDB5B5",
"$@	c #A37777",
"%@	c #120606",
"&@	c #555656",
"*@	c #6D6D6D",
"=@	c #7C7C7C",
"-@	c #808080",
";@	c #444646",
">@	c #151414",
",@	c #211717",
"'@	c #201717",
")@	c #343434",
"!@	c #6A6A6A",
"~@	c #7F7F7F",
"{@	c #404242",
"]@	c #131414",
"^@	c #201414",
"/@	c #949494",
"(@	c #767676",
"_@	c #5D6060",
":@	c #211010",
"<@	c #3F3C3C",
"[@	c #717272",
"}@	c #787878",
"|@	c #757575",
"1@	c #6A6B6B",
"2@	c #322E2E",
"3@	c #160808",
"4@	c #434444",
"5@	c #160303",
"6@	c #1E1010",
"7@	c #575959",
"8@	c #727272",
"9@	c #828282",
"0@	c #717171",
"a@	c #484B4B",
"b@	c #1A0909",
"c@	c #1E1515",
"d@	c #555757",
"e@	c #6E6E6E",
"f@	c #7D7D7D",
"g@	c #464949",
"h@	c #170E0E",
"i@	c #1D0F0F",
"j@	c #494B4B",
"k@	c #6C6C6C",
"l@	c #626161",
"m@	c #5A5B5B",
"n@	c #393B3B",
"o@	c #180A0A",
"p@	c #190707",
"q@	c #302E2E",
"r@	c #535656",
"s@	c #636464",
"t@	c #646464",
"u@	c #6F6F6F",
"v@	c #686868",
"w@	c #626262",
"x@	c #5F6060",
"y@	c #5B5C5C",
"z@	c #474A4A",
"A@	c #252323",
"B@	c #150101",
"C@	c #1C0B0B",
"D@	c #282828",
"E@	c #464747",
"F@	c #636666",
"G@	c #686A6A",
"H@	c #696B6B",
"I@	c #686969",
"J@	c #5C5D5D",
"K@	c #4F5151",
"L@	c #3A3B3B",
"M@	c #232222",
"N@	c #170909",
"O@	c #170404",
"P@	c #1E1414",
"Q@	c #312A2A",
"R@	c #2D2A2A",
"S@	c #262121",
"T@	c #1F1919",
"U@	c #140A0A",
"V@	c #120000",
"                              . +                               ",
"                    @ # $ % & * = - ; > , '                     ",
"                ) ! ~ { ] ^ / ( _ : < [ } | 1 2                 ",
"              3 4 ! ! 5 6 7 8 9 9 0 a b 0 c d e !               ",
"          f g h i j k ! l m a n o n o p q q r ! s t             ",
"        u v w x y z A ! B C D E F G b H I I J K L M N O         ",
"      P Q R S T z z z U V ( W X F W G H Y Z `  ...+.@.#.$.      ",
"    %.&.*.S =.y z z z -.) ;.H >.,.'.G H ).!.~.{.].^.v @./.      ",
"  (._.S :.T <.z z z z [.}._ |.I 1.2.3.4.5.6.7.8.9.0.Q ^.a.b.    ",
"(.c.d.e.f.g.z z z z z h.i.q '.j.Y I p |.2.k.l.m.n.o.v &.a.p.q.  ",
"r.s.S t.! u.z z z z z v.w.x.Y ,.x.y.H j.z.k.A.B.v 0.C.^.C.Q D.  ",
"E.g F.G.H.I.z z z z J.K.L.M.y.2.2.j.H y.z.N.O.P.C.o.v C.Q.R.S.  ",
"T.U.w V.W.X.z z z Y.Z.`. +j.5..+5.j.4.y.z.!.++@+&.v d.#+$+! %+  ",
"&+*+i =+<.z z z -+;+>+,+2.Y 2.z.M.j.I M.z.H '+)+!+&.v ~+{+]+^+/+",
"(+_+:.:+:.z :.<+[+}+y.|+|.Y 2..+5.Y |.2..+,.1+2+3+!+@.4+5+].6+7+",
"8+9+0+a+b+c+d+e+f+'.z.I >.Y M.M.).'.'.z.M.5.g+h+i+j+&.a.9.a.k+l+",
"! ! ! ! m+n+o+p+q+y.>.3.>.y.,.).Y r+j..+).'.p s+t+u+v+a.!+w+x+y+",
"z+A+B+C+D+7 H r+X W E 3.r+j.j.Y r+p 5.M.j.I r+E+O.F+G+H+I+J+K+L+",
"M+N+O+b F F P+o D o E p |.'.r+H q r+5.j.|.4.H p Q+R+S+T+U+V+W+  ",
"X+Y+Z+( `+m a m 9 b 3.>.>.p p X 3.Y y.|.4.H '.q C  @.@+@@@#@$@  ",
"  %@&@*@( =@-@`+D P+W F F F W P+X j.|.4.>.>.p 3.X o ;@>@,@'@]+  ",
"    )@!@: ~@m 9 o b b G P+P+b n >.|.H >.>.q X F F F W !@{@]@    ",
"    ^@E+: -@`+`+9 C C n D C C G r+>.p q /@3.3.W W E m (@_@:@    ",
"      <@[@}@8 m m a a `+a a `+F p /@/@X X F W E E 9 |@1@2@      ",
"      3@& 6 7 ~@0 0 0 a a 0 D p q /@X 3.W F F P+C (@!@4@5@      ",
"        6@7@8@: c 9@9@0 9@9@E /@X 3.3.F W P+b 0 0@p+a@b@        ",
"          c@d@e@6 _ =@c f@`+W W W P+E G n m 7 r D+g@h@          ",
"            i@j@p+k@e@8@_ 9 D D C `+0 c |@r l@m@n@o@            ",
"              p@q@r@s@t@*@(@(@7 : u@v@w@x@y@z@A@B@              ",
"                  C@D@E@F@G@H@I@E+J@7@K@L@M@N@                  ",
"                      O@P@7.Q@2@R@S@T@U@V@                      ",
"                                                                "};
