/* XPM */
/* c:\Program Files\AWcomlink\AWcomlink.exe */
static char *icon[] = {
"48 48 244 2",
"00 c #000000",
"01 c #0C0200",
"02 c #0F0901",
"03 c #120301",
"04 c #120A01",
"05 c #170F0F",
"06 c #1B1704",
"07 c #1B1711",
"08 c #261A07",
"09 c #251F12",
"0A c #360800",
"0B c #3A0606",
"0C c #3C0D01",
"0D c #31180A",
"0F c #21240D",
"10 c #262714",
"11 c #2E301F",
"12 c #37220B",
"13 c #382814",
"14 c #36331A",
"15 c #2B2421",
"16 c #362D25",
"17 c #3B3B27",
"18 c #393A34",
"19 c #3F412D",
"1A c #5A0D05",
"1B c #42260C",
"1C c #432B19",
"1D c #4B2812",
"1E c #4A291A",
"1F c #49311D",
"20 c #54230B",
"21 c #5F2112",
"24 c #453B33",
"25 c #523428",
"26 c #513825",
"27 c #513E29",
"28 c #583C27",
"29 c #6E1F01",
"2A c #692015",
"2B c #683F39",
"2C c #474419",
"2D c #48422A",
"2E c #4A4438",
"30 c #594325",
"31 c #59412D",
"34 c #6A4B2B",
"35 c #634933",
"36 c #68593C",
"37 c #744820",
"38 c #7B4D22",
"39 c #724930",
"3A c #7C5329",
"3B c #795B37",
"3C c #464646",
"3D c #4E4940",
"3E c #4D4D48",
"3F c #514D46",
"40 c #58534C",
"41 c #595753",
"42 c #675748",
"43 c #605958",
"44 c #68625C",
"45 c #76664B",
"46 c #766557",
"47 c #7B7548",
"48 c #6B6965",
"49 c #716D6A",
"4A c #73716C",
"4C c #797672",
"4D c #7B7A75",
"4E c #7C7B7B",
"4F c #901F05",
"50 c #802100",
"51 c #88270C",
"52 c #863502",
"53 c #8E351D",
"54 c #962D03",
"55 c #943701",
"56 c #A22201",
"57 c #8C4306",
"58 c #944C01",
"59 c #9D5604",
"5A c #8E5A27",
"5B c #815B33",
"5C c #9D4729",
"5D c #8C6337",
"5E c #867A24",
"5F c #976836",
"60 c #AE5F01",
"61 c #BF5B2F",
"62 c #AD6D18",
"63 c #B76C03",
"64 c #A16C37",
"65 c #AC7438",
"66 c #B47738",
"67 c #B6783A",
"68 c #88765D",
"69 c #997248",
"6A c #907251",
"6B c #917A5D",
"6C c #847561",
"6D c #80776D",
"6F c #8B7467",
"70 c #88776D",
"71 c #8C7C6E",
"72 c #867D74",
"73 c #807E79",
"74 c #8B7574",
"75 c #917C69",
"76 c #AC7C4A",
"77 c #BA714F",
"78 c #C23B0A",
"79 c #D33A00",
"7A c #DC5601",
"7B c #D35917",
"7C c #CA6601",
"7D c #C67406",
"7E c #E14601",
"7F c #E05F1A",
"80 c #F65802",
"81 c #F26A03",
"82 c #FE6604",
"84 c #FE7C01",
"85 c #998714",
"86 c #878268",
"87 c #8D836C",
"88 c #83807B",
"89 c #8C8275",
"8A c #8B837C",
"8B c #8E8A79",
"8C c #928E69",
"8D c #9D836B",
"8E c #978575",
"8F c #98927F",
"90 c #A78257",
"91 c #B58047",
"92 c #B88755",
"93 c #A08363",
"94 c #A48C6C",
"95 c #AB8469",
"97 c #AD8D6D",
"98 c #A1937B",
"99 c #BA8A63",
"9A c #B48E70",
"9B c #BB9367",
"9C c #B89A77",
"9D c #B0AA7A",
"9E c #CF8606",
"9F c #C29136",
"A0 c #D79938",
"A1 c #D2B43D",
"A2 c #E59004",
"A3 c #F38100",
"A4 c #EA8A35",
"A5 c #E4A80A",
"A6 c #FBA907",
"A7 c #FDB002",
"A8 c #FCB111",
"A9 c #EFBA33",
"AA c #C88A49",
"AB c #C58E57",
"AC c #CD9459",
"AD c #DA8649",
"AE c #D19458",
"AF c #CA9964",
"B0 c #C09D7A",
"B1 c #D19B67",
"B2 c #D3AE48",
"B3 c #D9B54A",
"B4 c #C2A960",
"B5 c #C7A37A",
"B6 c #CAB265",
"B7 c #D4A16E",
"B8 c #D6A674",
"B9 c #EE8F49",
"BA c #ECAB43",
"BB c #F9CE06",
"BC c #FED301",
"BD c #EED73E",
"BE c #FBE929",
"BF c #FBE637",
"C0 c #FEF82A",
"C1 c #FBF235",
"C2 c #D8C177",
"C3 c #EAD141",
"C4 c #EEDA58",
"C5 c #FCDB46",
"C6 c #FDDD5C",
"C7 c #EDDD79",
"C8 c #F9EB56",
"C9 c #ECE165",
"CB c #FEE772",
"CC c #888684",
"CD c #908C87",
"CE c #928E89",
"CF c #998D81",
"D0 c #94928D",
"D1 c #9B9183",
"D3 c #A59786",
"D4 c #A29D95",
"D5 c #AAA498",
"D6 c #BFA68E",
"D7 c #B8A795",
"D8 c #A9A8A3",
"D9 c #BFB7AB",
"DA c #B6B5B3",
"DB c #CAA781",
"DC c #C6AD92",
"DD c #CDB094",
"DE c #D9AE83",
"DF c #DCB187",
"E0 c #D8B998",
"E1 c #CAB9A4",
"E2 c #C4BEB5",
"E3 c #D1BBA5",
"E4 c #E0B58C",
"E5 c #E2B994",
"E6 c #D9D694",
"E7 c #C9C1B9",
"E8 c #DCC2A8",
"E9 c #D6C9B7",
"EA c #D9D7B2",
"EB c #E6C19E",
"EC c #EDD19E",
"ED c #E8C6A5",
"EE c #E5CDB6",
"EF c #ECD3B7",
"F0 c #E5E1A5",
"F1 c #F0E6A2",
"F2 c #C9C9C4",
"F3 c #D1CAC1",
"F4 c #D8D6C6",
"F5 c #D8D7D3",
"F6 c #E9D9C6",
"F7 c #E1DDD4",
"F8 c #F2DAC6",
"F9 c #E9E4D8",
"FA c #F7E7D5",
"FB c #EAE7E1",
"FC c #F7EEE3",
"FD c #FDF5E9",
"FE c #FCF9F2",
"   c None",
"                                                                                                ",
"                                                                                                ",
"                                                                                                ",
"                                                                                                ",
"                                                                                                ",
"                                                                                                ",
"                                                                                                ",
"                                                                                                ",
"                                                                                                ",
"                                                                          4C186F                ",
"                                                                    48050000000353              ",
"                                                                740B1342444115005695            ",
"                                                            D7515C8E        4E037999            ",
"                                                          777B9A              0C8094            ",
"                        FBDA              D0CDF4FEFEFCD17BB9D4      D0      885481D1F2F4F2F2    ",
"                      F5FDF3              180F3FFEFDF9629BCD      4AD7F9    2481591819F7FB88    ",
"                      E9FCFACD            3E070FEAFCFC984C        11F4FCD4CC55A3260F11F7E24E    ",
"                      F6FAFAD4              410686FAFAD4        4D17F6FAE21C84A0100F19F6D4      ",
"                    E7F8F6F8EE                0617F6F8E9        1745FAFA467CA68A170F2DF6CD      ",
"                    E8E898F8F8CD            A12C06DCF8F8CE      0F98EAD752A7B64C110636F64E      ",
"                    EED335EFEFD7          B3E6490645EFEFD5    D806E36820A6BF724E100645EE4E      ",
"                  E1EE6C24E0EEEBCD      B2EA  CC0614E8EFE3    4413EE26A2C1ECD48806066BE188      ",
"                  E5DC463E6BEDEDD1    B2F0      3D069CEDEBCE  1735467DC8C2EDE84D060694D6        ",
"                E7ED9348492DEDEBD6  9FC9        CD0436EDEBD3D0071460CB4736EDEB6C0406B0D4        ",
"                DCE44549  3DB0E5E567A9D4          0908E0E5DD480459CB8C0209DBE5B00608DB8E        ",
"                DF9A4548CD6C6AE4DFAC8F            3F0490DFE53D58C6F41902033BE4E42608DB8A        ",
"              DCDFDEDFDFDFDFDEDEDEB84A            D00330DF9358C5F14C44020109B5DE9910DE4E        ",
"              B5B73B343439343499B8DE70              07083B59C5C7DB4C  2E01013BDEB85BDB4E        ",
"            D9B790272E2E27160D3BB7B797              400359BEC4AF8E      01010DB1B7B1B0CC        ",
"            9CB15B444CCC  495413B1B1AFCC            4363C1BDAEB16D      1601015DB1B197          ",
"            AFAB344C      2B612476ACAC75          709EC18591AEAF4C      D0010112ABAE8E          ",
"          DCAE5F42        1A8D4137AEAE92        39A5C05E013AAE994E        1501035FAA8E          ",
"          92AA3744      4921CDCC13AAAAAA6C  CC57BBBE9D410112AA8D          4D00011BAA73          ",
"        DCAAAA1C4C      0225    3F64AAAA5D1E7CBCC38B4E  07036572            0500015F4E          ",
"    6B69666767383AD0    0015    355A3A1D52A3A8B44D      4307464C            4C162E48            ",
"    7128261C1F26318A    00003C4E1501297A84BA874C                                                ",
"                        0303030A507E82A4944C                                                    ",
"                        D12A4F787FAD8D4C4E                                                      ",
"                            CF89734E                                                            ",
"                                                                                                ",
"                                                                                                ",
"                                                                                                ",
"                                                                                                ",
"                                                                                                ",
"                                                                                                ",
"                                                                                                ",
"                                                                                                ",
"                                                                                                "};
