/* XPM */
static char * DarkMessiahOfMightAndMagic_xpm[] = {
"48 48 65 1",
" 	c None",
".	c #FCFEFC",
"+	c #FCFAFC",
"@	c #F4F6F4",
"#	c #CCCACC",
"$	c #949694",
"%	c #646664",
"&	c #444644",
"*	c #444244",
"=	c #4C4E4C",
"-	c #646264",
";	c #9C9A9C",
">	c #C4C6C4",
",	c #B4B2B4",
"'	c #1C1A1C",
")	c #040604",
"!	c #040204",
"~	c #3C3E3C",
"{	c #E4E2E4",
"]	c #DCDEDC",
"^	c #9C9E9C",
"/	c #343634",
"(	c #141214",
"_	c #141614",
":	c #F4F2F4",
"<	c #A4A2A4",
"[	c #545654",
"}	c #343234",
"|	c #6C6E6C",
"1	c #747674",
"2	c #7C7E7C",
"3	c #8C8A8C",
"4	c #3C3A3C",
"5	c #0C0A0C",
"6	c #2C2A2C",
"7	c #E4E6E4",
"8	c #ECEAEC",
"9	c #5C5A5C",
"0	c #242624",
"a	c #ACAAAC",
"b	c #ACAEAC",
"c	c #7C7A7C",
"d	c #B4B6B4",
"e	c #ECEEEC",
"f	c #CCCECC",
"g	c #0C0E0C",
"h	c #848684",
"i	c #1C1E1C",
"j	c #A4A6A4",
"k	c #545254",
"l	c #8C8E8C",
"m	c #C4C2C4",
"n	c #D4D2D4",
"o	c #DCDADC",
"p	c #747274",
"q	c #242224",
"r	c #4C4A4C",
"s	c #5C5E5C",
"t	c #6C6A6C",
"u	c #2C2E2C",
"v	c #BCBABC",
"w	c #BCBEBC",
"x	c #D4D6D4",
"y	c #848284",
"z	c #949294",
"................................................",
"................................................",
"................................................",
"................................................",
"................................................",
"................................................",
"................................................",
"................................................",
".+......................+.......................",
".........+............++..@.+...................",
"..............................+.................",
"................@#$%&*=-;>......................",
"...........+.@,%')!!!!!!!)~{....................",
"..+++......]^/)!!!)(__)!!)^:.+..................",
".+.....+]<=!!!)!!!))!!!!!(_[}|{.................",
"12^,<3-45!!!5!!!!!)!!!!)!!)6[$7.................",
"89)!!!!!!)_4(!!))!)))!!5)!!0^ab]....+.+.........",
".@#|///4cde.f))!!(g(!!!!!!)!5!!g;..+.+..........",
"+..+..@......<h&(_0*-=/i5!!!!!!5j....+..........",
".++...+.....@...f0!!_klmj2=40_5!5~j.............",
"+...+...++...+...b5!!)!&..+..n1(!!!*o..@........",
"......+...+......d!))!!![c29}}-pi5!!i#..........",
"+...........+...+&!!!!!!!!5!!!)5q!!)!5d.........",
".......+.......#&)!!((!!!!()q(!(_!)!!&<@........",
"........+...@bk!!!!)!5!!!5!!$r!|-!)!!p....+.++.+",
".........ejki5!!!!!!5!)}sa!!lh!t2)-i!)$..#.+..+.",
".........ef2(!))!!!)!!/8..s!&#)u])p|!!!/&!v.++..",
"........+..+o}!!gu0!!!!9@.{[)abg>,i<g_!!!)iw.+..",
"..........@..x9v8.o(!!!!u;&lv=m#3.dl$&y!_!)!d.+.",
"...........@....+.8[ug)!!!!gz+e:8..+.7#y&$g~',+.",
"...............+.....+#a%0!!!t@j/+.....+<:vm,a#.",
"..........................;!!!/k!c3+.+.....@..@+",
"..........................:g!!!!i'g>z+<nm.>{>zl.",
"...........................,;%4!5!!i!t5u}-uri|m.",
"..........................@....{^0!!!!!!!)!!68..",
"............................+....@*!5!!!g&93]..@",
"..............................+...p5!!)ix+.+....",
".............................+.++nig}/!n..:.....",
"........................+..+.+.+.],f7m<+@...+..+",
"..............................@....+.+...@....+.",
"................................................",
"................................................",
"................................................",
"................................................",
"................................................",
"................................................",
"................................................",
"................................................"};
