/* XPM */
/* C:\Program Files\Native Instruments\Traktor DJ Studio 3\TraktorDJStudio3.exe */
static char *icon[] = {
"48 48 52 2",
"00 c #FFFFFF",
"01 c #FFFFCC",
"02 c #FFFF99",
"03 c #FFFF66",
"04 c #FFFF33",
"08 c #FFCC99",
"09 c #FFCC66",
"0A c #FFCC33",
"15 c #FF6666",
"16 c #FF6633",
"1B c #FF3366",
"1C c #FF3333",
"25 c #CCFFCC",
"2C c #CCCC99",
"2D c #CCCC66",
"2E c #CCCC33",
"33 c #CC9966",
"34 c #CC9933",
"35 c #CC9900",
"39 c #CC6666",
"3A c #CC6633",
"3F c #CC3366",
"40 c #CC3333",
"41 c #CC3300",
"46 c #CC0033",
"47 c #CC0000",
"51 c #99CC66",
"57 c #999966",
"58 c #999933",
"5D c #996666",
"5E c #996633",
"63 c #993366",
"64 c #993333",
"6A c #990033",
"7C c #669933",
"81 c #666666",
"82 c #666633",
"87 c #663366",
"88 c #663333",
"89 c #663300",
"AC c #333333",
"AD c #333300",
"B3 c #330000",
"D8 c #DD0000",
"DD c #550000",
"DF c #220000",
"F5 c #EEEEEE",
"FA c #777777",
"FB c #555555",
"FC c #444444",
"FD c #222222",
"   c None",
"FA5D575DFA5D575DFA5D575DFA5DFA5DFA5DFA5DFA5DFAFA5DFAFA5DFA5DFA815D815D8181818181818281FBFB82FBAC",
"8181818181818181818181818181828181818281FB818281FB82FBFBFBFB88FBFB82FC82FC88FB88FCFC88FC88FCFCAC",
"FA5DFA5DFA5DFAFA5DFAFA5DFA5DFAFAFAFAFA5DFAFAFAFAFAFAFA5DFAFAFA815D81818181818281828182FB82FB82AC",
"81818182818182818181828181FB81828182815D5E633A3F3A3F5E5D8288FBFC82FB888288FCFB88FC8888FCFC88ACAC",
"5DFAFAFA5DFAFA5DFA5DFAFA5DFA5DFA5D3940391C391C3F163F1C3F1C393A5DFB818181818182FB82FBFBFB8882FBAC",
"818182FA828181828181FB8281FB5D403F40151C3F1C3F163F1C391C391C3F1C3964FB88FC88FCFBFCFC88FCFC88ACAC",
"FA5D815DFAFA5D81FA5DFA5DFA391C391C15403F163F16403F163F16401B391C3F4039828182FB82FB82FB82FCFB82FD",
"81818181828181818281815D40163F1C3F40163F1C391C3F163F1C3F401540163F163F1C63FC88FC88FC88AC88AC88FD",
"815D81FA5DFA5D815D8139401C1B3A163F163F1640635E645D645E3F3A3F161B3A1B4015403987FBFBFB82FBFC82FCAC",
"8181818281828181813A3F163F3A1B401B4088FBFCFCFCFCFCFC88FC8864643F401C163F16403AFC88AC88AC88AC88FD",
"FA5D815D815D815D5D1C401B401B4040FBFBFBFBFBFBFB8181FB8181FBFBFB5E4039401B403F1B3AFBFB82FCFB82FCAD",
"8182818181FB815E1B403940163F5EFCFCFC8882582E090A2D0A2D5E82FCFCFCFC643F163F161C4040FCAC88ACAC88AC",
"815D815D815D5D401C40151C3F64FBFBFB582D030902020202010202022E5DFBFBFB5E40401B40394063FB82FC88FCAD",
"8181818281FB161B3A1B404082FCFCFB34030902010101000101010101010234FCFCFC88391C391C164088ACFC88ACFD",
"815D81818139403F401B3A63FCFB822E030201010001000100010001010001010982FB8264403F1C3F403A88FCAC82FD",
"818281FB5D401C40164040FCFCFB0A0302010000010001000100010001010001010288ACFC641640391C3F82AC88ACFD",
"815D81813A403F1C3F40FBFCFB823302010001000100010001010001000101010033FBFBFB88403F1C401C64FBFC88AD",
"8181825D401540164063FCFCFBFBFB330101F50001000100010001010001000157FCAC88ACFC64163F163F4088ACACFD",
"8181816340401C3F4082FB825881818257010100000100010001000101010157FCFCFB58FBFB8840404016408888FCFD",
"8182FB5D82648188FBFCFC34033382FCFB5D02F5010001F501F50100010157ACFCFC350458ACAC888888888888ACADAC",
"815D817C81818282FB82810A02022C5D81825702000133FA5D5102F501FAFCFC823403080882FB82FCFBFCFC82FCFCFD",
"FB825D0A090A2D0A092D0A030201012DFBFCFC5D2DFBACFCFC88FB0981ACACFC2E0402010102092E0A0A2E0A2E34ACFD",
"815D580903020202020202010101F50103818281FBFBFBFBFB82FBFB88FB820A0302010101010202020203020333ACAD",
"FBFB5803020201010102010101010101010882FCFCFC88FCFCFCFCFCFC820A09020100010001010202020202022CACFD",
"81815809020201020101010101010101010102FBFB82818182818281822E03020101010101010101020102020233ACFD",
"82FB5E0303020102010102010101010101015DFC88FC88AC88FC88AC88580301F501F5010101010201020202022DACAD",
"818158030202020125020101010101010281FCFBFB8181818181FB81FBFB5D02010101010101010102020102022CACFD",
"FB885E2D090308030802020101010108FBACFC825888FCFCFC88823482AC8882080101010102080209022D08035788FD",
"8181818281FBFBFBFBFB8208020108FBFCFB820A042D5E8281582E0903FA82FB8203010102FBFCACFCACFC88ACFCADFD",
"82FB8887888888FC88FCFC2D022DFCFCFC820A0302020209030A0302020882ACAC882D012DACAC888988AC8988FDACFD",
"FB81815E4040644064FBFB5E2DFCFB88580A030202010202020201010101025D82FC882D8188AC64646440648888ACAD",
"FB828888404040404688FC88FCFCFC580403030201020101010201010101010257ACACACADAC88404040464088FDACB3",
"81FB818140401C404040FBFBFB8234040902020102010201020101010101010102338288FCFB6440401C4040AC88ACAD",
"FB88FB88884040401C4064FCFC880403030202020102020102010101020101020102FCACAC89464040404089ACADFDFD",
"82FB81828140404040D84088FB828209020202020202010202010201010101010282FC888840404040404088ACAC88FD",
"FBFB88FBFC88401C4040404088AC88822D020202020202020102010201010108FCACFDAC6440401C464088FDACFDADFD",
"FBFB82FB82FB6440401C40404082FBFBFB5809020202020202020102010257FBFCFC886440404040416488AC88AC88FD",
"FB88FB88FB88FC64404046401C468888AC88AC5E330902020202082D5DACADACAC8964404047404040ADACADFDADACDF",
"FB82FBFBFB82FB88404041404040406482FB82FBFB82FCFBFCFC82FCFCFCFC88886446404040404688ACFCAC88AC88FD",
"FB88FC88FC88FCFC8840404640464040466488ACACACFCAC88ACACACACAC89644040404046404088ADFDACADACADACFD",
"FBFB82FB82FBFB82FBFB4041401C40414040464064648888818888646440404640404641404088ACFCFC88AC88AC89FD",
"88FC88FCFC88FC88AC88AC6440404640D8404040404040404740404047404040D840404064DDACADFDFDADFDACFDACFD",
"FB82FBFB82FBFB82FBFB82FC88404140404040D8404640404640D8404040464040414064ACFC88FC88FC8888AC88ADFD",
"FCFC88FC88FC88AC88AC88AC88AC644040474040414040404140404040464140406A88FDADACFDFDADFDADACFDADACFD",
"FB82FC8882FB82FBFB82FBFB82FCFB88646440404640D840464040474040408888FCACFCFCFC88FC88FC88AC88AC88FD",
"88FCFCFCFCAC88ACFC88ACFC88ACFCAC88AC898864416440404164648889ACADACADACADFDADACADACADACADADACACB3",
"FB888288FB8882FB8882FB8882FB8882FBFBFB88FBFCFB88FCFC88FC88FCFC88FC88FC88FC88FC88AC88AC88AC88ADFD",
"ACACACACACACACFDACACFDACFDACFDFDFDFDFDFDFDFDFDFDFDFDFDFDFDFDFDFDFDFDFDFDFDFDFDFDFDFDFDFDFDFDFDFD"};
