/* XPM */
static char * Etherlords2_xpm[] = {
"32 32 238 2",
"  	c None",
". 	c #121212",
"+ 	c #C6CCCE",
"@ 	c #C6C8CA",
"# 	c #FFFFFF",
"$ 	c #CBD4DC",
"% 	c #FBFFFF",
"& 	c #EBF8FF",
"* 	c #DFECFF",
"= 	c #CBD7FD",
"- 	c #C3D3E6",
"; 	c #A4B4C5",
"> 	c #D7E7F6",
", 	c #DCEFFD",
"' 	c #D8E7FD",
") 	c #D4DFF7",
"! 	c #A3A9BB",
"~ 	c #CCE0EF",
"{ 	c #BDCAD9",
"] 	c #B0BDCF",
"^ 	c #D9EEFC",
"/ 	c #CCD8EA",
"( 	c #F5F9FF",
"_ 	c #E9EFFB",
": 	c #E4EFFF",
"< 	c #B7BFD4",
"[ 	c #8E9DA8",
"} 	c #8496A5",
"| 	c #6D7C82",
"1 	c #4C5963",
"2 	c #B7C1CD",
"3 	c #B1C0C6",
"4 	c #C8CFD8",
"5 	c #E4E8EA",
"6 	c #FCFF85",
"7 	c #FFFF29",
"8 	c #959BAD",
"9 	c #42515B",
"0 	c #6A6F76",
"a 	c #585956",
"b 	c #6C4843",
"c 	c #211E1B",
"d 	c #B1C2CC",
"e 	c #A5B2BF",
"f 	c #AEB6B5",
"g 	c #C1C7C9",
"h 	c #D6D8AA",
"i 	c #EEFA12",
"j 	c #F4DE12",
"k 	c #FFFF53",
"l 	c #ACB8CE",
"m 	c #8F97AC",
"n 	c #3E251A",
"o 	c #1B191D",
"p 	c #2A2F32",
"q 	c #4B4049",
"r 	c #7C8880",
"s 	c #DBEDF8",
"t 	c #B6C8CF",
"u 	c #93A7B3",
"v 	c #B8BCBF",
"w 	c #9BAAAB",
"x 	c #B9C9F7",
"y 	c #B3C0E9",
"z 	c #C9C943",
"A 	c #E3E812",
"B 	c #BFBE29",
"C 	c #D1D73F",
"D 	c #828A24",
"E 	c #8892A0",
"F 	c #938D80",
"G 	c #5C5465",
"H 	c #798A96",
"I 	c #BED5E2",
"J 	c #899CAA",
"K 	c #A1ADA0",
"L 	c #B9CBEB",
"M 	c #ACB464",
"N 	c #CCD228",
"O 	c #FDFF5A",
"P 	c #E2E54F",
"Q 	c #C2C833",
"R 	c #B5BC38",
"S 	c #798335",
"T 	c #454B3B",
"U 	c #6D8099",
"V 	c #9EAFB5",
"W 	c #93A2A5",
"X 	c #91997D",
"Y 	c #C1C447",
"Z 	c #9DA829",
"` 	c #1C252B",
" .	c #99ABBA",
"..	c #A8AA29",
"+.	c #A6A938",
"@.	c #1B142C",
"#.	c #87735E",
"$.	c #BB9876",
"%.	c #C49568",
"&.	c #3E474C",
"*.	c #9EB0C2",
"=.	c #A9BBC7",
"-.	c #9C9E19",
";.	c #AFB237",
">.	c #909324",
",.	c #BDBE41",
"'.	c #98A033",
").	c #735F43",
"!.	c #F2BE84",
"~.	c #FFDE99",
"{.	c #A17E5A",
"].	c #A7B9CA",
"^.	c #303019",
"/.	c #5A626F",
"(.	c #AEA793",
"_.	c #C39D7D",
":.	c #334249",
"<.	c #9EACBD",
"[.	c #9AA9B7",
"}.	c #A9A91F",
"|.	c #30332A",
"1.	c #F5F8E6",
"2.	c #EEF9E4",
"3.	c #AC9879",
"4.	c #7B5D38",
"5.	c #FFFFED",
"6.	c #C0DFD7",
"7.	c #899BA7",
"8.	c #A2A73D",
"9.	c #3B3B3A",
"0.	c #494033",
"a.	c #8F846B",
"b.	c #B9BDAA",
"c.	c #BFC8A9",
"d.	c #E1E4BF",
"e.	c #495956",
"f.	c #2C1C1A",
"g.	c #99A6B1",
"h.	c #DBE6F6",
"i.	c #ABB6C2",
"j.	c #15171B",
"k.	c #22251F",
"l.	c #151815",
"m.	c #141614",
"n.	c #776352",
"o.	c #A9BDCE",
"p.	c #8699AA",
"q.	c #A6BBE6",
"r.	c #121216",
"s.	c #4A3B2A",
"t.	c #56493B",
"u.	c #272724",
"v.	c #171A18",
"w.	c #2A291E",
"x.	c #4C4E4A",
"y.	c #95A8BC",
"z.	c #839EDA",
"A.	c #5E6525",
"B.	c #D5AB6E",
"C.	c #A4906C",
"D.	c #C7B989",
"E.	c #876B4C",
"F.	c #FFFFDD",
"G.	c #4D6873",
"H.	c #3F5666",
"I.	c #4A616F",
"J.	c #4C688D",
"K.	c #374719",
"L.	c #5E6817",
"M.	c #393A27",
"N.	c #866148",
"O.	c #FFE6CB",
"P.	c #E5BEA8",
"Q.	c #FFFFD9",
"R.	c #353817",
"S.	c #545E14",
"T.	c #2B2C28",
"U.	c #927E4A",
"V.	c #7E522E",
"W.	c #6C5F48",
"X.	c #C4A287",
"Y.	c #475C7A",
"Z.	c #3F4529",
"`.	c #8C993A",
" +	c #696654",
".+	c #495533",
"++	c #676F29",
"@+	c #D3DDC9",
"#+	c #E0E9D4",
"$+	c #A6A890",
"%+	c #141212",
"&+	c #1E1814",
"*+	c #6B7828",
"=+	c #59665A",
"-+	c #9FAE7F",
";+	c #80815A",
">+	c #85856C",
",+	c #FFFDD0",
"'+	c #636416",
")+	c #121224",
"!+	c #1A1212",
"~+	c #F9FFDD",
"{+	c #4E3A12",
"]+	c #786A6F",
"^+	c #FCFFEA",
"/+	c #CDC0AF",
"(+	c #934855",
"_+	c #894A62",
":+	c #2E393C",
"<+	c #4B6360",
"[+	c #545A2B",
"}+	c #636F38",
"|+	c #121215",
"1+	c #807F6B",
"2+	c #787558",
"3+	c #736B4F",
"4+	c #7A6B41",
"5+	c #C1C8B4",
"6+	c #AC6C55",
"7+	c #F2F8CB",
"8+	c #D1D1B4",
"9+	c #1A1E20",
"0+	c #374C67",
"a+	c #5E6B36",
"b+	c #6A5C3C",
"c+	c #636770",
"d+	c #474A28",
"e+	c #26262C",
"f+	c #A2A67E",
"g+	c #B9A978",
"h+	c #D0CCA3",
"i+	c #44491C",
"j+	c #AFB389",
"k+	c #5A5A3F",
"l+	c #242C2D",
"m+	c #1C1F16",
"n+	c #CBCDBE",
"o+	c #FCFFF4",
"              . . . . . . .                                     ",
"        . . . . + @ # # # . . . .                               ",
"      . . $ # % # % % % & % # # . . . . .                       ",
"    . . * = - ; > , ' ) = & # # # # # # . . .                   ",
"  . . ! ~ { ] ; ^ ~ - { / ( _ ( _ : # # # # . . .               ",
". . < [ ; } | 1 , > 2 3 4 5 4 $ $ $ * & # 6 7 7 . . .           ",
". & 8 9 0 a b c $ : d e + $ f g 4 = = h i j 7 k k k . . .       ",
". l m n o o p q r s t u 3 v w { x y z A B C k k k k C D . .     ",
". E F .     . G H ~ I J w f K L y M N z B O P Q R S . . T . .   ",
". . . .     . U 0 3 > V W f < y X B Y Z P P B S ` . . . . 0 .   ",
"            . | r  ./ t V d y X ..R +.Z C Q S @.#.$.%.o . &..   ",
"          . . E W *.=.3 l L | -.;.+.>.,.z '.. ).!.~.~.{.. &..   ",
"        . . E *.; ] w ].= r -.;.+.'.+.Q -.^./.(.{._.!.%.. :..   ",
"      . . <.; ; [.[.<.- W >.}.;.'.+.Q Z |.G 1.# 2.3.4.5.6.n .   ",
"    . . l  .[ } 7.V ) r D -.}.'.8.R 8.|.. 9.0.a.b.c.3.d.e.f.    ",
"  . . { g.J H } V h.i.D -.}.+.8.R '.j.. . k.l.l.m.f.n.. m.      ",
". . o.p.p.H u ] = q.>.-.}.;.;.C D . r.s.n.t.u.v.w.s._.x.v.      ",
". u H y.E d ~ x z.D ....,.,.C A.. . B.{.C.D.E.s.n.s.{.F.. .     ",
". G.H.I.U H U J.K.>.;.Y Y C L.. . M.B.!.B.4.N.O.5.t.#.P.Q.. .   ",
". G.H.:.H.I.J.R.S.Y P z P S.T.x.. . 4.U.s.. V.!.F.3.W.X.5.# . . ",
". 9 9 9 G.I.Y.Z.S.`.>.;.O v.r K  +s.t.t.. n N.E._.P.{.{.P.# P.. ",
". 9.I.I.I.I.Y..+S.++++'.C l.r K @+#+b.$+ +%+&+. . f.3._._.# O.. ",
". / <.I.I.I.Y.e.L.*+*+>.'.. . =+r c.-+;+X b.>+T w.. . b E.,+O.. ",
". : & ; &.&.Y.a '+++*+D S )+. x.0 r R.!+~+@+. . !+. . X n %.P.. ",
". ].{ I 3 &.H.=+A.++++*+S )+j.|.a x.{+C.# o . ]+F b b ^+/+(+_+. ",
". ] :+<+H 9 :.1 [+A.A.*+}+|+T.1+2+3+4+d.5+. $.O.P.6+_.7+8+9+. . ",
". # ! . G.H 9 0+.+[+[+*+a+. x.7+$+3+>+5.x.^.U.b+3+W.U.d.c .     ",
". ( # c+9+e.9 :+T d+d+A..+e+f+d.X a.1.^+x.4+g+h+#+@+h+9..       ",
". 4 _ ' u.:.:+. p Z.d+i+M.a h+h W.F # @+>+g+D.h ^+# 7+f.        ",
". 2 3 , H . 9 k.o M.Z.^.w.T j+5.W.k+2.@+f+h+D.g+h+Q.Q.j.        ",
". $ e g./ &.l+:+9+T.|.m+|.k+2+7+a.d+n+o+c.8+8+d.2.o+. 9+        ",
". . . . . . . . . . k.k.. . . . . . . . . . . . . . .           "};
