/* XPM */
/* c:\windows\profiles\tinou\Application Data\Microsoft\Installer\{9011040C-6000-11D3-8CFE-0150048383C9}\xlicons.exe */
static char *icon[] = {
"48 48 256 2",
"01 c #FBFCFC",
"02 c #F9FBFA",
"03 c #F9FCFA",
"04 c #F7FAF8",
"05 c #F6F9F7",
"06 c #207239",
"07 c #F5F9F6",
"08 c #1A6E2D",
"09 c #318A41",
"0A c #F1F7F2",
"0B c #EFF5F0",
"0C c #136820",
"0D c #EBF4EC",
"0E c #E9F2EA",
"0F c #EBF3EC",
"10 c #E5F0E6",
"11 c #DAE9DB",
"12 c #D9E8DA",
"13 c #DEECDF",
"14 c #DBE9DC",
"15 c #E1EEE2",
"16 c #E4F0E5",
"17 c #E3EFE4",
"18 c #E1EDE2",
"19 c #045F08",
"1A c #D5E7D6",
"1B c #4E934E",
"1C c #9CC49C",
"1D c #D3E6D3",
"1E c #D1E4D1",
"1F c #869286",
"20 c #D3E5D3",
"21 c #D1E3D1",
"22 c #D7E8D7",
"23 c #D5E6D5",
"24 c #D7E7D7",
"25 c #D6E6D6",
"26 c #D5E5D5",
"27 c #DBEADB",
"28 c #D9E8D9",
"29 c #D8E7D8",
"2A c #DDEBDD",
"2B c #DCEADC",
"2C c #DEEBDE",
"2D c #E1EEE1",
"2E c #E0ECE0",
"2F c #E1EDE1",
"30 c #E4EFE4",
"31 c #E3EEE3",
"32 c #E2EDE2",
"33 c #DBE5DB",
"34 c #E7F1E7",
"35 c #E4EEE4",
"36 c #EBF4EB",
"37 c #E9F2E9",
"38 c #E8F1E8",
"39 c #ECF4EC",
"3A c #EFF6EF",
"3B c #F1F7F1",
"3C c #F0F6F0",
"3D c #EFF5EF",
"3E c #EEF4EE",
"3F c #F5FAF5",
"40 c #F3F8F3",
"41 c #F2F7F2",
"42 c #F5F9F5",
"43 c #F4F8F4",
"44 c #F9FCF9",
"45 c #F8FBF8",
"46 c #F7FAF7",
"47 c #FAFCFA",
"48 c #FDFEFD",
"49 c #FCFDFC",
"4A c #286726",
"4B c #225921",
"4C c #4A8948",
"4D c #599B57",
"4E c #1E5D1B",
"4F c #2F6D2D",
"50 c #40883D",
"51 c #367233",
"52 c #55A251",
"53 c #5AA757",
"54 c #5FAA5C",
"55 c #62AC5F",
"56 c #66AF62",
"57 c #6AB266",
"58 c #B6D1B5",
"59 c #35862F",
"5A c #3B7A37",
"5B c #63A45E",
"5C c #649F60",
"5D c #63945F",
"5E c #598356",
"5F c #D4E5D3",
"60 c #DAE9D9",
"61 c #DEEBDD",
"62 c #E0ECDF",
"63 c #E2EEE1",
"64 c #185F10",
"65 c #539E4B",
"66 c #6EB368",
"67 c #70B56A",
"68 c #72B76C",
"69 c #6CAC66",
"6A c #4F7E4B",
"6B c #77BA70",
"6C c #76B46F",
"6D c #69A264",
"6E c #5E8C5A",
"6F c #99D093",
"70 c #E2EDE1",
"71 c #E6F0E5",
"72 c #E8F1E7",
"73 c #E7F0E6",
"74 c #165A0E",
"75 c #20481B",
"76 c #4E9945",
"77 c #7BBC72",
"78 c #72AD6A",
"79 c #7FB877",
"7A c #ECF4EB",
"7B c #EBF3EA",
"7C c #EAF2E9",
"7D c #5EA353",
"7E c #75B66A",
"7F c #77B36E",
"80 c #80BF77",
"81 c #84C27A",
"82 c #89C57F",
"83 c #90CE87",
"84 c #ECF3EB",
"85 c #8EC784",
"86 c #F2F7F1",
"87 c #3A7B2C",
"88 c #448435",
"89 c #4D923D",
"8A c #6DB05F",
"8B c #7AB86C",
"8C c #96C98A",
"8D c #AED4A5",
"8E c #C1DFBA",
"8F c #498F37",
"90 c #74B363",
"91 c #9FCB93",
"92 c #A6D09B",
"93 c #B7D9AE",
"94 c #CBE5C4",
"95 c #D3E9CD",
"96 c #F6FAF5",
"97 c #F4F8F3",
"98 c #468B32",
"99 c #4B8C38",
"9A c #83BC73",
"9B c #88C177",
"9C c #A3BF9B",
"9D c #B2C7AC",
"9E c #45882D",
"9F c #223E19",
"A0 c #5C9947",
"A1 c #6AAB53",
"A2 c #6EAD58",
"A3 c #659E52",
"A4 c #72B05D",
"A5 c #69A056",
"A6 c #6DA25B",
"A7 c #71A45F",
"A8 c #7EB66A",
"A9 c #82B970",
"AA c #7AA96A",
"AB c #89BD77",
"AC c #8CBF7B",
"AD c #91C381",
"AE c #82AC73",
"AF c #87B079",
"B0 c #8CB37F",
"B1 c #90B584",
"B2 c #96B78B",
"B3 c #9CBB91",
"B4 c #ABC3A3",
"B5 c #F6F9F5",
"B6 c #438429",
"B7 c #54963A",
"B8 c #5A9D3F",
"B9 c #5DA243",
"BA c #629C4D",
"BB c #7AB465",
"BC c #76A664",
"BD c #7FA96F",
"BE c #35741A",
"BF c #3B7B1F",
"C0 c #408025",
"C1 c #529535",
"C2 c #579A3B",
"C3 c #79A168",
"C4 c #7DA56B",
"C5 c #27620A",
"C6 c #2C6910",
"C7 c #316E15",
"C8 c #478727",
"C9 c #4A8C2C",
"CA c #4F9130",
"CB c #779E64",
"CC c #215B03",
"CD c #3B7A18",
"CE c #41801F",
"CF c #62A33F",
"D0 c #749A60",
"D1 c #8FAA80",
"D2 c #33710E",
"D3 c #367411",
"D4 c #387714",
"D5 c #69AA43",
"D6 c #233817",
"D7 c #698D53",
"D8 c #6F945A",
"D9 c #8BA57B",
"DA c #8DA77E",
"DB c #90AA81",
"DC c #316E0B",
"DD c #869F75",
"DE c #89A278",
"DF c #233616",
"E0 c #64864C",
"E1 c #839C71",
"E2 c #5A7B40",
"E3 c #5F8045",
"E4 c #81996E",
"E5 c #7E966A",
"E6 c #7F976B",
"E7 c #354A1E",
"E8 c #FCFDFB",
"E9 c #FAFBF9",
"EA c #2D3F18",
"EB c #394F20",
"EC c #31441C",
"ED c #667651",
"EE c #293815",
"EF c #273514",
"F0 c #2B3A16",
"F1 c #63724E",
"F2 c #606E4C",
"F3 c #273413",
"F4 c #253112",
"F5 c #1F290D",
"F6 c #232D10",
"F7 c #5E694A",
"F8 c #1C240B",
"F9 c #5B6547",
"FA c #596245",
"FB c #171D07",
"FC c #565D42",
"FD c #FEFEFD",
"FE c #FFFFFF",
"FF c #FEFEFE",
"   c None",
"                                                                                                ",
"                                                                                                ",
"                                                                                                ",
"                                                                                                ",
"        AEAEBDBDBDC4C4C4C3C3C3CBCBD0D0D0D8D8D8D8D7D7D7D7D7E0E0E0E0E0E3E3E3E3E3E2E2E2E2E2        ",
"        AE95959595949494948E8E8E9393938D8D929291918C8CADADACAB9AA9A8BBBB90A4A4A2A2A1A1EB        ",
"        AE959D9D9D9D9DB4B4B49C9C9CB3B3B2B2B1B1B0AFAFAEBDAAAABCA7A7A6A5A3A3BABAA0A0A0B9EB        ",
"        AE959DDBD1D1D1DADADADAD9D9D9DEDEDEDEDEDDDDDDE1E1E1E1E1E4E4E4E6E6E6E5E5E5E59EB9EB        ",
"        AE959DDBFEFEFEFEFF484849490147470344454696B542974041863C3A3D3E39847B7C38ED9EB9EB        ",
"        BD949DD1FEFEFEFF48484849490147034545464642424340413B3C0B3D3E39367B7C3834ED9EB9EB        ",
"        BD949DD1FEFEFFFD484849E84747E90245460505439740413B3C3A3D3939840F7C383434EDB6B9E7        ",
"        BD949DD1FEFFFD484849E847470245454605B5424040413B3C3A3D3E390D0F0E37383410EDB6B8E7        ",
"        C494B4D1FEFF484949494747440245460596434040413B3C3A3D3E390F7B373738737130EDB6B8E7        ",
"        C48EB4DA486867666669696D6D5C5C333F424040413B335D5D5D5D6E6E6E6E5E5E103030EDC0B8E7        ",
"        C48EB4DA486894928C8C8C8C8385796D334341413B335D79ADAD9B9A8B7E5B5E19163031EDC0C2EC        ",
"        C38E9CDA491C68946F858585828281696D33413B335D6C9B9B9A8B908A7D5E191C353118F1C0C2EC        ",
"        C3939CDA49E81C678E6F858282818080785D33735D6C9B9B9A8B908A7D5E191C1731182FF1C0B7EC        ",
"        CB939CD9E847471C668E6F82818180776B6D5D5C6C9B9B9A8B908A7D5E191C1731702F62F1BFC1EC        ",
"        CB93B3D9014702451C578E6F8180776B6B685C6E7D9A9A8B908A7D5E0C1C3515152E2E13F1BFC1EA        ",
"        D08DB3D947444545041C568E6F80776B6866575B5E7D6C908A7D5E0C1C1731152F2E132CF2BFCAEA        ",
"        D08DB2DE0245454605B51C55936F6B68676657565B5E7D8A7D5E081C3131152F2E13612AF2BFCAEA        ",
"        D092B2DE450446960742401C54936F6766575656554D6A7D5E061C1731322F2E13132A2BF2BEC9F0        ",
"        D892B1DE45469642429740411C538D8C5756565554531B6A061C3131702F62132C2A2A27F2BEC9EE        ",
"        D891B0DD4646424243404186114C528D855655555453524C4F5831182E2E13132A2A2711F7BEC9EE        ",
"        D891B0DD9607434040413B111B7F4C6592825554535352654C518899B7B8CFD5D5D51128F7BEC8EF        ",
"        D88CAFDD42429740413B111B6B5B4D5076928054535252657650645A888F89B7874A2828F7C7C8F3        ",
"        D78CAEDD434340410A111B7966697D4D5A76917753526565768959645A888F4A4B582824F7C7C8F4        ",
"        D7ADAEE19740413B111B817E665654521B5A8F6F6852657676898987645A4A7558282924F9C6CEF4        ",
"        D7ADBDE140410A111B828B7E66565453521B51508C57657676898F8F8774755828292424F9C6CEF6        ",
"        D7ACAAE1413B111B83776B7E5755545353524C4F508C567689898F98988774582422241AF9C6CEF6        ",
"        D7ABBCE13B111B838080806B675755555555531B4A598554898F8F98989887641C242526FAC6CDF5        ",
"        E09ABCE43C4D5A5A5A5151514F4F4A4A4A4E4E4E4E4B5985538F8F9898989887741C2323FAC5CDF5        ",
"        E0A9A7E43D1B4B4B757575759F9FD6DFDFDFDFDFDFDF4B598255898989898989884E1F5FFAC5CDF5        ",
"        E0A8A6E43D3939847B0E37727310163031632F2E132C2A4B5909514F4F4A4A4E4E4EDF20FCC5D4F8        ",
"        E0A8A5E639397A7B0E37381071301731322F6213132A2B585EEC759F9FD6DFDFDFDFDF20FCC5D4F8        ",
"        E3BBA5E6390F7B0E37343410103531152F2E132C2A2B271160282924241A23232020201EFCC5D3F8        ",
"        E390A3E60F0E3737383410103031322E2E13132A2B271160282924241A23235F20201E1EFCCCD3F8        ",
"        E3A4BAE50F7B383834101030312D2F2E13612A2B272728282924252323265F20201E1E1EFCCCD2FB        ",
"        E3A4BAE53737343410161731152F2E2C132A2B141112282924251A23231D20201E1E1E21FCCCD2FB        ",
"        E3A2A0E537341010161731632F2E132C2A2B271160282924241A231D5F20201E21211E21FCCCDCFB        ",
"        E2A2A0E5EDEDEDEDEDEDEDF1F1F1F1F2F2F2F2F7F7F7F9F9F9F9FAFAFAFAFCFCFCFCFCFCFCCCDCFB        ",
"        E2A1A09E9E9EB6B6B6C0C0C0C0BFBFBFBEBEBEBEC7C7C7C6C6C6C5C5C5C5C5CCCCCCCCCCCCCCDCFB        ",
"        E2A1B9B9B9B9B9B8B8B8C2C2B7C1C1CACACAC9C9C8C8C8CECECECECDCDCDD4D4D3D2D2D2DCDCDCFB        ",
"        E2EBEBEBEBEBE7E7E7E7ECECECECEAEAEAF0F0EEEFF3F4F4F6F6F5F5F5F8F8F8F8FBFBFBFBFBFBFB        ",
"                                                                                                ",
"                                                                                                ",
"                                                                                                ",
"                                                                                                "};
