/* XPM */
static char * FableTheLostChapter_xpm[] = {
"32 32 18 1",
" 	c None",
".	c #040404",
"+	c #161616",
"@	c #808080",
"#	c #CCCC99",
"$	c #E7E7D6",
"%	c #080808",
"&	c #FFFFFF",
"*	c #CCCC66",
"=	c #666633",
"-	c #666600",
";	c #999933",
">	c #424242",
",	c #333300",
"'	c #333333",
")	c #336666",
"!	c #33CCCC",
"~	c #336699",
"           ..........           ",
"        ..+@#$$$$$$#@%..        ",
"      ..@$&&$*=--;#$&&$@..      ",
"     .>$&&&*-,'>>',=#$&&$'.     ",
"    .@&&&&*=-,)!~>,-;#&&&$+.    ",
"   .@&&&$#**-,!!)~,=#*$&&$$.    ",
"  %>&&#;-=*$;-~~~)-*#*-;$&$@.   ",
"  .#$=-,---#$@>))>*$*--,=#$#.   ",
"  '$=,,,,,--#$*==#$=-----=**.   ",
"  ,;,.....%,-;$$$*-,,..,;*;=.   ",
"  %,.      .,-=*;--+.&.=$*=+.   ",
"  ..        .;;;=;-.&&.$$=,.    ",
"            .;****-..'$$=,.     ",
"            .;*###*#$&*-,.      ",
"            .;###****-,%.       ",
"          ..-*####;,+..         ",
"        ..@$#*####-..           ",
"      ..@&$;-*#*##,             ",
"     .@&$=-,,*###$,             ",
"    .@&*-,...*##$$=.            ",
"   .@&*,+.&&%$$&$&#.       ..   ",
"   %$$;-.&&.@&$#$$&@%    .+$'   ",
"  .@$$$$-.+#&$*--*$$$@%.+@$$@.  ",
"  .;*$&&$$&&#='>>'=#$$&&&&&*=.  ",
"  .-;;$&&&$*=,)!~>,=*$&&&$=-+   ",
"   .===#&$#;-'!!)~,=;##$*---.   ",
"   .,---=***=-~~~),=#*;-,--.    ",
"    .,--,=##;->))>=@#*,--,..    ",
"     .,---=##*='-=*$;---,.      ",
"      ..,---;##$##*=--,..       ",
"        ..+,',,---,,+..         ",
"           .........            "};
