/* XPM */
static char * FarCry2_xpm[] = {
"32 32 793 2",
"  	c None",
". 	c #3F281A",
"+ 	c #482B1C",
"@ 	c #4D2D1E",
"# 	c #4A2D1E",
"$ 	c #4C2F1F",
"% 	c #513221",
"& 	c #4E3121",
"* 	c #4A2F20",
"= 	c #4D3121",
"- 	c #4D3122",
"; 	c #4C3021",
"> 	c #492E1F",
", 	c #4C2F20",
"' 	c #4D2F20",
") 	c #4A2E1F",
"! 	c #4C3020",
"~ 	c #482D1E",
"{ 	c #472D1D",
"] 	c #472B1A",
"^ 	c #704F23",
"/ 	c #623D00",
"( 	c #352100",
"_ 	c #472A1A",
": 	c #4C2719",
"< 	c #492416",
"[ 	c #4A2416",
"} 	c #452315",
"| 	c #4B2517",
"1 	c #482416",
"2 	c #4A2516",
"3 	c #673420",
"4 	c #763D25",
"5 	c #5E311D",
"6 	c #422214",
"7 	c #462416",
"8 	c #512919",
"9 	c #4C2515",
"0 	c #482214",
"a 	c #4F2514",
"b 	c #6A3018",
"c 	c #AF6E2B",
"d 	c #C76500",
"e 	c #874700",
"f 	c #562D00",
"g 	c #432718",
"h 	c #422215",
"i 	c #422014",
"j 	c #422013",
"k 	c #442113",
"l 	c #492415",
"m 	c #462314",
"n 	c #703821",
"o 	c #7F4128",
"p 	c #502919",
"q 	c #3E2013",
"r 	c #412113",
"s 	c #4D2818",
"t 	c #462516",
"u 	c #4D2616",
"v 	c #4A2415",
"w 	c #7B3D23",
"x 	c #874024",
"y 	c #B96A35",
"z 	c #D13B00",
"A 	c #EF6200",
"B 	c #B65C00",
"C 	c #825B00",
"D 	c #7A5101",
"E 	c #412703",
"F 	c #412717",
"G 	c #3F2012",
"H 	c #411F12",
"I 	c #522817",
"J 	c #63311C",
"K 	c #783C23",
"L 	c #793D24",
"M 	c #60301C",
"N 	c #502817",
"O 	c #542C18",
"P 	c #5A2F1A",
"Q 	c #793F25",
"R 	c #814327",
"S 	c #7A3E25",
"T 	c #7C3E25",
"U 	c #7D4126",
"V 	c #8D462B",
"W 	c #8F482C",
"X 	c #A86134",
"Y 	c #E33400",
"Z 	c #DA3A00",
"` 	c #E24B00",
" .	c #C38102",
"..	c #A45F05",
"+.	c #996607",
"@.	c #6A4602",
"#.	c #412918",
"$.	c #3E1F13",
"%.	c #412012",
"&.	c #854427",
"*.	c #7C4121",
"=.	c #8F4A2A",
"-.	c #954E2E",
";.	c #7B4226",
">.	c #763C24",
",.	c #8C492D",
"'.	c #793F26",
").	c #6D3C23",
"!.	c #8F4C2D",
"~.	c #88472A",
"{.	c #864429",
"].	c #8E4A2B",
"^.	c #954B2D",
"/.	c #874129",
"(.	c #A05833",
"_.	c #C73200",
":.	c #CE3500",
"<.	c #DB4D00",
"[.	c #B85E04",
"}.	c #AE480A",
"|.	c #CB8110",
"1.	c #E5AB07",
"2.	c #574000",
"3.	c #412B18",
"4.	c #3F2111",
"5.	c #4C2713",
"6.	c #7B4224",
"7.	c #804325",
"8.	c #84462A",
"9.	c #8E4A2E",
"0.	c #88472D",
"a.	c #6F3B24",
"b.	c #5A301C",
"c.	c #452417",
"d.	c #592F1B",
"e.	c #6D3A1E",
"f.	c #753E25",
"g.	c #7B4027",
"h.	c #89492A",
"i.	c #734026",
"j.	c #69341E",
"k.	c #B76532",
"l.	c #F34700",
"m.	c #E94700",
"n.	c #D24701",
"o.	c #B64105",
"p.	c #BB5411",
"q.	c #DA7F14",
"r.	c #F1A008",
"s.	c #C47601",
"t.	c #422C19",
"u.	c #402212",
"v.	c #422313",
"w.	c #61341D",
"x.	c #7F4227",
"y.	c #844529",
"z.	c #956749",
"A.	c #876848",
"B.	c #64402B",
"C.	c #7B492C",
"D.	c #754429",
"E.	c #62351F",
"F.	c #67351C",
"G.	c #532F1B",
"H.	c #392115",
"I.	c #4D2C1B",
"J.	c #4D2B1A",
"K.	c #4E2A18",
"L.	c #703C22",
"M.	c #B76E38",
"N.	c #E93B00",
"O.	c #E84C00",
"P.	c #F54402",
"Q.	c #E45706",
"R.	c #E5611B",
"S.	c #DD650D",
"T.	c #F97503",
"U.	c #F6A002",
"V.	c #583100",
"W.	c #432D1B",
"X.	c #442415",
"Y.	c #6D3922",
"Z.	c #794126",
"`.	c #82452A",
" +	c #754B32",
".+	c #9B6A01",
"++	c #A74C23",
"@+	c #B87A59",
"#+	c #B37F57",
"$+	c #AC7347",
"%+	c #B67F52",
"&+	c #B17850",
"*+	c #99774F",
"=+	c #554634",
"-+	c #5B4D3B",
";+	c #8C7A60",
">+	c #88785E",
",+	c #815324",
"'+	c #D03200",
")+	c #F05201",
"!+	c #F33E01",
"~+	c #EB4405",
"{+	c #F18721",
"]+	c #DE4408",
"^+	c #F96101",
"/+	c #F79E00",
"(+	c #996102",
"_+	c #442E1B",
":+	c #3F2112",
"<+	c #442315",
"[+	c #6F3922",
"}+	c #703B23",
"|+	c #473729",
"1+	c #714617",
"2+	c #ED4D01",
"3+	c #D83B00",
"4+	c #D54100",
"5+	c #C23300",
"6+	c #DC3C00",
"7+	c #C94A0E",
"8+	c #90621B",
"9+	c #551900",
"0+	c #E34701",
"a+	c #DE2F00",
"b+	c #E43505",
"c+	c #F47829",
"d+	c #CC510E",
"e+	c #D47204",
"f+	c #F4BB01",
"g+	c #B58503",
"h+	c #432E1A",
"i+	c #3E1F11",
"j+	c #452314",
"k+	c #63331D",
"l+	c #66341E",
"m+	c #562C1A",
"n+	c #56301D",
"o+	c #58341E",
"p+	c #A42F01",
"q+	c #C53E00",
"r+	c #CA3D02",
"s+	c #BF3202",
"t+	c #D43705",
"u+	c #B32E06",
"v+	c #A45B23",
"w+	c #522200",
"x+	c #782C00",
"y+	c #8E3806",
"z+	c #D8712B",
"A+	c #CC6A26",
"B+	c #B26A09",
"C+	c #E9B104",
"D+	c #B79001",
"E+	c #422011",
"F+	c #462313",
"G+	c #512916",
"H+	c #562C19",
"I+	c #502A18",
"J+	c #60361E",
"K+	c #A2724D",
"L+	c #9A3E10",
"M+	c #E04704",
"N+	c #B84205",
"O+	c #B74105",
"P+	c #E76304",
"Q+	c #FB5F15",
"R+	c #BD883F",
"S+	c #4A0C00",
"T+	c #761100",
"U+	c #982C0A",
"V+	c #CF6026",
"W+	c #CE6727",
"X+	c #BB760E",
"Y+	c #E3B40A",
"Z+	c #927802",
"`+	c #45311D",
" @	c #4B2413",
".@	c #512714",
"+@	c #492514",
"@@	c #512917",
"#@	c #6F3A20",
"$@	c #8F522D",
"%@	c #B78654",
"&@	c #A25427",
"*@	c #B93906",
"=@	c #C73D08",
"-@	c #B42E05",
";@	c #ED8E26",
">@	c #AE8B45",
",@	c #3E341C",
"'@	c #270A01",
")@	c #4D0E01",
"!@	c #A21900",
"~@	c #A01A02",
"{@	c #BF4615",
"]@	c #E16D2B",
"^@	c #DC601E",
"/@	c #D87C14",
"(@	c #EDA205",
"_@	c #604F00",
":@	c #47341F",
"<@	c #4D2613",
"[@	c #522812",
"}@	c #4A2413",
"|@	c #6C351D",
"1@	c #864525",
"2@	c #8A4A29",
"3@	c #8C5731",
"4@	c #644125",
"5@	c #714C23",
"6@	c #815720",
"7@	c #6E4822",
"8@	c #674927",
"9@	c #5E4328",
"0@	c #593E26",
"a@	c #533822",
"b@	c #5F493A",
"c@	c #350800",
"d@	c #912000",
"e@	c #931E00",
"f@	c #7E1400",
"g@	c #852209",
"h@	c #C8612C",
"i@	c #E16E30",
"j@	c #D1681E",
"k@	c #F2751F",
"l@	c #DE9E01",
"m@	c #47351F",
"n@	c #492211",
"o@	c #582D16",
"p@	c #592C17",
"q@	c #773D20",
"r@	c #834424",
"s@	c #733D20",
"t@	c #5F361D",
"u@	c #683C20",
"v@	c #6E3F22",
"w@	c #744424",
"x@	c #63371C",
"y@	c #6F4123",
"z@	c #683D20",
"A@	c #61361D",
"B@	c #7F4A28",
"C@	c #835B3D",
"D@	c #5A2717",
"E@	c #711501",
"F@	c #BC2700",
"G@	c #821700",
"H@	c #711301",
"I@	c #9E3C16",
"J@	c #E1773A",
"K@	c #E36E33",
"L@	c #F27A29",
"M@	c #FCA41B",
"N@	c #726100",
"O@	c #46361F",
"P@	c #492111",
"Q@	c #5A2D16",
"R@	c #603219",
"S@	c #64331A",
"T@	c #713D1E",
"U@	c #5B3018",
"V@	c #593018",
"W@	c #62371B",
"X@	c #5E3319",
"Y@	c #6B3D1D",
"Z@	c #67391C",
"`@	c #67381C",
" #	c #854924",
".#	c #9F5A2E",
"+#	c #9D592E",
"@#	c #986F48",
"##	c #A65A39",
"$#	c #811E06",
"%#	c #B92901",
"&#	c #8B1A00",
"*#	c #842002",
"=#	c #C65F23",
"-#	c #F98D42",
";#	c #FE8437",
">#	c #FFA637",
",#	c #9D800F",
"'#	c #41301B",
")#	c #4C2211",
"!#	c #522613",
"~#	c #582B15",
"{#	c #5D3017",
"]#	c #643519",
"^#	c #582B16",
"/#	c #572C16",
"(#	c #572B15",
"_#	c #5D3118",
":#	c #62361A",
"<#	c #774320",
"[#	c #985328",
"}#	c #935129",
"|#	c #8D4F26",
"1#	c #653F23",
"2#	c #77462B",
"3#	c #CD7442",
"4#	c #C74F19",
"5#	c #DB4506",
"6#	c #CA3A00",
"7#	c #BD4C0C",
"8#	c #EB9239",
"9#	c #FF9E4A",
"0#	c #FFAC48",
"a#	c #C4973E",
"b#	c #3F2E18",
"c#	c #301305",
"d#	c #311306",
"e#	c #47200C",
"f#	c #451F0A",
"g#	c #A55726",
"h#	c #AE5F2B",
"i#	c #B0612C",
"j#	c #974B21",
"k#	c #9C5526",
"l#	c #B06832",
"m#	c #BB7137",
"n#	c #B16B34",
"o#	c #783F1C",
"p#	c #79431E",
"q#	c #AD7F4E",
"r#	c #A3310F",
"s#	c #D05D29",
"t#	c #D9743C",
"u#	c #D05A1A",
"v#	c #D24901",
"w#	c #CD671B",
"x#	c #F8A347",
"y#	c #FFB65C",
"z#	c #F8B35F",
"A#	c #C78D56",
"B#	c #3E2D18",
"C#	c #270D01",
"D#	c #2A0D02",
"E#	c #381806",
"F#	c #57260B",
"G#	c #9E4E1E",
"H#	c #A95423",
"I#	c #853D13",
"J#	c #884118",
"K#	c #914A1D",
"L#	c #B36931",
"M#	c #B76E33",
"N#	c #B46E36",
"O#	c #A96732",
"P#	c #A86832",
"Q#	c #A07643",
"R#	c #531905",
"S#	c #712A0C",
"T#	c #E69A56",
"U#	c #C67339",
"V#	c #862F09",
"W#	c #D77833",
"X#	c #FEC468",
"Y#	c #FDBD6A",
"Z#	c #FFC371",
"`#	c #F6C17A",
" $	c #44321B",
".$	c #49200B",
"+$	c #5D2E12",
"@$	c #5E2E12",
"#$	c #703311",
"$$	c #A0541F",
"%$	c #BA6C2C",
"&$	c #B86E2E",
"*$	c #B26D33",
"=$	c #B57134",
"-$	c #C07D3D",
";$	c #BE7A3A",
">$	c #BA7B3E",
",$	c #AC7639",
"'$	c #AA6B35",
")$	c #AD7841",
"!$	c #6C1E0E",
"~$	c #851906",
"{$	c #F3A058",
"]$	c #EF9957",
"^$	c #C45C1B",
"/$	c #E5A047",
"($	c #F7D275",
"_$	c #FEBA67",
":$	c #FEB062",
"<$	c #FFD185",
"[$	c #44321C",
"}$	c #592D10",
"|$	c #623212",
"1$	c #663515",
"2$	c #954F1F",
"3$	c #B06224",
"4$	c #BC6F2D",
"5$	c #DA9B56",
"6$	c #C9BB95",
"7$	c #BAA87F",
"8$	c #C19C6C",
"9$	c #B28258",
"0$	c #A58054",
"a$	c #BC8C5B",
"b$	c #A27E58",
"c$	c #995D39",
"d$	c #AA1700",
"e$	c #D62F08",
"f$	c #FFB865",
"g$	c #FFC16E",
"h$	c #BC8233",
"i$	c #B27B42",
"j$	c #F9BC69",
"k$	c #E88845",
"l$	c #FCA45A",
"m$	c #FFE18C",
"n$	c #FEDB94",
"o$	c #493920",
"p$	c #572B0F",
"q$	c #5E3315",
"r$	c #713D18",
"s$	c #AC6328",
"t$	c #B46627",
"u$	c #B86F2D",
"v$	c #D1934D",
"w$	c #6A563E",
"x$	c #7D3A16",
"y$	c #C1541B",
"z$	c #BE5521",
"A$	c #C36B37",
"B$	c #B4441D",
"C$	c #A02307",
"D$	c #E5370B",
"E$	c #E32401",
"F$	c #E24415",
"G$	c #FFD682",
"H$	c #FFDD88",
"I$	c #D29559",
"J$	c #D77E40",
"K$	c #D77B3D",
"L$	c #FEA85E",
"M$	c #FFDC85",
"N$	c #FFF69D",
"O$	c #4A3A22",
"P$	c #57290C",
"Q$	c #4D220D",
"R$	c #733914",
"S$	c #A05F27",
"T$	c #B26726",
"U$	c #AC6729",
"V$	c #C48441",
"W$	c #B66F41",
"X$	c #EE8A3B",
"Y$	c #EA6623",
"Z$	c #EF8440",
"`$	c #F09350",
" %	c #E56632",
".%	c #C02C0B",
"+%	c #DC310F",
"@%	c #DA2807",
"#%	c #D3712F",
"$%	c #FEF09D",
"%%	c #FFF1A0",
"&%	c #F6C67E",
"*%	c #B66933",
"=%	c #DB7F40",
"-%	c #F6944F",
";%	c #FEB96C",
">%	c #FFE88E",
",%	c #FEC87E",
"'%	c #4B402B",
")%	c #884F21",
"!%	c #6A3715",
"~%	c #7A461C",
"{%	c #744118",
"]%	c #B16625",
"^%	c #B56B2B",
"/%	c #D8974F",
"(%	c #CB9F5B",
"_%	c #E7B064",
":%	c #D7672A",
"<%	c #FABB6B",
"[%	c #F9BB6E",
"}%	c #EB8043",
"|%	c #BA411F",
"1%	c #DA3C16",
"2%	c #C03A15",
"3%	c #D6A35B",
"4%	c #FFFAAB",
"5%	c #FFF5A7",
"6%	c #CE9D66",
"7%	c #530C03",
"8%	c #83421A",
"9%	c #C36931",
"0%	c #C76D35",
"a%	c #DD7E45",
"b%	c #FEAE63",
"c%	c #F79C5B",
"d%	c #A25E37",
"e%	c #48311B",
"f%	c #613513",
"g%	c #72421C",
"h%	c #6C3B17",
"i%	c #B26525",
"j%	c #B16727",
"k%	c #D99C51",
"l%	c #DECF83",
"m%	c #DDC47E",
"n%	c #D48F4E",
"o%	c #F1DC85",
"p%	c #F0D389",
"q%	c #DD9656",
"r%	c #D77B44",
"s%	c #CE582A",
"t%	c #C35F2F",
"u%	c #F3D081",
"v%	c #FFF3AA",
"w%	c #FEEDA7",
"x%	c #AA5D37",
"y%	c #93180A",
"z%	c #AB4F20",
"A%	c #DD7436",
"B%	c #CF642C",
"C%	c #C95E2C",
"D%	c #F99048",
"E%	c #F28D48",
"F%	c #C77740",
"G%	c #61492B",
"H%	c #835325",
"I%	c #7D4F25",
"J%	c #8F5423",
"K%	c #C5752F",
"L%	c #BE722F",
"M%	c #EED081",
"N%	c #F2E7AB",
"O%	c #FCDE8E",
"P%	c #FFDC7F",
"Q%	c #FFF498",
"R%	c #FEE99D",
"S%	c #F7B46B",
"T%	c #CE8B4E",
"U%	c #B86E3B",
"V%	c #E19A58",
"W%	c #FFF7B7",
"X%	c #FFE798",
"Y%	c #EABC84",
"Z%	c #8C1A0A",
"`%	c #983D1E",
" &	c #D37836",
".&	c #F78840",
"+&	c #C9692F",
"@&	c #9E4D1F",
"#&	c #DD7536",
"$&	c #E3803F",
"%&	c #E58D49",
"&&	c #433924",
"*&	c #5C3D20",
"=&	c #6F411B",
"-&	c #7F491F",
";&	c #C67D39",
">&	c #CE8640",
",&	c #DDBB76",
"'&	c #F9F0B6",
")&	c #FBF5C3",
"!&	c #FEF7B4",
"~&	c #FFF59B",
"{&	c #FFF596",
"]&	c #FEF6AB",
"^&	c #EEA669",
"/&	c #DB9252",
"(&	c #FAD084",
"_&	c #FFFAC1",
":&	c #FFECA2",
"<&	c #FFD984",
"[&	c #C85A2F",
"}&	c #95240F",
"|&	c #B26333",
"1&	c #F9A452",
"2&	c #FE994B",
"3&	c #E07134",
"4&	c #A1471C",
"5&	c #CA672A",
"6&	c #E7803D",
"7&	c #F09C50",
"8&	c #3A2C19",
"9&	c #563316",
"0&	c #7F4F24",
"a&	c #C68440",
"b&	c #6B2D06",
"c&	c #7C4C20",
"d&	c #EBD793",
"e&	c #FFFCC0",
"f&	c #FFFDDF",
"g&	c #FFFFDC",
"h&	c #FFF4A3",
"i&	c #FFF28E",
"j&	c #FDF3B8",
"k&	c #D6945F",
"l&	c #F7C47A",
"m&	c #FFFCCA",
"n&	c #FFE8AA",
"o&	c #FFD780",
"p&	c #FABF6D",
"q&	c #BE471D",
"r&	c #AE5426",
"s&	c #E59850",
"t&	c #FFC76A",
"u&	c #FFB45B",
"v&	c #C7682F",
"w&	c #8D451A",
"x&	c #BD6428",
"y&	c #F58D42",
"z&	c #F1AC5B",
"A&	c #3B3121",
"B&	c #3C1E0A",
"C&	c #854A20",
"D&	c #E2934A",
"E&	c #804720",
"F&	c #51280D",
"G&	c #D5A65F",
"H&	c #FFF9AE",
"I&	c #FFFEE1",
"J&	c #FFFFE5",
"K&	c #FFF9A5",
"L&	c #FFDE81",
"M&	c #F4DEAB",
"N&	c #D4945F",
"O&	c #FFEEAC",
"P&	c #FFFCD2",
"Q&	c #FFCE7D",
"R&	c #FFD578",
"S&	c #F6A553",
"T&	c #E38947",
"U&	c #F3B465",
"V&	c #FFDF7D",
"W&	c #FFD976",
"X&	c #F7BC61",
"Y&	c #B85E29",
"Z&	c #AF551D",
"`&	c #CF6B2C",
" *	c #F99345",
".*	c #DFA858",
"+*	c #785331",
"@*	c #D49B62",
"#*	c #FBE5A5",
"$*	c #AC8056",
"%*	c #BE8858",
"&*	c #DDB57A",
"**	c #CEA069",
"=*	c #FDF6C8",
"-*	c #FFFDE2",
";*	c #FEE09C",
">*	c #FFD176",
",*	c #EBCA9C",
"'*	c #E3A664",
")*	c #FFFCC9",
"!*	c #FFF8C0",
"~*	c #FAC072",
"{*	c #FCCD6D",
"]*	c #FFDF87",
"^*	c #FFE391",
"/*	c #FFE688",
"(*	c #FFDE7C",
"_*	c #FFD271",
":*	c #E3994E",
"<*	c #DC7536",
"[*	c #DD7B36",
"}*	c #CC7535",
"|*	c #D87B39",
"1*	c #AC7F44",
"2*	c #4E4837",
"3*	c #534E3E",
"4*	c #545145",
"5*	c #423E2E",
"6*	c #565344",
"7*	c #56544C",
"8*	c #533D27",
"9*	c #8A8366",
"0*	c #949284",
"a*	c #8B7C4F",
"b*	c #9C854F",
"c*	c #927A5A",
"d*	c #AA8850",
"e*	c #B9AD78",
"f*	c #BCB07B",
"g*	c #A97743",
"h*	c #A48141",
"i*	c #9D814C",
"j*	c #9E7B44",
"k*	c #A3783D",
"l*	c #A48848",
"m*	c #9A793E",
"n*	c #865429",
"o*	c #8E6532",
"p*	c #7D5427",
"q*	c #6E4923",
"r*	c #4D3619",
"                                                                ",
"  . + @ # $ % & * = - ; > , ' ) ! ~ { ] ^ / (                   ",
"  _ : < [ } | 1 2 3 4 5 6 7 8 1 9 0 a b c d e f                 ",
"  g h i j k l m n o p } q r s t u v w x y z A B C D E           ",
"  F q G H I J K L M N O P Q R S T U V W X Y Z `  ...+.@.        ",
"  #.$.$.%.&.*.=.-.;.>.,.'.).!.~.{.].^./.(._.:.<.[.}.|.1.2.      ",
"  3.q 4.5.6.7.8.9.0.a.b.c.d.e.f.g.h.i.j.k.l.m.n.o.p.q.r.s.      ",
"  t.u.v.w.x.y.z.A.B.C.D.E.F.G.H.I.J.K.L.M.N.O.P.Q.R.S.T.U.V.    ",
"  W.G X.Y.Z.`. +.+++@+#+$+%+&+*+=+-+;+>+,+'+)+!+~+{+]+^+/+(+    ",
"  _+:+<+[+Q }+|+1+2+3+4+5+6+7+8+          9+0+a+b+c+d+e+f+g+    ",
"  h+i+j+k+l+m+n+o+p+q+r+s+t+u+v+            w+x+y+z+A+B+C+D+    ",
"  h+E+F+G+H+I+J+K+L+M+N+O+P+Q+R+            S+T+U+V+W+X+Y+Z+    ",
"  `+ @.@+@@@#@$@%@&@*@=@-@;@>@,@        '@)@!@~@{@]@^@/@(@_@    ",
"  :@<@[@}@|@1@2@3@4@5@6@7@8@9@0@a@b@  c@d@e@f@g@h@i@j@k@l@      ",
"  m@n@o@p@q@r@s@t@u@v@w@x@y@z@A@B@C@D@E@F@G@H@I@J@K@L@M@N@      ",
"  O@P@Q@R@S@T@U@V@W@X@Y@Z@`@ #.#+#@###$#%#&#*#=#-#;#>#,#        ",
"  '#)#!#~#{#]#^#/#(#_#:#<#[#}#|#1#2#3#4#5#6#7#8#9#0#a#          ",
"  b#c#d#e#f#g#h#i#j#k#l#m#n#o#p#q#r#s#t#u#v#w#x#y#z#A#          ",
"  B#C#D#E#F#G#H#I#J#K#L#M#N#O#P#Q#R#S#T#U#V#W#X#Y#Z#`#          ",
"   $.$+$@$#$$$%$&$*$=$-$;$>$,$'$)$!$~${$]$^$/$($_$:$<$          ",
"  [$}$|$1$2$3$4$5$6$7$8$9$0$a$b$c$d$e$f$g$h$i$j$k$l$m$n$        ",
"  o$p$q$r$s$t$u$v$w$x$y$z$A$B$C$D$E$F$G$H$I$  J$K$L$M$N$        ",
"  O$P$Q$R$S$T$U$V$W$X$Y$Z$`$ %.%+%@%#%$%%%&%  *%=%-%;%>%,%      ",
"  '%)%!%~%{%]%^%/%(%_%:%<%[%}%|%1%2%3%4%5%6%7%8%9%0%a%b%c%d%    ",
"    e%f%g%h%i%j%k%l%m%n%o%p%q%r%s%t%u%v%w%x%y%z%A%B%C%D%E%F%    ",
"    G%H%I%J%K%L%M%N%O%P%Q%R%S%T%U%V%W%X%Y%Z%`% &.&+&@&#&$&%&    ",
"  &&*&=&-&;&>&,&'&)&!&~&{&]&^&/&(&_&:&<&[&}&|&1&2&3&4&5&6&7&    ",
"  8&9&0&a&b&c&d&e&f&g&h&i&j&k&l&m&n&o&p&q&r&s&t&u&v&w&x&y&z&    ",
"  A&B&C&D&E&F&G&H&I&J&K&L&M&N&O&P&Q&R&S&T&U&V&W&X&Y&Z&`& *.*    ",
"    +*@*#*$*%*&***=*-*;*>*,*'*)*!*~*{*]*^*/*(*_*:*<*[*}*|*1*    ",
"    2*3*4*5*6*7*8*9*0*a*b*c*d*e*f*g*h*i*j*k*l*m*n*o*p*q*r*      ",
"                                                                "};
