/* XPM */
/* C:\Sierra\Half-Life\valve.ico */
static char *icon[] = {
"32 32 10 2",
"00 c #000000",
"1C c #FF5500",
"1D c #DC4900",
"1E c #B93D00",
"1F c #963100",
"20 c #732500",
"21 c #501900",
"2D c #500000",
"F5 c #0E0E0E",
"   c None",
"0000000000000000000000000000000000000000000000000000000000000000",
"00000000000000000000F5211F1E1D1C1C1D1E1F21F500000000000000000000",
"00000000000000002D1F1D1C1C1C1C1C1C1C1C1C1C1D1F2D0000000000000000",
"00000000000000201D1C1C1D1F21F5F5F521201E1D1C1C1D2000000000000000",
"0000000000F51F1C1C1D1F2D00000000000000002D1F1D1C1C1FF50000000000",
"00000000F51F1C1C1F2D000021202021000000000000211F1C1C1FF500000000",
"000000001F1C1D20000000001F1C1C1CF500000000000000201D1C1F00000000",
"000000201C1C200000000000201D1C1C200000000000000000201C1C20000000",
"00002D1D1C1F00000000000000001E1C1DF500000000000000001F1C1D2D0000",
"00001F1C1D210000000000000000211C1C200000000000000000211D1C1F0000",
"00F51D1C1F000000000000000000001C1C1DF500000000000000001F1C1DF500",
"00211C1D2D000000000000000000211E1C1C2100000000000000002D1D1C2100",
"001F1C1E000000000000000000F5201C1C1C1E0000000000000000001E1C1F00",
"001E1C20000000000000000000211D1C1E1C1C210000000000000000201C1E00",
"001D1C210000000000000000F5201C1C201E1C1E0000000000000000211C1D00",
"001C1CF50000000000000000211D1C1F2D001C1D2100000000000000F51C1C00",
"001C1CF5000000000000002D1F1C1D2000001E1C1F00000000000000F51C1C00",
"001D1C2100000000000000211C1C1FF50000F51C1D21000000000000211C1D00",
"001E1C20000000000000211F1C1E21000000001D1C1F000000000000201C1E00",
"001F1C1E0000000000F5211C1D1F0000000000F51C1E21F5000000001E1C1F00",
"00211C1D2D00000000211F1C1E210000000000001D1C1F1C2000002D1D1C2100",
"00F51D1C1F0000F52D1E1C1D1F00000000000000211C1C1C1E00001F1C1DF500",
"00001F1C1D2100F51E1D1C1FF500000000000000001D1C200000211D1C1F0000",
"00002D1D1C1F0000000000F500000000000000000021210000001F1C1D2D0000",
"000000201C1C20000000000000000000000000000000000000201C1C20000000",
"000000001F1C1D2000000000000000000000000000000000201D1C1F00000000",
"00000000F51F1C1C1F2D000000000000000000000000211F1C1C1FF500000000",
"0000000000F51F1C1C1D1F2D00000000000000002D1F1D1C1C1FF50000000000",
"00000000000000201D1C1C1D1E2021F5F521201E1D1C1C1D2000000000000000",
"00000000000000002D1F1D1C1C1C1C1C1C1C1C1C1C1D1F2D0000000000000000",
"00000000000000000000F5211F1E1D1C1C1D1E1F21F500000000000000000000",
"0000000000000000000000000000000000000000000000000000000000000000"};
