/* XPM */
/* c:\windows\profiles\tinou\Application Data\Microsoft\Installer\{B045B608-4A47-4C77-9EAD-06C394503306}\iTunesIco.exe */
static char *icon[] = {
"48 48 202 2",
"01 c #3E8A6E",
"02 c #828286",
"03 c #8296CA",
"04 c #C6C6C6",
"05 c #028AEE",
"06 c #022A7E",
"07 c #4682D2",
"08 c #465E96",
"09 c #AEC67E",
"0A c #8AEAC6",
"0B c #064AC6",
"0C c #4ABEBA",
"0D c #DACE96",
"0E c #A29ECA",
"0F c #468EE2",
"10 c #C6C6E6",
"11 c #225EC6",
"12 c #365286",
"13 c #BAFA9A",
"14 c #6696DE",
"15 c #BECEC6",
"16 c #B6AE82",
"17 c #5ECEE6",
"18 c #C6FAC2",
"19 c #8EE69E",
"1A c #86BAE6",
"1B c #A6B6E2",
"1C c #72BA92",
"1D c #065EDE",
"1E c #02AEF6",
"1F c #063EBA",
"20 c #466AAA",
"21 c #6AC6DE",
"22 c #A2FAAE",
"24 c #4AAAE6",
"25 c #DAE6EA",
"26 c #E2E69E",
"27 c #E2CEC6",
"28 c #86CEEE",
"29 c #CEC6B2",
"2A c #227EE2",
"2B c #2E56B6",
"2C c #8E9EE2",
"2D c #3E8EBA",
"2E c #4EBAD2",
"2F c #AEB6C2",
"30 c #6AAEE2",
"31 c #AADEE6",
"32 c #8EE6AA",
"33 c #7ADEE6",
"34 c #021E66",
"35 c #3E8EAA",
"36 c #928E96",
"37 c #2A4682",
"38 c #3A72BE",
"39 c #0676DE",
"3A c #F2F2E6",
"3B c #7A7A7E",
"3C c #165EBE",
"3D c #267686",
"3E c #B6B6B6",
"3F c #EAE6C6",
"40 c #8AC2F6",
"41 c #BAC2E6",
"42 c #56DAB2",
"43 c #7A7EC2",
"44 c #6EC6F2",
"45 c #4AA6FA",
"46 c #DAFAA2",
"47 c #E2D6AA",
"48 c #2E8ADE",
"49 c #AABED6",
"4A c #66BAF6",
"4B c #625E62",
"4C c #1A7ADE",
"4D c #969A7E",
"4E c #D6CACA",
"4F c #6A86BE",
"50 c #9EEEE2",
"51 c #76DAC6",
"52 c #4A9AE6",
"53 c #CEEE9A",
"54 c #1A42AA",
"55 c #426AC2",
"56 c #E2D6D2",
"57 c #96DAFA",
"58 c #9AAAE6",
"5A c #96F6AA",
"5B c #7EAAA6",
"5C c #DADEB2",
"5F c #9A9AD6",
"60 c #C6CAD2",
"61 c #12369A",
"62 c #AEC692",
"63 c #86EEDA",
"64 c #DADA96",
"65 c #CAD6E2",
"66 c #366ACA",
"67 c #3A5696",
"68 c #BAEADA",
"69 c #4EDEE6",
"6A c #9EEA92",
"6B c #96B6D6",
"6C c #A6B6F2",
"6D c #3ACAC2",
"6E c #6ED6DA",
"6F c #AEFA9E",
"70 c #9EA6BE",
"71 c #DEEAF6",
"72 c #E6E6B6",
"73 c #326EA6",
"74 c #8EAADA",
"75 c #6EA2CA",
"76 c #7AAADE",
"77 c #9AEAA6",
"78 c #5A8AAA",
"79 c #324E8A",
"7A c #2E76CE",
"7B c #067EF6",
"7C c #EEF2F6",
"7D c #7A7AA6",
"7E c #066AD6",
"7F c #CEBAAE",
"80 c #F2FED6",
"81 c #6E9E6A",
"83 c #5E9ED6",
"84 c #BEFEF6",
"85 c #467ED2",
"86 c #3ECEE2",
"87 c #CEE6DA",
"88 c #7AC6AE",
"89 c #369AF6",
"8A c #C2BA9A",
"8B c #1E8AF6",
"8D c #5E62A2",
"8E c #7E9AEA",
"90 c #3A7ADA",
"91 c #366A96",
"92 c #7AF2C2",
"93 c #7AE2AA",
"95 c #3A9ECA",
"96 c #CAFA9E",
"97 c #9EA2A6",
"98 c #5AB2F2",
"99 c #127AF2",
"9A c #FEFEFE",
"9B c #1A6ACE",
"9C c #6E6A6E",
"9E c #BABAD2",
"9F c #DADAEE",
"A0 c #EAE6DA",
"A1 c #264EB2",
"A2 c #9ABAF2",
"A3 c #7AC6E6",
"A4 c #567ECA",
"A5 c #76EADA",
"A6 c #025ACA",
"A7 c #568EDE",
"A8 c #4A96B2",
"A9 c #AAD692",
"AA c #064EBA",
"AB c #96B6E6",
"AC c #A6A6D6",
"AD c #EADAC2",
"AE c #9A9A9A",
"AF c #9EE6FE",
"B0 c #E6D69E",
"B1 c #B6FEAA",
"B2 c #76AECE",
"B3 c #56CEF2",
"B4 c #DAD6DE",
"B5 c #9EF29E",
"B6 c #56A6EA",
"B7 c #82DAEA",
"B8 c #C2BAB2",
"B9 c #CEFEAA",
"BA c #8696D6",
"BB c #266AC6",
"BC c #AAC2E2",
"BD c #8AE6B6",
"BE c #0276EA",
"BF c #BABEF2",
"C0 c #E2DAB6",
"C1 c #8AAAE6",
"C2 c #7AB6E2",
"C3 c #3A76CA",
"C4 c #B6C6D2",
"C6 c #7AC6F2",
"C7 c #3A8ADE",
"C8 c #52A6F2",
"CB c #B6BAC6",
"CC c #E2FE9E",
"CD c #CAD2D6",
"CE c #82EAE2",
"CF c #76E2C2",
"D0 c #529EE6",
"D1 c #E2E6EA",
"D2 c #DEEAA2",
"D3 c #DEE2B6",
"D5 c #2E467E",
"D7 c #022A82",
"   c None",
"                                                                                                ",
"                                                                              55A4A761          ",
"                                                                  55A4A74F141414A7203C          ",
"                                                      5555A7141414D0072066BBBBBBBB9061          ",
"                                4B9C4B4B9C9C1BAB741483A7A466662BBB11BB2A2A55520FD011D7          ",
"                        4B4B4B4B109E499F152BC36611BB1111BB66909090070F0F0F52D0D0BBAAD7          ",
"                    4B4B1A6CA2BF4110711010A111BB906690850752C307520F0FD0D01407A6AAAAD7          ",
"                4B4B33141A6CBF1B1010109F102B90909007C70F52C75224D0C830B683391DA6A611D7          ",
"              9C842130281A1A1BBF1010109F4E2B0F0F520F0F5252B6B630C8522A7EA67E7E7E7EA606          ",
"            9C50213363761A58A2BF1B1010419E66C75252B6C8B6B6242A2A7E7EBE7E05BE05397EA6D7          ",
"          4B229263CE33B71A1A1A6CBF1B107110113045B624484C397EBEBE0505BE057E7E1DA67E3C06          ",
"        4B18BDBD0A63CEB7211A1AC16C1010109E071424397E39BEBEBE7B7E7E1D7E1D520774032B7E06          ",
"        9C6A6ABDBD0A6363B7281A1AA26C1BBF1066987E7E7E1D7E1D7EC307A249719A9A9A9A25667A06          ",
"      9C6F32773277BD77636333A31AC1A2BFBFC45552AA660703AB609A9A9A9A9A9A9A9A9A9A7107C334          ",
"    4B3F136F5A5A7732BDBDBD6333A376C16CBF0E52BB20259FD17C9A719A9A9A9A9A9A9A9A9A71074806          ",
"    9C46B1B9B1B1777777BD770AA5331A30C1BA0E90BB082525D17C7C9A7C9A9A9A9A9A9A9A7C2507BB08          ",
"  4B3F4696464646B1B17777BD32886E6E3330A24307BB123E2F1571719A9A9A9A9A9A71719AD165077A794B        ",
"  4B46B026464646B9B9465A6A323293CF17304F4F07BB0860152F15CD9A9A9A9A71D19A71257165C37A674B        ",
"  4B47B047B047D2D2B9B996B16F6A321988A876CB07BB089FB49FCD15CD9A717C71719F252525CDC37A67254B      ",
"  4B26474747470D4764B053539613B5191C88B4CBC3BB0825CD60B49FC42F7125252525259F2560C37A67254B      ",
"  4B723F7272727247470D0D0D645353091C15CDCB07BBD53B022504CD9F702F2560048704B425C4557A12AD654B    ",
"  4B72803F3F3F727272C0C0640D0D0D6209CDB4C4C37A37    3B2504252F9704CDB44E9FB44E04C37A12A0B44B    ",
"  9C72C03F3F3F3FC0C0C0C0C047470D0D3E60B4CB077A37      02CD0404AE7F274EAD29ADAD04552A79ADAD4B    ",
"  4B273FA0A03F56ADADADADC02727277F8A25CDCBC37A37      3BB4CDB44D8AC0474EADC0ADB8C3BB083FAD3F4B  ",
"  4BB4A02756AD4E56562727274E274EB83E04B42F2DBB37      02CDCDCD4D160D470D47C0C05C667AD53F5CAD4B  ",
"  4BAD4E9A273A569F4E71AD1060B404B403CB25CB90BB79    9CCD04CD298109640D0D0DB00D7F38BB087272D34B  ",
"  4B713A9E9A4E714E5610659F60CD659FB42FCD04903C083602CDCD9F9F1C81A9132653B053470D66BB124747534B  ",
"  4BD19F7160719F9F71B471042565252525716549C33C0825B404B49F1C011C196A6F96B9262653383C080D0D0D4B  ",
"    4BD1D1259FB4B4CD259F2565717125719A9F70C33C082960CD2F203D35199332937875835B4FBB9B1226640D4B  ",
"    4B9F2525252525258725257171719A9A7171C4C33C12037D8D91732D0C6D92A8834057B79824A63C08CC96534B  ",
"    4B25B425879F2525712571713A9A9A7C7125CDC33C089702434314D02E449583AF40214A21529BAA124646184B  ",
"      4B2525252571257171D19A9A4174141414A47A3C08B41B0EC18E143024111A4A174AC8894C7EAA91B16F4B    ",
"      4B9F25717C717C719A9A9ABA14B757B776529B541204C49E5FBA2C98830B524552898B7B7EBEA6735A5A4B    ",
"        9C9F9A71D19A719A9A4314AF40C221B6247EAA20609E0E5F2C2CA20F1F1D2A7B7B7B7B1E051D3592BD4B    ",
"        4B87719A719A9A9A712B3344B3C845244CA6AA20C49E9E03582CA28E0B0B7B051E1E1E1EBE3C0C42684B    ",
"          4B259A9A9A9A9AAC0B244589898B7B7EBEA620C49E1BCB032CAB1AA70BBE051E1E051D3C956D514B      ",
"            4B259A9A9A9A740B1D99997B7B050505A64F15499E0EBF032CA21AC80B1D0B0BA69B2E866D4B        ",
"              4B259A9A9A1B1F1D7B051E1E1E1E7E3C0374490EBF0E2CA2A2A2AB4AB6525224176969684B        ",
"                4B71719AD1140B7E1E1E1E057EA68514582F589E0E6C0EABA26C40C644B3B31769339C          ",
"                  4B259F9A25431D0B0B0B0B3CC7B2142FAB1B0E6C0E6C58A2A2A2C633443017504B            ",
"                    4B9CC42525C41414A78314B2766B49BCC4490E0E0E6C58A2A2AB4A7617314B              ",
"                        9C25656525C4C46BC41BC4C4B7C41B9E9EBF0E5F58ABAB4014A3BC4B                ",
"                          4B4B9F6565CD41CDBCC41B04C4C49E9E0E1B0E0EBA58C110CD9C                  ",
"                              4B4B7165CDC4C4C4609EC4C49E9E0E0E5F5F1B654B9C4B                    ",
"                                  4B9C4B9C2560CDC4C4C49E9E10109F4B9C4B                          ",
"                                          4B4B9C4B4B4B4B4B4B4B4B                                ",
"                                                                                                ",
"                                                                                                "};
