/* XPM */
static char * LegacyOfKainDefiance_xpm[] = {
"48 48 33 1",
" 	c None",
".	c #8C867E",
"+	c #A55245",
"@	c #793034",
"#	c #4E4F3C",
"$	c #4D2B32",
"%	c #443D28",
"&	c #322E30",
"*	c #282625",
"=	c #20211B",
"-	c #A6352E",
";	c #612A1F",
">	c #ED322E",
",	c #EF7A72",
"'	c #C3BEB1",
")	c #F6F2E5",
"!	c #A88D55",
"~	c #C5B479",
"{	c #CF582F",
"]	c #D4C781",
"^	c #E0D4AE",
"/	c #947151",
"(	c #381B15",
"_	c #BAA265",
":	c #A1A79E",
"<	c #694E30",
"[	c #6F6143",
"}	c #33301C",
"|	c #14150E",
"1	c #0A0807",
"2	c #8C0101",
"3	c #5F0403",
"4	c #F68230",
"..+@#$%$$$&$$&****==****&&&$$$$@@@@@@@+-+@@@@@@;",
"++#&&&&&&&**&&&********=***&&$$$$@@@@@--+@@@@@@$",
"&&&&&&&&*=**&&&&&****&*===*&&&$&$$$$@@@+-@@@@@@$",
"*&&&&&&*===*&&&&&&****&*==*&&&$&$$$$@@+-@@@@@@$$",
"**&&&&&*===*&&&&&&&&$$$$$$;;$$$$$$$$$@@@@@@@@@$$",
"=***&&******&&&&$$@>>,,>>,,>>-@$$$$$$$$@@@@$$$$$",
"=****&*******&&$->-+')))))))+>>>-@;;$;@;@@@@@@@;",
"*******=**=**&$>-!~'))))))))'.>++>-@@@@@@@@@----",
"*******====*&$>{!]^^^)))))))')^//@>>-+------++++",
"**********($@--]_~^^_')))))''':!<%@,{++++-++/...",
"*&*&$$$$$@@->>_]!_]^_:^)))^^:.__[%%+,{+++++++...",
";@@@@@@---->>{]~/[~^^~''))^':.]_[}%<,{+/+++++/..",
"--+------->{,]^!;}<~^^'~'^'''^]_#%%#+,,+++++++//",
"-+----@@-->{~^)!<<(%/]^].'^^]_/[%}}%<,,/++++++//",
"-@--@;;;;;>-])^!<<%(|<_!#.~_/[#%=}}%%/,!/.//////",
"@@@@;($$;@->/^]_[<<<%(*%=%<##}===}}}%#,:...//../",
"->-@;((;;;->-]]_[<</_/=1}<=|}#%=}}}}##,,....../.",
"^+>>2;;(;$@>{_~~//<<<%}$!_}|%[[*}%}%#/,.........",
".[[+>>-;;;@>-__!!~_/<<[/]]%*(}}}=}#%%,,/........",
"(($%[+->-@->><!!!]]]_~_!]]%%<[#%#}}%#,,*........",
"#%%&&&%->>->>;<[/__~]!+~)~%%[[#[[#}#[,>|/.......",
"<<@@@;||@>>>{<;<%}<!~[[/!<%}%<#[[#%#{,;11/////+/",
"->>>>>-31->>{<<<(1|/!/!!<}%%%<##[#%}{,(11-.+/+/+",
">----->>@2>>-+/;};%///4]!<<%%##}}%%=-,11|+///+++",
"-@;;;;;;-@->>[<;;<<!/<;<<%}(}%%==}}}%-11-.+++/++",
"@;;(((((((;@>;|%/<[!<%<<%%#%=}}}=}}}}$11(+++++++",
"$((=(=((($(;->@<[[[/%%__!/[[=*}}}}}}*&&1-{--++++",
"(;(((=($$$;@>>,/[[//<<//<%%%*}*}}||}&*#&>>{+++++",
">2>;;;;;;@@->>'//!//[<<[<%%}*}==}||*&&&#<>>{+---",
";->>>>>---@->{^/!![<<[_~_/[}||==}||=*#%#[[{>{---",
"*&$;-->>>-;->,^///[<[!]^~/#}|||=}||==&#&#.+{>{--",
"%&%&**$;-->>>~^/#[[<+_~_![%=1||=*==||*####.[>>--",
"###%}}&**(;;+^'[%%<[[!/<#%}|11|=||==|=&#[#[.+>>+",
"|=%#<[#%&***.^'/<||(%%==|||111||1||===*##[#..->>",
"1111|}#[<[#%:):/[}11=}*|11111|||1|||==*&#[.[:.>>",
"1111111|=}%#~^:/[%|%<<#=1||111||1||||=*&#[...:/>",
"1111|||1111|.^~/[}}[[<}1|=|1111111111|&&&#..::'-",
"1|1111111111/^:[#=%[[=1|}=1111||((}}(|=&&#.:::':",
"1||||||==||1[~![%#/[%|=%%(((((;;;;;;;(=&&#.:::''",
"|1||||(33((|#!![[!![[<<+;;;;;;;;;;;;;;;(&##.::''",
"((1((322331|%!_!.__!{{----<------+++<<<;;$#.::''",
"1(3332231111%_~~~444{{{---{{{{{+[<%%}%}%%%(#[.''",
"13232223111=/_~_444{{{{{{{{+<<}(|11111|||=|11#:'",
"32222231=<[!!!44444{{{{{[<}|11111111111111=*}<_~",
"2222223%_~_!!44444444{%}|=}}}*||111111|=%[!_____",
"222322;!]]~!4444444+}|=}<<[[[/[[#%}}%%[!_]]]]]]~",
"222322<_~~_{{4444/%=}#[////!!_~~~_!////_~]]]]]]]",
"2223;<#[//{{{444<*}</!!/!_~~]^]]]~_!!//!!~~]]~_!"};
