/* XPM */
/* c:\windows\profiles\tinou\Application Data\Microsoft\Installer\{9011040C-6000-11D3-8CFE-0150048383C9}\pptico.exe */
static char *icon[] = {
"48 48 256 2",
"01 c #FFFFFF",
"02 c #4A1415",
"03 c #965051",
"04 c #914E51",
"05 c #411013",
"06 c #67272A",
"07 c #8D4C51",
"08 c #3A0C11",
"09 c #864950",
"0A c #33080E",
"0B c #824750",
"0C c #2C050D",
"0D c #7D4550",
"0E c #7A4450",
"0F c #794350",
"10 c #774250",
"11 c #FFFEFF",
"12 c #EEC268",
"13 c #ECBB63",
"14 c #FFE5B5",
"15 c #E9B35D",
"16 c #E6A856",
"17 c #FEDBAA",
"18 c #FCD29F",
"19 c #E29B4D",
"1A c #FFF5EB",
"1B c #FFFCF9",
"1C c #FFFEFD",
"1D c #DE8E44",
"1E c #FBC28F",
"1F c #FCC897",
"20 c #DB833C",
"21 c #FDD9BB",
"22 c #FFEAD9",
"23 c #D97B36",
"24 c #F8B37D",
"25 c #FFECDD",
"26 c #D67431",
"27 c #D87734",
"28 c #D77834",
"29 c #FFA161",
"2A c #F6A46D",
"2B c #FCB888",
"2C c #EFC2A4",
"2D c #FBECE2",
"2E c #FFF2E9",
"2F c #FDF2EA",
"30 c #FFF8F3",
"31 c #D46B2B",
"32 c #FD8338",
"33 c #D5702F",
"34 c #FC924D",
"35 c #FF9A58",
"36 c #F79B63",
"37 c #FBA973",
"38 c #FFEADD",
"39 c #FFF4ED",
"3A c #CF5F22",
"3B c #B85C2A",
"3C c #F27C3C",
"3D c #FC8744",
"3E c #E3793F",
"3F c #FCC09F",
"40 c #FCC3A4",
"41 c #FCC6A7",
"42 c #FDCFB6",
"43 c #FDDAC6",
"44 c #FDDBC8",
"45 c #FDDCCA",
"46 c #FEDECC",
"47 c #FEDFCE",
"48 c #FDDECD",
"49 c #FEE0CF",
"4A c #FDDFCE",
"4B c #FEE1D1",
"4C c #FEE2D2",
"4D c #FDE1D1",
"4E c #FFE4D5",
"4F c #FFE5D6",
"50 c #FDE3D4",
"51 c #FFE6D7",
"52 c #FEE8DB",
"53 c #FFE9DD",
"54 c #FFEBE0",
"55 c #FFECE1",
"56 c #FFEFE6",
"57 c #FFF0E7",
"58 c #FFF1E9",
"59 c #FEF0E8",
"5A c #FFF3EC",
"5B c #FFF6F1",
"5C c #FFFAF7",
"5D c #D36428",
"5E c #E46B2F",
"5F c #CD622B",
"60 c #C45E29",
"61 c #ED7032",
"62 c #EF7336",
"63 c #FF7C3B",
"64 c #E47136",
"65 c #AF582A",
"66 c #E2733C",
"67 c #A4542B",
"68 c #DD743C",
"69 c #F5844A",
"6A c #E57B45",
"6B c #E6804E",
"6C c #F68E57",
"6D c #E58656",
"6E c #E58E62",
"6F c #E6976E",
"70 c #E79B75",
"71 c #E7A07C",
"72 c #E8A888",
"73 c #FCBB98",
"74 c #FDC7AA",
"75 c #FDC9AD",
"76 c #FDCBB0",
"77 c #FDCDB3",
"78 c #FDD0B8",
"79 c #FED2BB",
"7A c #EEC5B0",
"7B c #FDD3BD",
"7C c #FDD4BE",
"7D c #FDD6C1",
"7E c #FDD8C4",
"7F c #FDDDCC",
"80 c #FFE2D3",
"81 c #FFE3D4",
"82 c #FEE4D6",
"83 c #FFE5D8",
"84 c #FFE6D9",
"85 c #FFE7DA",
"86 c #FFE9DE",
"87 c #FFEADF",
"88 c #FFECE2",
"89 c #FFEDE4",
"8A c #FFEEE5",
"8B c #FFF1EA",
"8C c #FFF2EB",
"8D c #FFF5F0",
"8E c #FFF7F3",
"8F c #FFF9F6",
"90 c #FFFBF9",
"91 c #FFFDFC",
"92 c #E45C20",
"93 c #E86023",
"94 c #D0561F",
"95 c #EC6324",
"96 c #EE6627",
"97 c #D85B24",
"98 c #EF6A2C",
"99 c #E2662A",
"9A c #DC6329",
"9B c #E96D32",
"9C c #D96833",
"9D c #F2743A",
"9E c #F17A43",
"9F c #E6916B",
"A0 c #EA956F",
"A1 c #F9AB85",
"A2 c #FFF4EF",
"A3 c #D44E18",
"A4 c #DA531B",
"A5 c #CB4C1A",
"A6 c #E0581E",
"A7 c #F06D39",
"A8 c #ED713E",
"A9 c #C25E36",
"AA c #CB653A",
"AB c #F38153",
"AC c #FF9A71",
"AD c #EF9470",
"AE c #E48D6A",
"AF c #F09672",
"B0 c #E8926E",
"B1 c #F39A75",
"B2 c #F59E79",
"B3 c #FFF3EE",
"B4 c #FFF8F5",
"B5 c #BD3A0C",
"B6 c #C33E0F",
"B7 c #BF3F10",
"B8 c #C44212",
"B9 c #C94513",
"BA c #CF4915",
"BB c #AE4C26",
"BC c #E88966",
"BD c #D9805F",
"BE c #DD8463",
"BF c #EA8C6A",
"C0 c #ED906D",
"C1 c #E18967",
"C2 c #FFF7F4",
"C3 c #AB2901",
"C4 c #B12F04",
"C5 c #B33106",
"C6 c #B63308",
"C7 c #B9370A",
"C8 c #B65535",
"C9 c #AB5235",
"CA c #B55B3E",
"CB c #D97252",
"CC c #B15E43",
"CD c #DD7858",
"CE c #CC6E51",
"CF c #E17D5C",
"D0 c #D17556",
"D1 c #E3805F",
"D2 c #D27659",
"D3 c #E58463",
"D4 c #D57B5C",
"D5 c #B96F57",
"D6 c #CE8973",
"D7 c #D99D89",
"D8 c #DBA390",
"D9 c #FFFCFB",
"DA c #B24220",
"DB c #B9593C",
"DC c #D26749",
"DD c #D66C4D",
"DE c #C6684D",
"DF c #C96C50",
"E0 c #CD7155",
"E1 c #BB5941",
"E2 c #B85740",
"E3 c #BB5B43",
"E4 c #BF5F46",
"E5 c #C2634A",
"E6 c #E0775B",
"E7 c #AC4A34",
"E8 c #B24E39",
"E9 c #B5543E",
"EA c #973929",
"EB c #A2402E",
"EC c #A74230",
"ED c #AB4532",
"EE c #9B3D2D",
"EF c #903729",
"F0 c #873327",
"F1 c #782B22",
"F2 c #A23E32",
"F3 c #88241C",
"F4 c #B54239",
"F5 c #7E352F",
"F6 c #A95C55",
"F7 c #67231E",
"F8 c #9C4A44",
"F9 c #670A06",
"FA c #571B19",
"FB c #A15451",
"FC c #9D5251",
"FD c #9A5251",
"FE c #FFFBFB",
"FF c #FFFEFE",
"   c None",
"                                                                                                ",
"                                                                                                ",
"                                                                                                ",
"                                                                                                ",
"        A0A0B0B09F9FAEC1C1C1BEBEBDBDD4D4D2D0E0CECEDFDEE5E5E4E4E3E1E2E9E9E8E8E8E7E7E7EDED        ",
"        A014141414141717171818181F1E1E1E2B242437372A3636366C6C6C69699E3C9D626161989896EC        ",
"        A01412121212131313151515161616191919191D1D1D2020232327263331315D5D3A3A3A949496EC        ",
"        A01412B2B2B2B2B1B1B1AFAFADC0C0BFBFBCBCD3D3D1CFCFCDCDCDCBCBCBDDDDDDDDDCDCDC6296EB        ",
"        B01412B2010101FFFF1C1C9191D9FE1B905C5C8F8F8F30308E5B5B8D8D39395A8C2E5858FB6295EB        ",
"        9F1412B201FF01FF1C1C91911B1B9090905C5C8F8F30308E5B8D8D8D39395A5A8B585857FB6295EE        ",
"        AE1713B2FF11FF1C1C91911B1B901B905C5C8F8FB4C28E8E5B8DA239395A8C8B8B575756FB6195EE        ",
"        AE1713B1FFFF1C72727272717170706F9F6E6E6D6D6D6B6A6A3E6664645E5E9999565656FB9B93EE        ",
"        C11713B1FF1C1C72010101010101010101010101FF9190B48D5A5788534F4B7F9957568AFB9B93EA        ",
"        C11815AF1C1C9172010101010101010101010101FFD95C8E398B89878450474499568A89FC5E92EF        ",
"        BE1815AF1C9191720101010101010101010101019190B45B5A5688534F4D7F4399898989FC5E92EF        ",
"        BE1815AF91911B7201012B2B2BA1A1A1A1B2B2B1AFC0BFBCD3D3D1CFE6E6447E9A898988FD99A6F0        ",
"        BD1F16AD91D91B710101B0B0B09FAEC1BEBDD4D2E0DFDEE5E4E3E2E9E9E9437D9A888854FD99A6F0        ",
"        BD1E16C0D91B90710101B0B0B09FAEC1BEBDD4D2E0DFDEE5E4E3E2E9E9E97E7C9A555454039AA4F0        ",
"        D41E16C01B1B90710101010101010101010191908F5B39598953834C48437D795D555454039AA4F1        ",
"        D42B16BF90905C70010101010101010101FFD95C8E8D8B5654528249457E7C785D5454380397A4F1        ",
"        D22B19BF90905C6F0101010101010101011C908F5B39578886514C46437D79425D5438530497A3F1        ",
"        D02419BC905C5C9F0101010148D7CCF8F8CCD7848D8B5654528249457E7C78775F8653520497A3F1        ",
"        E02419BC5C5C8F9F0101017CCC2C2252F5F3F3CC7A598935684C3C66AADB42765F5353520497BAF7        ",
"        CE371DD38F8F306E01017FCC2C52222506F9EAF2C97B5468F449AAA9C8E77775605252520794BAF7        ",
"        DF2A1DD38F308E6E0101D7322125302F06EABB6B5FD638844C46447D79427675605252850794B9F7        ",
"        DE2A1DD130308E6D0101CC3721251A2D06DA69363ED5523568453C68AADB75746085858407A5B9F7        ",
"        DE3620D1308E5B6D0101F8633D6C37379EAB6C363DF68468F444AAA9C8E775413B85848409A5B8FA        ",
"        E53620CF8E5B5B6B0101F8352B1E1F739EAB6C363DF6824B7F437D79777574403B84515109A5B6FA        ",
"        E46C23CD8E5B8D6B0101CC3D293737ACA8ABAB6C3DCC5035687D3C66AADB41403B84835109A5B6FA        ",
"        E46C23CD5B5B8D6A0101D73B342929AC9EABAB699CD64B68F47DAAA9C8E7403F6551514F09B9B5FA        ",
"        E36C28CD8D8D393E01017FCC9C3435369EAB699CC97B47447E7B78777541403F654F4F4E0BB8B502        ",
"        E16926CB8D39B3660101017CCC9C3C9DA79D5FCA724D46437C79427674403F3F654F4E4E0BB8C702        ",
"        E26933CBA2395A64010101FF49D8D5F8F8CCD67E504A447E7B78777541403F73674E4E4E0BB7C702        ",
"        E99E31CB39395A640101119190B45B5A5988534F4D46437D79427674403F3F73674E4E810DB7C605        ",
"        E99E31DD398C8C5E0101FFD95CC2398B8A54854E47447E7B78777541403F7373674E81810DB5C505        ",
"        E83C5DDD5A8B2E5E010191908F5B5A578886834B46437D79427674403F3F7373678180800DC7C408        ",
"        E8625DDD2E58585E99999999999A9A9A5D5D5F5F6060603B3B3B656565676767678080800EC7C408        ",
"        E8623ADD58575657568A898888555454383853535285858451514F4F4E4E4E8180804C4C0FC7C30A        ",
"        E7613ADC585756568A898988545454873853525285858484834F4E4E814E8180804C4C4C0FC6C30A        ",
"        E7983ADC57568A8A898888555454388653525285855151834F4F4E4E8181814C4C4C4C4C0FC5C30A        ",
"        ED9894DCFBFBFBFBFBFCFCFCFDFD0303030404070707070909090B0B0B0D0D0D0E0E0F1010C5C30C        ",
"        ED9694626261619B9B5E5E99999A9A979797949494A5A5A5B9B8B8B7B7B5B5C7C7C6C6C5C5C4C30C        ",
"        ED96969595939393929292A6A6A4A4A4A3A3BABAB9B9B8B6B6B5B5C7C7C6C5C5C4C4C3C3C3C3C30C        ",
"        EDECECECEBEBEEEEEAEAEFEFF0F0F0F1F1F1F1F1F7F7F7F7FAFAFAFA02020205050808080A0A0A0C        ",
"                                                                                                ",
"                                                                                                ",
"                                                                                                ",
"                                                                                                "};
