/* XPM */
static char * Icone32_xpm[] = {
"32 32 961 2",
"  	c None",
". 	c #535157",
"+ 	c #535257",
"@ 	c #545257",
"# 	c #545358",
"$ 	c #555459",
"% 	c #565459",
"& 	c #57555A",
"* 	c #58575C",
"= 	c #545357",
"- 	c #565359",
"; 	c #4D4B4F",
"> 	c #4C494D",
", 	c #4A474A",
"' 	c #37302F",
") 	c #4A4649",
"! 	c #545155",
"~ 	c #535154",
"{ 	c #545154",
"] 	c #545256",
"^ 	c #524E50",
"/ 	c #4F4C4E",
"( 	c #4E4B4C",
"_ 	c #4F4C4D",
": 	c #4D4B4D",
"< 	c #4C494B",
"[ 	c #494749",
"} 	c #484548",
"| 	c #484549",
"1 	c #48464A",
"2 	c #58575A",
"3 	c #59585B",
"4 	c #5A595B",
"5 	c #5C5A5D",
"6 	c #5C5B5D",
"7 	c #464445",
"8 	c #413E3F",
"9 	c #484749",
"0 	c #33302F",
"a 	c #473B34",
"b 	c #393432",
"c 	c #3F3129",
"d 	c #3C322D",
"e 	c #474447",
"f 	c #4E4B4E",
"g 	c #575457",
"h 	c #575558",
"i 	c #575357",
"j 	c #575356",
"k 	c #555152",
"l 	c #534F4F",
"m 	c #524F4F",
"n 	c #514D4D",
"o 	c #4D4A4A",
"p 	c #4D494B",
"q 	c #4D4A4B",
"r 	c #4D4A4C",
"s 	c #616060",
"t 	c #626261",
"u 	c #605F60",
"v 	c #605F5F",
"w 	c #42403F",
"x 	c #261F1B",
"y 	c #29211B",
"z 	c #251C17",
"A 	c #35241B",
"B 	c #4E3628",
"C 	c #3C281D",
"D 	c #442C1F",
"E 	c #382824",
"F 	c #544848",
"G 	c #595456",
"H 	c #585456",
"I 	c #595557",
"J 	c #595455",
"K 	c #585455",
"L 	c #565253",
"M 	c #565252",
"N 	c #555151",
"O 	c #54504F",
"P 	c #524E4D",
"Q 	c #534F4E",
"R 	c #524F4E",
"S 	c #514E4D",
"T 	c #676666",
"U 	c #666564",
"V 	c #656462",
"W 	c #656362",
"X 	c #646261",
"Y 	c #636260",
"Z 	c #424141",
"` 	c #353130",
" .	c #343331",
"..	c #221E1A",
"+.	c #33241A",
"@.	c #3A281D",
"#.	c #322116",
"$.	c #40281B",
"%.	c #412A1D",
"&.	c #2F1D14",
"*.	c #391E13",
"=.	c #582014",
"-.	c #59261B",
";.	c #56322B",
">.	c #493939",
",.	c #494041",
"'.	c #5B5557",
").	c #5A5556",
"!.	c #585454",
"~.	c #575351",
"{.	c #55524F",
"].	c #565250",
"^.	c #555250",
"/.	c #53514F",
"(.	c #706F6D",
"_.	c #6F6C6C",
":.	c #6C6968",
"<.	c #6A6664",
"[.	c #6A6563",
"}.	c #5B5856",
"|.	c #2A2726",
"1.	c #1C1816",
"2.	c #18130F",
"3.	c #1B140E",
"4.	c #231911",
"5.	c #251C12",
"6.	c #281C13",
"7.	c #2C1C13",
"8.	c #311F15",
"9.	c #1B110B",
"0.	c #35130C",
"a.	c #5A2014",
"b.	c #6D2819",
"c.	c #792F1F",
"d.	c #5D2C23",
"e.	c #543735",
"f.	c #4B3838",
"g.	c #524A49",
"h.	c #625C5A",
"i.	c #5F5958",
"j.	c #5C5555",
"k.	c #5A5552",
"l.	c #585450",
"m.	c #585451",
"n.	c #585350",
"o.	c #56524F",
"p.	c #767571",
"q.	c #757470",
"r.	c #74716E",
"s.	c #726F6B",
"t.	c #6B6764",
"u.	c #444240",
"v.	c #24211F",
"w.	c #17120F",
"x.	c #1B130E",
"y.	c #1C140E",
"z.	c #1D140D",
"A.	c #1B130C",
"B.	c #211710",
"C.	c #130D07",
"D.	c #210E08",
"E.	c #571F15",
"F.	c #622317",
"G.	c #602319",
"H.	c #3C201E",
"I.	c #3E2B2D",
"J.	c #4D3637",
"K.	c #4D3636",
"L.	c #563E3C",
"M.	c #625B58",
"N.	c #5E5755",
"O.	c #5C5653",
"P.	c #5B5451",
"Q.	c #5A5450",
"R.	c #595350",
"S.	c #7F7D79",
"T.	c #7F7D78",
"U.	c #7E7B76",
"V.	c #7A7772",
"W.	c #726E6A",
"X.	c #545250",
"Y.	c #1C1917",
"Z.	c #19110C",
"`.	c #1E150F",
" +	c #1B150E",
".+	c #1A130C",
"++	c #221710",
"@+	c #1C140D",
"#+	c #1B0C09",
"$+	c #541E15",
"%+	c #652418",
"&+	c #5C2117",
"*+	c #28181A",
"=+	c #3C2C30",
"-+	c #35262B",
";+	c #37262A",
">+	c #483235",
",+	c #5E4241",
"'+	c #6E524F",
")+	c #665A57",
"!+	c #5E5653",
"~+	c #605754",
"{+	c #5D5552",
"]+	c #5C5451",
"^+	c #898781",
"/+	c #898680",
"(+	c #89847E",
"_+	c #837F79",
":+	c #4D4946",
"<+	c #31302E",
"[+	c #171412",
"}+	c #18110D",
"|+	c #1A130D",
"1+	c #22170F",
"2+	c #251911",
"3+	c #1E150E",
"4+	c #26110C",
"5+	c #5E2318",
"6+	c #592016",
"7+	c #341817",
"8+	c #3C2C31",
"9+	c #3C2B30",
"0+	c #2B1E23",
"a+	c #2B1F24",
"b+	c #453135",
"c+	c #664C4D",
"d+	c #7C636A",
"e+	c #837178",
"f+	c #685E62",
"g+	c #625956",
"h+	c #635A58",
"i+	c #615B57",
"j+	c #605956",
"k+	c #97948B",
"l+	c #959189",
"m+	c #85817B",
"n+	c #42403C",
"o+	c #1B1816",
"p+	c #130F0B",
"q+	c #18110E",
"r+	c #17100D",
"s+	c #170F0B",
"t+	c #1A120C",
"u+	c #150F0A",
"v+	c #0C0805",
"w+	c #3B1710",
"x+	c #481B12",
"y+	c #351A1A",
"z+	c #2D2128",
"A+	c #3A2C31",
"B+	c #251B20",
"C+	c #231A20",
"D+	c #312328",
"E+	c #3D282B",
"F+	c #451F1E",
"G+	c #74291D",
"H+	c #A13F2A",
"I+	c #81594E",
"J+	c #615C58",
"K+	c #6A6561",
"L+	c #696460",
"M+	c #68625E",
"N+	c #67615C",
"O+	c #A19E92",
"P+	c #A09D92",
"Q+	c #8A877D",
"R+	c #6F6D67",
"S+	c #2D2B28",
"T+	c #191511",
"U+	c #19130E",
"V+	c #17110E",
"W+	c #16100D",
"X+	c #16100C",
"Y+	c #18120D",
"Z+	c #17110C",
"`+	c #18110B",
" @	c #0D0906",
".@	c #30120E",
"+@	c #2D1817",
"@@	c #281E24",
"#@	c #2B2028",
"$@	c #31252B",
"%@	c #241B20",
"&@	c #181216",
"*@	c #1B0D0E",
"=@	c #341412",
"-@	c #521F1B",
";@	c #823328",
">@	c #B25841",
",@	c #BD7B52",
"'@	c #776B5E",
")@	c #726D68",
"!@	c #706B66",
"~@	c #6F6962",
"{@	c #6E6761",
"]@	c #ABA89A",
"^@	c #AAA69A",
"/@	c #8E8B80",
"(@	c #56534C",
"_@	c #2C2D29",
":@	c #1A1713",
"<@	c #18130E",
"[@	c #19140F",
"}@	c #17120D",
"|@	c #18110C",
"1@	c #17100A",
"2@	c #130C08",
"3@	c #171113",
"4@	c #1D171D",
"5@	c #231C23",
"6@	c #271F27",
"7@	c #3A2F37",
"8@	c #3F333A",
"9@	c #43363D",
"0@	c #44353A",
"a@	c #382A30",
"b@	c #35282C",
"c@	c #423640",
"d@	c #706170",
"e@	c #C8A9A0",
"f@	c #8A7868",
"g@	c #7B786E",
"h@	c #7A766D",
"i@	c #787169",
"j@	c #766E67",
"k@	c #B4B2A1",
"l@	c #B4B1A0",
"m@	c #AFAB9C",
"n@	c #868277",
"o@	c #423D36",
"p@	c #241F1A",
"q@	c #1B1610",
"r@	c #140F0C",
"s@	c #140F0B",
"t@	c #14100B",
"u@	c #151111",
"v@	c #1C191F",
"w@	c #231E24",
"x@	c #241F25",
"y@	c #1E1A21",
"z@	c #1F1A22",
"A@	c #251F28",
"B@	c #2C242E",
"C@	c #392F39",
"D@	c #433640",
"E@	c #50414B",
"F@	c #43353D",
"G@	c #7D6A6F",
"H@	c #5F535D",
"I@	c #817480",
"J@	c #8E8588",
"K@	c #827D71",
"L@	c #817B6F",
"M@	c #7F786D",
"N@	c #7D756B",
"O@	c #BFBDAC",
"P@	c #C0BCAB",
"Q@	c #BFBAA9",
"R@	c #979284",
"S@	c #413831",
"T@	c #2B1E17",
"U@	c #211610",
"V@	c #201710",
"W@	c #16110C",
"X@	c #130D0A",
"Y@	c #110D0B",
"Z@	c #17161D",
"`@	c #1A1820",
" #	c #19161D",
".#	c #120B0D",
"+#	c #1A100D",
"@#	c #150E09",
"##	c #140C08",
"$#	c #150D09",
"%#	c #191110",
"&#	c #211715",
"*#	c #271D1E",
"=#	c #2E2121",
"-#	c #62565C",
";#	c #978894",
">#	c #766875",
",#	c #6B6268",
"'#	c #8C8576",
")#	c #898173",
"!#	c #877E6F",
"~#	c #867D6E",
"{#	c #C8C5B4",
"]#	c #CBC7B6",
"^#	c #BCB9A9",
"/#	c #6B675D",
"(#	c #231D18",
"_#	c #1A130F",
":#	c #1A110C",
"<#	c #1F1710",
"[#	c #18140E",
"}#	c #141210",
"|#	c #151317",
"1#	c #100D10",
"2#	c #161216",
"3#	c #25100A",
"4#	c #311910",
"5#	c #1B110C",
"6#	c #20140E",
"7#	c #251810",
"8#	c #311E15",
"9#	c #382216",
"0#	c #402619",
"a#	c #4D2D1D",
"b#	c #55392A",
"c#	c #625156",
"d#	c #A99BA7",
"e#	c #7E747A",
"f#	c #928978",
"g#	c #908876",
"h#	c #8E8574",
"i#	c #8D8473",
"j#	c #D0CCB9",
"k#	c #D1CEBC",
"l#	c #CDCAB8",
"m#	c #9E9B8B",
"n#	c #6A665B",
"o#	c #4A463E",
"p#	c #1F1B15",
"q#	c #1D1A13",
"r#	c #17150F",
"s#	c #15120D",
"t#	c #120F0A",
"u#	c #100B07",
"v#	c #19171C",
"w#	c #252027",
"x#	c #361E14",
"y#	c #34180F",
"z#	c #24110B",
"A#	c #281911",
"B#	c #261911",
"C#	c #2F1F16",
"D#	c #3E291D",
"E#	c #422B1E",
"F#	c #693F2A",
"G#	c #7C5740",
"H#	c #74553F",
"I#	c #80533A",
"J#	c #76686D",
"K#	c #928997",
"L#	c #8D8573",
"M#	c #9B927F",
"N#	c #99917F",
"O#	c #D3CFB9",
"P#	c #D4CFBA",
"Q#	c #D2CEB9",
"R#	c #C3BEAA",
"S#	c #736E61",
"T#	c #4A453C",
"U#	c #201D17",
"V#	c #1E1912",
"W#	c #1B1711",
"X#	c #16120C",
"Y#	c #120D09",
"Z#	c #110C07",
"`#	c #23212B",
" $	c #272228",
".$	c #23130D",
"+$	c #371B12",
"@$	c #29130C",
"#$	c #20120C",
"$$	c #1D120C",
"%$	c #321F16",
"&$	c #3F2F24",
"*$	c #5A3E2E",
"=$	c #945F41",
"-$	c #C6A279",
";$	c #A77658",
">$	c #AD6C4A",
",$	c #836C5C",
"'$	c #68616B",
")$	c #9D9682",
"!$	c #A49C89",
"~$	c #A49C8A",
"{$	c #A49D8B",
"]$	c #D7D1B7",
"^$	c #D8D2BB",
"/$	c #D8D3BD",
"($	c #D7D3C1",
"_$	c #A4A195",
":$	c #504B43",
"<$	c #1D1711",
"[$	c #14100C",
"}$	c #13100B",
"|$	c #120E0A",
"1$	c #100C09",
"2$	c #252431",
"3$	c #231D22",
"4$	c #120A06",
"5$	c #27150E",
"6$	c #40251A",
"7$	c #2C160D",
"8$	c #1D0E09",
"9$	c #301F17",
"0$	c #433126",
"a$	c #664636",
"b$	c #9A6346",
"c$	c #D2A77B",
"d$	c #D09D76",
"e$	c #A95D3E",
"f$	c #6A4F3E",
"g$	c #7E786C",
"h$	c #B0AA94",
"i$	c #AFA993",
"j$	c #AFA994",
"k$	c #AFA995",
"l$	c #DAD4BD",
"m$	c #DBD6C0",
"n$	c #DBD6C1",
"o$	c #B7B4A5",
"p$	c #5E5B54",
"q$	c #302A24",
"r$	c #221A14",
"s$	c #1D150F",
"t$	c #130E0A",
"u$	c #140F0A",
"v$	c #110E10",
"w$	c #2D2B39",
"x$	c #231F25",
"y$	c #130C09",
"z$	c #160B07",
"A$	c #1F0F09",
"B$	c #24130B",
"C$	c #20110A",
"D$	c #2F1F17",
"E$	c #422D24",
"F$	c #624333",
"G$	c #A46F51",
"H$	c #E3C29C",
"I$	c #DCB694",
"J$	c #B16543",
"K$	c #A37F63",
"L$	c #B1AC95",
"M$	c #BAB49C",
"N$	c #BAB49D",
"O$	c #BAB59F",
"P$	c #B9B49E",
"Q$	c #DBD5BB",
"R$	c #DFD8BF",
"S$	c #DDD7BD",
"T$	c #D5D0BB",
"U$	c #969384",
"V$	c #4D4941",
"W$	c #211D17",
"X$	c #1C1913",
"Y$	c #1B160F",
"Z$	c #130F0A",
"`$	c #13100E",
" %	c #14141B",
".%	c #282630",
"+%	c #211C22",
"@%	c #1E181B",
"#%	c #190E0A",
"$%	c #190B05",
"%%	c #200F09",
"&%	c #1F120C",
"*%	c #37251C",
"=%	c #483327",
"-%	c #634433",
";%	c #AC7B5B",
">%	c #EBCEA9",
",%	c #C8936F",
"'%	c #AD5C3D",
")%	c #B17656",
"!%	c #B5AA93",
"~%	c #C4BEA6",
"{%	c #C5C0A7",
"]%	c #C4C0A9",
"^%	c #C4BFA7",
"/%	c #86807D",
"(%	c #979188",
"_%	c #C0BCA6",
":%	c #E0DAC2",
"<%	c #D7D2BC",
"[%	c #A9A595",
"}%	c #4C4941",
"|%	c #2B2621",
"1%	c #181312",
"2%	c #1A161A",
"3%	c #201D27",
"4%	c #22212C",
"5%	c #28242F",
"6%	c #201A20",
"7%	c #22191C",
"8%	c #190D0A",
"9%	c #21110A",
"0%	c #291911",
"a%	c #3A271E",
"b%	c #4F382B",
"c%	c #664838",
"d%	c #AC7F5D",
"e%	c #DAB78B",
"f%	c #C28860",
"g%	c #8F4C33",
"h%	c #9B5F46",
"i%	c #B8A890",
"j%	c #CBC5AE",
"k%	c #CCC6AF",
"l%	c #CBC6B0",
"m%	c #CBC6AF",
"n%	c #473C46",
"o%	c #423740",
"p%	c #382E35",
"q%	c #463E43",
"r%	c #564F50",
"s%	c #41383B",
"t%	c #27181C",
"u%	c #2C1B21",
"v%	c #2F1E25",
"w%	c #322127",
"x%	c #36242A",
"y%	c #341A1C",
"z%	c #3D1C1B",
"A%	c #341818",
"B%	c #30181B",
"C%	c #361E20",
"D%	c #2F1E20",
"E%	c #201414",
"F%	c #271611",
"G%	c #3A231A",
"H%	c #503528",
"I%	c #674736",
"J%	c #936145",
"K%	c #A76544",
"L%	c #C68F62",
"M%	c #A27E61",
"N%	c #A9A090",
"O%	c #CEC9B5",
"P%	c #D2CEB8",
"Q%	c #241A24",
"R%	c #241821",
"S%	c #23171E",
"T%	c #391A1C",
"U%	c #4B1917",
"V%	c #4A1613",
"W%	c #4C1411",
"X%	c #541915",
"Y%	c #541B17",
"Z%	c #521914",
"`%	c #571913",
" &	c #571812",
".&	c #571711",
"+&	c #521610",
"@&	c #45130E",
"#&	c #471510",
"$&	c #3F1411",
"%&	c #341410",
"&&	c #261515",
"*&	c #2E1C18",
"=&	c #45271C",
"-&	c #523326",
";&	c #82553D",
">&	c #B07C57",
",&	c #B57C57",
"'&	c #AE9478",
")&	c #DAD7C4",
"!&	c #D8D5C3",
"~&	c #D7D3C0",
"{&	c #D7D3BF",
"]&	c #41282F",
"^&	c #53201D",
"/&	c #731D10",
"(&	c #6F1A0F",
"_&	c #62160E",
":&	c #661810",
"<&	c #5F1711",
"[&	c #4C120E",
"}&	c #48100D",
"|&	c #49100D",
"1&	c #480F0C",
"2&	c #430E0C",
"3&	c #3B0D0B",
"4&	c #3A0D0A",
"5&	c #400E0B",
"6&	c #3F0D0A",
"7&	c #3E0E0A",
"8&	c #330E0A",
"9&	c #38110D",
"0&	c #3E1918",
"a&	c #3F2424",
"b&	c #3A221B",
"c&	c #724832",
"d&	c #B88760",
"e&	c #CB9F72",
"f&	c #B9AC94",
"g&	c #DEDAC6",
"h&	c #DDDAC5",
"i&	c #DBD9C5",
"j&	c #DBD8C5",
"k&	c #DBD9C4",
"l&	c #DBD8C4",
"m&	c #762319",
"n&	c #701E12",
"o&	c #62190F",
"p&	c #6B1C12",
"q&	c #611912",
"r&	c #5B1610",
"s&	c #54140E",
"t&	c #54120C",
"u&	c #50100A",
"v&	c #521009",
"w&	c #350A07",
"x&	c #180504",
"y&	c #0F0503",
"z&	c #0D0504",
"A&	c #130807",
"B&	c #1A0C09",
"C&	c #28110E",
"D&	c #27130E",
"E&	c #28140F",
"F&	c #2A110C",
"G&	c #411916",
"H&	c #482E31",
"I&	c #48281C",
"J&	c #8E5A3C",
"K&	c #C0A077",
"L&	c #C9C1AC",
"M&	c #E1DDC8",
"N&	c #DFDDC8",
"O&	c #DFDCC8",
"P&	c #DEDBC8",
"Q&	c #DEDCC7",
"R&	c #DEDBC6",
"S&	c #57130D",
"T&	c #5B140E",
"U&	c #6A1A14",
"V&	c #5E1712",
"W&	c #5B1511",
"X&	c #59130F",
"Y&	c #55100B",
"Z&	c #57110A",
"`&	c #57130B",
" *	c #2E0B07",
".*	c #080503",
"+*	c #0E0A07",
"@*	c #1B130F",
"#*	c #201712",
"$*	c #261B15",
"%*	c #271B15",
"&*	c #261B14",
"**	c #241912",
"=*	c #2D1D15",
"-*	c #352217",
";*	c #321F15",
">*	c #372217",
",*	c #4D3123",
"'*	c #663C28",
")*	c #A07355",
"!*	c #CCC8B4",
"~*	c #E4E1CD",
"{*	c #E3E1CC",
"]*	c #E2DFCC",
"^*	c #E2DFCB",
"/*	c #68130E",
"(*	c #6A1610",
"_*	c #621611",
":*	c #5D1410",
"<*	c #56110D",
"[*	c #540F0C",
"}*	c #6D150C",
"|*	c #70190E",
"1*	c #280E09",
"2*	c #0E0806",
"3*	c #0F0B09",
"4*	c #251A14",
"5*	c #2E2019",
"6*	c #231A14",
"7*	c #140E0B",
"8*	c #0E0B08",
"9*	c #0C0907",
"0*	c #0D0908",
"a*	c #0D0907",
"b*	c #090605",
"c*	c #0C0806",
"d*	c #312017",
"e*	c #684833",
"f*	c #8D6B50",
"g*	c #ADA493",
"h*	c #E8E6D4",
"i*	c #E7E4D3",
"j*	c #E6E3D3",
"k*	c #E5E2D1",
"l*	c #73180E",
"m*	c #6A150E",
"n*	c #60140C",
"o*	c #5D140C",
"p*	c #871F0F",
"q*	c #601B0E",
"r*	c #27140E",
"s*	c #130E0B",
"t*	c #150F0C",
"u*	c #080605",
"v*	c #040203",
"w*	c #090706",
"x*	c #100C0A",
"y*	c #1D1411",
"z*	c #231914",
"A*	c #3D2F26",
"B*	c #3A2B22",
"C*	c #201711",
"D*	c #2F221A",
"E*	c #433429",
"F*	c #32261D",
"G*	c #5F4735",
"H*	c #8D6D4E",
"I*	c #AA9E8D",
"J*	c #E0DDCD",
"K*	c #E8E5D4",
"L*	c #E8E5D3",
"M*	c #E7E4D2",
"N*	c #6A180E",
"O*	c #68180E",
"P*	c #791E0F",
"Q*	c #872210",
"R*	c #8B2411",
"S*	c #5F2012",
"T*	c #201610",
"U*	c #1B1410",
"V*	c #251913",
"W*	c #070505",
"X*	c #050404",
"Y*	c #0F0B0A",
"Z*	c #201713",
"`*	c #271B16",
" =	c #2C211A",
".=	c #3C312A",
"+=	c #52473F",
"@=	c #1F1712",
"#=	c #140D09",
"$=	c #251A15",
"%=	c #2A221A",
"&=	c #1A130E",
"*=	c #574333",
"==	c #594131",
"-=	c #86674E",
";=	c #A99C88",
">=	c #EAE7D5",
",=	c #E9E6D4",
"'=	c #E9E6D3",
")=	c #9E3416",
"!=	c #AC3A18",
"~=	c #9B3418",
"{=	c #732B19",
"]=	c #281C16",
"^=	c #25201B",
"/=	c #211A15",
"(=	c #110B09",
"_=	c #140F0D",
":=	c #2A1E18",
"<=	c #2C1E17",
"[=	c #060403",
"}=	c #0E0907",
"|=	c #201612",
"1=	c #30221C",
"2=	c #2E241E",
"3=	c #27221D",
"4=	c #39332D",
"5=	c #2D1F17",
"6=	c #372419",
"7=	c #3B2519",
"8=	c #392217",
"9=	c #180F0A",
"0=	c #1E1510",
"a=	c #6F553F",
"b=	c #93785C",
"c=	c #6D5741",
"d=	c #EAE7D6",
"e=	c #EBE8D7",
"f=	c #EBE8D5",
"g=	c #A03E1A",
"h=	c #712F17",
"i=	c #452A20",
"j=	c #282420",
"k=	c #23221F",
"l=	c #17110D",
"m=	c #251D19",
"n=	c #241B16",
"o=	c #100B08",
"p=	c #100B09",
"q=	c #281D17",
"r=	c #34261D",
"s=	c #261F1A",
"t=	c #32261E",
"u=	c #523D2F",
"v=	c #684F3F",
"w=	c #624535",
"x=	c #5A3828",
"y=	c #643928",
"z=	c #643927",
"A=	c #533224",
"B=	c #4A2D1F",
"C=	c #603E2B",
"D=	c #655341",
"E=	c #746753",
"F=	c #CAC8B8",
"G=	c #EDEAD7",
"H=	c #110F0C",
"I=	c #1F1E1A",
"J=	c #222220",
"K=	c #272A28",
"L=	c #2D302D",
"M=	c #36302A",
"N=	c #27201A",
"O=	c #302922",
"P=	c #332822",
"Q=	c #39291F",
"R=	c #251A13",
"S=	c #19110D",
"T=	c #241913",
"U=	c #18100D",
"V=	c #413127",
"W=	c #6B5545",
"X=	c #947763",
"Y=	c #A17F6B",
"Z=	c #906C59",
"`=	c #704A38",
" -	c #7B4934",
".-	c #96553B",
"+-	c #AC6B49",
"@-	c #B4764D",
"#-	c #C7915F",
"$-	c #A9875B",
"%-	c #614D39",
"&-	c #A5977C",
"*-	c #C4C1AF",
"=-	c #F0EDDB",
"--	c #151411",
";-	c #2A2A25",
">-	c #252726",
",-	c #2E3331",
"'-	c #40433F",
")-	c #3F3730",
"!-	c #110E0C",
"~-	c #2D2620",
"{-	c #3E332C",
"]-	c #352B23",
"^-	c #362920",
"/-	c #37261D",
"(-	c #0C0606",
"_-	c #32231B",
":-	c #755743",
"<-	c #6E5442",
"[-	c #826755",
"}-	c #9B7B68",
"|-	c #A07C68",
"1-	c #845E4B",
"2-	c #80513C",
"3-	c #995A3E",
"4-	c #B9754E",
"5-	c #CB8A5A",
"6-	c #D8A56D",
"7-	c #E2C489",
"8-	c #847860",
"9-	c #5B4735",
"0-	c #A1947C",
"a-	c #D4D2C1",
"b-	c #F2EFDD",
". + @ # $ % & * = - $ ; > , ' ) ! ~ ! { ] ~ ^ / ( _ : < [ } | 1 ",
"2 3 3 3 4 4 5 6 7 8 9 0 a b c d e f g h i j k l m l m n o p q r ",
"s s s s s t u v w x y z A B C D A E F G H I J K L M N O P Q R S ",
"T U V W X Y Z `  ...+.@.#.$.%.&.*.=.-.;.>.,.J '.).).!.~.{.].^./.",
"(._.:.<.[.}.|.1.2.3.4.5.6.7.8.9.0.a.b.c.d.e.f.g.h.i.j.k.l.m.n.o.",
"p.q.r.s.t.u.v.w.x.y.z.A.B.z.C.D.E.F.G.H.I.J.K.L.g.M.N.O.P.P.Q.R.",
"S.T.U.V.W.X.Y.Z.`. +A..+++@+#+$+%+&+*+=+-+;+>+,+'+)+!+~+!+!+{+]+",
"^+/+(+_+:+<+[+}+}+|+z.1+2+3+4+5+6+7+8+9+0+a+b+c+d+e+f+g+h+M.i+j+",
"k+k+l+m+n+o+p+q+r+s+Z.t+u+v+w+x+y+z+A+B+C+D+E+F+G+H+I+J+K+L+M+N+",
"O+P+Q+R+S+T+U+V+W+X+Y+Z+`+ @.@+@@@#@$@%@&@*@=@-@;@>@,@'@)@!@~@{@",
"]@^@/@(@_@:@<@w.[@}@Y+|@1@2@3@4@5@6@7@8@9@0@a@b@c@d@e@f@g@h@i@j@",
"k@l@m@n@o@p@q@r@s@t@u+|@u@v@w@x@y@z@A@B@C@D@E@F@G@H@I@J@K@L@M@N@",
"O@P@Q@R@S@T@U@V@W@X@Y@Z@`@ #.#+#@###$#r+%#&#*#=#-#;#>#,#'#)#!#~#",
"{#]#^#/#(#_#:#<#q@[#}#|#1#2#3#4#9.5#6#7#8#9#0#a#b#c#d#e#f#g#h#i#",
"j#k#l#m#n#o#p#q#r#s#t#u#v#w#x#y#z#A#B#C#D#E#F#G#H#I#J#K#L#M#N#N#",
"O#P#Q#R#S#T#U#V#W#X#Y#Z#`# $.$+$@$#$$$%$&$*$=$-$;$>$,$'$)$!$~${$",
"]$^$/$($_$:$<$<@[$}$|$1$2$3$4$5$6$7$8$9$0$a$b$c$d$e$f$g$h$i$j$k$",
"l$m$n$o$p$q$r$s$s@t$u$v$w$x$y$z$A$B$C$D$E$F$G$H$I$J$K$L$M$N$O$P$",
"Q$R$S$T$U$V$W$X$Y$Z$`$ %.%+%@%#%$%%%&%*%=%-%;%>%,%'%)%!%~%{%]%^%",
"/%(%_%:%<%[%}%|%1%2%3%4%5%w#6%7%8%9%0%a%b%c%d%e%f%g%h%i%j%k%l%m%",
"n%o%p%q%r%s%t%u%v%w%x%y%z%A%B%C%D%E%F%G%H%I%J%K%L%M%N%O%Q#Q#P%P%",
"Q%R%S%T%U%V%W%X%Y%Z%`% &.&+&@&#&$&%&&&*&=&-&;&>&,&'&)&!&~&~&~&{&",
"]&^&/&(&_&:&<&[&}&|&1&2&3&4&5&6&7&8&9&0&a&b&c&d&e&f&g&h&i&j&k&l&",
"m&n&o&p&q&r&s&t&u&v&w&x&y&z&A&B&C&D&E&F&G&H&I&J&K&L&M&N&O&P&Q&R&",
"S&T&U&V&W&X&Y&Z&`& *.*+*@*#*$*%*&***=*-*;*>*,*'*)*!*~*{*]*]*]*^*",
"/*(*_*:*<*[*}*|*1*2*3*4*5*6*_#7*8*9*0*a*b*c*d*e*f*g*h*i*j*k*k*k*",
"l*m*n*o*|*p*q*r*s*+*r+t*u*v*w*x*y*z*A*B*C*D*E*F*G*H*I*J*K*L*i*M*",
"N*O*P*Q*R*S*T*U*+*V*X+W*X*Y*Z*`* =.=+=@=#=$=%=&=*===-=;=>=,=,='=",
")=!=~={=]=^=/=(=_=:=<=[=}=|=1=2=3=4=5=6=7=8=A#9=0=a=b=c=d=e=f=f=",
"g=h=i=j=k=j=+*l=m=n=+.o=p=q=r=s=t=u=v=w=x=y=z=A=B=C=D=E=F=G=G=G=",
"H=I=J=K=L=M=0*N=O=P=Q=R=S=T=U=V=W=X=Y=Z=`= -.-+-@-#-$-%-&-*-=-=-",
"--;->-,-'-)-!-~-{-]-^-/-o=(-_-:-<-[-}-|-1-2-3-4-5-6-7-8-9-0-a-b-"};
