/* XPM */
static char * PoP_SandsOfTime_xpm[] = {
"48 48 1294 2",
"  	c None",
". 	c #672B05",
"+ 	c #7C3C09",
"@ 	c #8D4B0E",
"# 	c #975812",
"$ 	c #9B5B16",
"% 	c #965613",
"& 	c #8A4A0D",
"* 	c #783907",
"= 	c #632904",
"- 	c #884310",
"; 	c #B87B26",
"> 	c #D9A932",
", 	c #F0C940",
"' 	c #FACF45",
") 	c #FEDF49",
"! 	c #FFE64C",
"~ 	c #FEE34D",
"{ 	c #FEE44B",
"] 	c #FDE651",
"^ 	c #F8D548",
"/ 	c #ECC641",
"( 	c #D5A535",
"_ 	c #B27323",
": 	c #7F3A08",
"< 	c #602300",
"[ 	c #A45E19",
"} 	c #DEA738",
"| 	c #FBD550",
"1 	c #FFF857",
"2 	c #FFFE54",
"3 	c #FFF550",
"4 	c #FFE44E",
"5 	c #FEEA52",
"6 	c #FEF255",
"7 	c #FEED4E",
"8 	c #FEF04F",
"9 	c #FEF253",
"0 	c #FFEA54",
"a 	c #FFFB5E",
"b 	c #FFFF61",
"c 	c #FFF257",
"d 	c #F9CC4A",
"e 	c #D69E35",
"f 	c #974F12",
"g 	c #551B00",
"h 	c #9B5514",
"i 	c #E2B13E",
"j 	c #FFDC4E",
"k 	c #FFE950",
"l 	c #FFE84D",
"m 	c #FFD74D",
"n 	c #EFA938",
"o 	c #D28327",
"p 	c #CD7118",
"q 	c #EDA127",
"r 	c #FED141",
"s 	c #FCDD40",
"t 	c #FDCF3A",
"u 	c #FED73F",
"v 	c #EEAC30",
"w 	c #D58B2C",
"x 	c #E3AF42",
"y 	c #FCDE58",
"z 	c #FFEF5D",
"A 	c #FFEF56",
"B 	c #FED74E",
"C 	c #D8A137",
"D 	c #8B460D",
"E 	c #682702",
"F 	c #CA8A2D",
"G 	c #FFDF50",
"H 	c #FFEE56",
"I 	c #FDE54B",
"J 	c #FCD241",
"K 	c #D38224",
"L 	c #9A450D",
"M 	c #6C2600",
"N 	c #561A00",
"O 	c #7C2D00",
"P 	c #E6972A",
"Q 	c #FFE347",
"R 	c #FDE946",
"S 	c #FCE446",
"T 	c #FFD941",
"U 	c #E09526",
"V 	c #7D2700",
"W 	c #642000",
"X 	c #87400D",
"Y 	c #BB7A28",
"Z 	c #EBBC45",
"` 	c #FFE853",
" .	c #FFF053",
"..	c #FAD548",
"+.	c #BA7922",
"@.	c #5A1D00",
"#.	c #843C08",
"$.	c #E2AB35",
"%.	c #FFDB4C",
"&.	c #FFEE55",
"*.	c #FDCF45",
"=.	c #FFE94D",
"-.	c #D57B1D",
";.	c #6F2200",
">.	c #331000",
",.	c #150700",
"'.	c #160600",
").	c #5B2402",
"!.	c #E69A2E",
"~.	c #FFD842",
"{.	c #FDE444",
"].	c #FDE03F",
"^.	c #FFD742",
"/.	c #D88E29",
"(.	c #4F1900",
"_.	c #1F0800",
":.	c #3B0F00",
"<.	c #6A2801",
"[.	c #B26C1A",
"}.	c #EEC841",
"|.	c #FFED4F",
"1.	c #FFE44D",
"2.	c #D59E2F",
"3.	c #723105",
"4.	c #91460B",
"5.	c #F3B939",
"6.	c #FFDE4F",
"7.	c #D48626",
"8.	c #A64506",
"9.	c #D78526",
"0.	c #D27723",
"a.	c #5F2000",
"b.	c #2A0D00",
"c.	c #190800",
"d.	c #270A00",
"e.	c #621D00",
"f.	c #CE771C",
"g.	c #FFC83F",
"h.	c #FDCC38",
"i.	c #FECB3A",
"j.	c #FEC83C",
"k.	c #C26A13",
"l.	c #511600",
"m.	c #180700",
"n.	c #080200",
"o.	c #060101",
"p.	c #1A0800",
"q.	c #541500",
"r.	c #BC7016",
"s.	c #FFFF59",
"t.	c #FFF553",
"u.	c #FFF24D",
"v.	c #E6B134",
"w.	c #7B3406",
"x.	c #89400A",
"y.	c #F4BA3C",
"z.	c #FFEA50",
"A.	c #FCCE44",
"B.	c #B7661A",
"C.	c #5D1E00",
"D.	c #411600",
"E.	c #5D2201",
"F.	c #BC6D2A",
"G.	c #B36226",
"H.	c #7F3A10",
"I.	c #682804",
"J.	c #8A4C16",
"K.	c #BB7728",
"L.	c #E6AD36",
"M.	c #FEE04D",
"N.	c #FBC639",
"O.	c #FDD744",
"P.	c #F9D246",
"Q.	c #D88B29",
"R.	c #A45C1A",
"S.	c #692A04",
"T.	c #3D1100",
"U.	c #1C0800",
"V.	c #160700",
"W.	c #461600",
"X.	c #CA8229",
"Y.	c #F0B43D",
"Z.	c #EFBD3D",
"`.	c #FFE548",
" +	c #FFE54B",
".+	c #E7AB34",
"++	c #743005",
"@+	c #722E03",
"#+	c #E9A932",
"$+	c #FFDD48",
"%+	c #FBCA42",
"&+	c #B75A12",
"*+	c #4D1700",
"=+	c #170700",
"-+	c #0D0401",
";+	c #2B0E00",
">+	c #632100",
",+	c #9F470B",
"'+	c #C37621",
")+	c #E4AF41",
"!+	c #FFD057",
"~+	c #FFD255",
"{+	c #FAC247",
"]+	c #F6B739",
"^+	c #FDC341",
"/+	c #FAB034",
"(+	c #F7CB47",
"_+	c #FED54E",
":+	c #FFD755",
"<+	c #F1BE4E",
"[+	c #BA7527",
"}+	c #763207",
"|+	c #521800",
"1+	c #783206",
"2+	c #C46622",
"3+	c #832E00",
"4+	c #7D2B00",
"5+	c #BE761B",
"6+	c #FBDE45",
"7+	c #FFE64D",
"8+	c #D8962C",
"9+	c #5E2100",
"0+	c #D6962A",
"a+	c #FFEA56",
"b+	c #FEE14D",
"c+	c #EC8D24",
"d+	c #7E2C00",
"e+	c #270D00",
"f+	c #080201",
"g+	c #1B0900",
"h+	c #4B1700",
"i+	c #A05813",
"j+	c #E9B63C",
"k+	c #FFDE53",
"l+	c #F3B441",
"m+	c #C37221",
"n+	c #9C5112",
"o+	c #843807",
"p+	c #963E02",
"q+	c #EEA63D",
"r+	c #CF6E1D",
"s+	c #893603",
"t+	c #8E470D",
"u+	c #B76F21",
"v+	c #EEB443",
"w+	c #FFDA55",
"x+	c #F5C24B",
"y+	c #C67921",
"z+	c #D3731E",
"A+	c #A75114",
"B+	c #3F1400",
"C+	c #240B00",
"D+	c #581A00",
"E+	c #C67417",
"F+	c #FFDF46",
"G+	c #C2791F",
"H+	c #481600",
"I+	c #AF6718",
"J+	c #FFDC4A",
"K+	c #FFF555",
"L+	c #FEE24A",
"M+	c #FAC748",
"N+	c #B05D15",
"O+	c #4F1800",
"P+	c #391200",
"Q+	c #622300",
"R+	c #BF7B26",
"S+	c #FFDC51",
"T+	c #FFDA4E",
"U+	c #DE7E23",
"V+	c #863202",
"W+	c #2B0C00",
"X+	c #A55923",
"Y+	c #7C3A10",
"Z+	c #320F00",
"`+	c #270B00",
" @	c #3E1100",
".@	c #6E2902",
"+@	c #B26519",
"@@	c #F3BD44",
"#@	c #FFE657",
"$@	c #FFCA45",
"%@	c #BF6F1B",
"&@	c #491600",
"*@	c #210B00",
"=@	c #4E1700",
"-@	c #B4540C",
";@	c #FED341",
">@	c #FFFC4E",
",@	c #FDE048",
"'@	c #954B0C",
")@	c #753004",
"!@	c #F1B83C",
"~@	c #FFDA46",
"{@	c #FEC944",
"]@	c #FFD447",
"^@	c #FFF153",
"/@	c #FAD551",
"(@	c #BA661A",
"_@	c #9B4506",
":@	c #D89B34",
"<@	c #FFD650",
"[@	c #DD9429",
"}@	c #CE7E27",
"|@	c #C47935",
"1@	c #441801",
"2@	c #0E0400",
"3@	c #000000",
"4@	c #020000",
"5@	c #170701",
"6@	c #301101",
"7@	c #270E01",
"8@	c #0C0401",
"9@	c #060200",
"0@	c #3E1200",
"a@	c #7E3204",
"b@	c #D7982F",
"c@	c #FFE555",
"d@	c #EFB83C",
"e@	c #963F05",
"f@	c #6D2200",
"g@	c #A15B1D",
"h@	c #F0CE50",
"i@	c #FDE34A",
"j@	c #FDF145",
"k@	c #FFF84B",
"l@	c #E2A12E",
"m@	c #5F2101",
"n@	c #BF731D",
"o@	c #FFD54A",
"p@	c #F6C13F",
"q@	c #BA560A",
"r@	c #B65A11",
"s@	c #EBAC37",
"t@	c #FFED54",
"u@	c #FFD74F",
"v@	c #FBCF47",
"w@	c #FFE251",
"x@	c #D57E1F",
"y@	c #521B00",
"z@	c #4A230B",
"A@	c #260E02",
"B@	c #160500",
"C@	c #1D0700",
"D@	c #290A00",
"E@	c #330D00",
"F@	c #370D00",
"G@	c #330C00",
"H@	c #280900",
"I@	c #1B0600",
"J@	c #0F0300",
"K@	c #060100",
"L@	c #0B0301",
"M@	c #250B00",
"N@	c #652301",
"O@	c #C98323",
"P@	c #FED84D",
"Q@	c #F3B339",
"R@	c #E19E37",
"S@	c #FBEC59",
"T@	c #FFFB53",
"U@	c #FFD440",
"V@	c #FFC638",
"W@	c #FFED46",
"X@	c #FFD43F",
"Y@	c #A55810",
"Z@	c #310E00",
"`@	c #722D03",
" #	c #F1AE39",
".#	c #FFD548",
"+#	c #C67419",
"@#	c #601E00",
"##	c #441500",
"$#	c #6F2801",
"%#	c #B96F1E",
"&#	c #F5C245",
"*#	c #F5BD43",
"=#	c #CB7223",
"-#	c #5A2001",
";#	c #2D0E00",
">#	c #300B00",
",#	c #6B2F08",
"'#	c #8D4F14",
")#	c #A6631A",
"!#	c #B47226",
"~#	c #B77A2E",
"{#	c #B07325",
"]#	c #A1641F",
"^#	c #864812",
"/#	c #612703",
"(#	c #3A0F00",
"_#	c #1E0800",
":#	c #120601",
"<#	c #340F00",
"[#	c #8A3903",
"}#	c #F7D147",
"|#	c #FFF65B",
"1#	c #FFFA5C",
"2#	c #FFE54A",
"3#	c #EFA22F",
"4#	c #CE6F1A",
"5#	c #C06114",
"6#	c #ECB434",
"7#	c #FFDF47",
"8#	c #E2A02E",
"9#	c #5B2000",
"0#	c #AD6216",
"a#	c #FFD046",
"b#	c #FFD94D",
"c#	c #B4691D",
"d#	c #3B1201",
"e#	c #401200",
"f#	c #793809",
"g#	c #975215",
"h#	c #7E3203",
"i#	c #9E541C",
"j#	c #8A4214",
"k#	c #632000",
"l#	c #8F4D12",
"m#	c #C98C2D",
"n#	c #F6CF56",
"o#	c #FFE467",
"p#	c #FFE666",
"q#	c #FFE061",
"r#	c #FFE45C",
"s#	c #FFE15C",
"t#	c #FFE362",
"u#	c #FFE165",
"v#	c #EEBD4A",
"w#	c #BD802B",
"x#	c #7E3D0B",
"y#	c #481400",
"z#	c #4C1A03",
"A#	c #AA6524",
"B#	c #DC9B36",
"C#	c #EAB540",
"D#	c #E8AB3B",
"E#	c #B55A13",
"F#	c #752A01",
"G#	c #4B1900",
"H#	c #4D1800",
"I#	c #974608",
"J#	c #F7BE3E",
"K#	c #FECE43",
"L#	c #92490B",
"M#	c #DA932A",
"N#	c #F6BE42",
"O#	c #B36C2A",
"P#	c #361404",
"Q#	c #030000",
"R#	c #190600",
"S#	c #220800",
"T#	c #371200",
"U#	c #591A00",
"V#	c #A2510F",
"W#	c #DB9F31",
"X#	c #FFDE57",
"Y#	c #FFE162",
"Z#	c #EAC051",
"`#	c #C99439",
" $	c #B27328",
".$	c #AA621F",
"+$	c #BA7121",
"@$	c #B06A1F",
"#$	c #B57129",
"$$	c #D0983D",
"%$	c #F2CB55",
"&$	c #FFE961",
"*$	c #FCD050",
"=$	c #C18226",
"-$	c #8E3D08",
";$	c #7B3208",
">$	c #642100",
",$	c #642702",
"'$	c #5B2101",
")$	c #3B1200",
"!$	c #1E0A00",
"~$	c #0A0300",
"{$	c #180800",
"]$	c #DC9628",
"^$	c #FFE24D",
"/$	c #C57D22",
"($	c #3B1100",
"_$	c #6E2E03",
":$	c #F4AE37",
"<$	c #B65F12",
"[$	c #170801",
"}$	c #140700",
"|$	c #431400",
"1$	c #9D5110",
"2$	c #F3BF41",
"3$	c #FFE75D",
"4$	c #DDAC4A",
"5$	c #9C5D23",
"6$	c #6A2B06",
"7$	c #491400",
"8$	c #591C00",
"9$	c #904212",
"0$	c #5E2200",
"a$	c #3F1100",
"b$	c #4A1600",
"c$	c #6F3109",
"d$	c #AC6D29",
"e$	c #EBBE49",
"f$	c #FFEA5D",
"g$	c #E6B13C",
"h$	c #8E4208",
"i$	c #451400",
"j$	c #1F0900",
"k$	c #070200",
"l$	c #010000",
"m$	c #1F0A00",
"n$	c #6E2701",
"o$	c #E2A630",
"p$	c #FFE04A",
"q$	c #E4A12E",
"r$	c #5A2101",
"s$	c #90460B",
"t$	c #FEBB40",
"u$	c #F4B039",
"v$	c #793102",
"w$	c #200A00",
"x$	c #130600",
"y$	c #451500",
"z$	c #AC6419",
"A$	c #FEC648",
"B$	c #F5C64C",
"C$	c #A76720",
"D$	c #5E1F00",
"E$	c #320B00",
"F$	c #260B00",
"G$	c #431D07",
"H$	c #602B0A",
"I$	c #672200",
"J$	c #AD5018",
"K$	c #692600",
"L$	c #2D0D00",
"M$	c #1D0800",
"N$	c #6A2B04",
"O$	c #BC7E29",
"P$	c #FFE153",
"Q$	c #F3C645",
"R$	c #8E490E",
"S$	c #330E00",
"T$	c #0A0301",
"U$	c #461903",
"V$	c #C57E2F",
"W$	c #FEE147",
"X$	c #F8C03B",
"Y$	c #763305",
"Z$	c #AB5C14",
"`$	c #FFC445",
" %	c #DC942A",
".%	c #581E00",
"+%	c #0D0400",
"@%	c #391100",
"#%	c #A25914",
"$%	c #FFC849",
"%%	c #F2B641",
"&%	c #96490D",
"*%	c #521600",
"=%	c #461800",
"-%	c #471E06",
";%	c #3C1300",
">%	c #74330A",
",%	c #B5611A",
"'%	c #C4751F",
")%	c #F0A638",
"!%	c #C97820",
"~%	c #904612",
"{%	c #3C1500",
"]%	c #260D02",
"^%	c #270E02",
"/%	c #2C0D00",
"(%	c #4D1600",
"_%	c #AA671D",
":%	c #FFDB51",
"<%	c #F3C041",
"[%	c #823D09",
"}%	c #2A0C00",
"|%	c #030100",
"1%	c #120500",
"2%	c #5B2B0E",
"3%	c #974A15",
"4%	c #BF7018",
"5%	c #F8C53F",
"6%	c #FEC43E",
"7%	c #92490C",
"8%	c #BD6F1B",
"9%	c #FFD34A",
"0%	c #C97F23",
"a%	c #461400",
"b%	c #230A00",
"c%	c #7F3B08",
"d%	c #F5B941",
"e%	c #F6BD41",
"f%	c #A54C0A",
"g%	c #742700",
"h%	c #773305",
"i%	c #94450C",
"j%	c #C06E24",
"k%	c #913F04",
"l%	c #BB5E11",
"m%	c #FDC844",
"n%	c #FFDE44",
"o%	c #FFD13A",
"p%	c #FFCD45",
"q%	c #F4922F",
"r%	c #8B3500",
"s%	c #803609",
"t%	c #854515",
"u%	c #4C1400",
"v%	c #411100",
"w%	c #5B1A00",
"x%	c #B36A1A",
"y%	c #FFD84F",
"z%	c #E2A132",
"A%	c #642401",
"B%	c #260D00",
"C%	c #421400",
"D%	c #531A00",
"E%	c #7F2B00",
"F%	c #DE8723",
"G%	c #FFCA43",
"H%	c #A45A12",
"I%	c #C77E21",
"J%	c #FFE650",
"K%	c #C27D22",
"L%	c #050201",
"M%	c #4E1A00",
"N%	c #D58928",
"O%	c #FFD54C",
"P%	c #D17112",
"Q%	c #9B3600",
"R%	c #C87D24",
"S%	c #F3C34C",
"T%	c #FDC248",
"U%	c #FFC148",
"V%	c #FBB140",
"W%	c #FCC03F",
"X%	c #FFDC43",
"Y%	c #FDD742",
"Z%	c #FDE55D",
"`%	c #FEB932",
" &	c #FFAD31",
".&	c #E59B2C",
"+&	c #E39B30",
"@&	c #EBAF41",
"#&	c #CB892F",
"$&	c #B57427",
"%&	c #7F3808",
"&&	c #792300",
"*&	c #D48924",
"=&	c #FFD249",
"-&	c #BD6D18",
";&	c #662300",
">&	c #5D2704",
",&	c #6F2D03",
"'&	c #934D13",
")&	c #95460D",
"!&	c #9E3E03",
"~&	c #E39A26",
"{&	c #FFD347",
"]&	c #B06417",
"^&	c #CC7D23",
"/&	c #FFC545",
"(&	c #BD701D",
"_&	c #3E1300",
":&	c #070201",
"<&	c #020100",
"[&	c #8D4009",
"}&	c #FECA49",
"|&	c #FFCD47",
"1&	c #EEA731",
"2&	c #EAAF3B",
"3&	c #FACE47",
"4&	c #FFDE4D",
"5&	c #D98E2A",
"6&	c #D2852B",
"7&	c #DA872A",
"8&	c #F7B73A",
"9&	c #FECC3E",
"0&	c #FEE84B",
"a&	c #FEF759",
"b&	c #FDBE2F",
"c&	c #FDBB32",
"d&	c #FEC641",
"e&	c #F9C448",
"f&	c #F7C649",
"g&	c #FFCE4B",
"h&	c #FFDF4F",
"i&	c #D9962E",
"j&	c #AD5813",
"k&	c #C36711",
"l&	c #F8CD44",
"m&	c #F5B434",
"n&	c #D68926",
"o&	c #E49F3E",
"p&	c #F08A35",
"q&	c #FFD056",
"r&	c #FDB03E",
"s&	c #F9B73D",
"t&	c #FCD641",
"u&	c #FFE043",
"v&	c #B56B19",
"w&	c #340E00",
"x&	c #CB8023",
"y&	c #FFCD48",
"z&	c #C16F1B",
"A&	c #491700",
"B&	c #1C0A02",
"C&	c #110601",
"D&	c #120600",
"E&	c #451700",
"F&	c #C8741D",
"G&	c #FFDA4F",
"H&	c #F9C142",
"I&	c #F1B141",
"J&	c #FCCA4F",
"K&	c #FFCF4A",
"L&	c #D78C2C",
"M&	c #6F2500",
"N&	c #692300",
"O&	c #CD711F",
"P&	c #FFA531",
"Q&	c #FEE049",
"R&	c #FEFA62",
"S&	c #FEC332",
"T&	c #FFC83C",
"U&	c #D07C1C",
"V&	c #AC5A18",
"W&	c #97470D",
"X&	c #BD6B17",
"Y&	c #FFD54B",
"Z&	c #FFDB4D",
"`&	c #FFC244",
" *	c #F9B945",
".*	c #F5C13A",
"+*	c #FFDA44",
"@*	c #D97D1C",
"#*	c #B25413",
"$*	c #B95B17",
"%*	c #DDA13D",
"&*	c #E2922F",
"**	c #EB8F28",
"=*	c #FDCB3C",
"-*	c #B36619",
";*	c #C47B21",
">*	c #FFCF46",
",*	c #D48320",
"'*	c #6B2000",
")*	c #562409",
"!*	c #411D0B",
"~*	c #6A2B03",
"{*	c #F2A837",
"]*	c #EEAD3C",
"^*	c #9C4608",
"/*	c #7F3203",
"(*	c #A85211",
"_*	c #C77827",
":*	c #652602",
"<*	c #270E00",
"[*	c #0C0400",
"}*	c #843506",
"|*	c #FBAE40",
"1*	c #FFE156",
"2*	c #FFE24B",
"3*	c #FFDA45",
"4*	c #FEBD41",
"5*	c #964409",
"6*	c #4D1A01",
"7*	c #341100",
"8*	c #5E2503",
"9*	c #AF6A1F",
"0*	c #D99131",
"a*	c #AD641B",
"b*	c #9F5414",
"c*	c #B56112",
"d*	c #FCC544",
"e*	c #DD8E24",
"f*	c #7E2A00",
"g*	c #551C00",
"h*	c #561E00",
"i*	c #632400",
"j*	c #953900",
"k*	c #EEAC2F",
"l*	c #FFD647",
"m*	c #AB5F13",
"n*	c #2F0D00",
"o*	c #B6691A",
"p*	c #FFC23D",
"q*	c #F4BB3A",
"r*	c #B36116",
"s*	c #A95A20",
"t*	c #5B2A0E",
"u*	c #320E00",
"v*	c #8D440D",
"w*	c #FFB342",
"x*	c #C4731F",
"y*	c #290D00",
"z*	c #431B04",
"A*	c #5C2B0D",
"B*	c #230B00",
"C*	c #401500",
"D*	c #AC6824",
"E*	c #E0A43F",
"F*	c #EFAD37",
"G*	c #C37B1F",
"H*	c #B1621A",
"I*	c #95541C",
"J*	c #290C00",
"K*	c #0B0300",
"L*	c #4E1D03",
"M*	c #793B12",
"N*	c #3C1000",
"O*	c #6A2300",
"P*	c #E29C2E",
"Q*	c #F5B337",
"R*	c #A0480D",
"S*	c #5E2608",
"T*	c #381100",
"U*	c #772B00",
"V*	c #E69E2A",
"W*	c #9E5410",
"X*	c #280B00",
"Y*	c #A25512",
"Z*	c #FEC03C",
"`*	c #FEDC46",
" =	c #F9BE4A",
".=	c #AB5B20",
"+=	c #381201",
"@=	c #371100",
"#=	c #A75413",
"$=	c #FFB442",
"%=	c #A65613",
"&=	c #2E0E00",
"*=	c #0C0300",
"==	c #090201",
"-=	c #140701",
";=	c #742D03",
">=	c #994C15",
",=	c #531800",
"'=	c #431500",
")=	c #673714",
"!=	c #2C1305",
"~=	c #040000",
"{=	c #040100",
"]=	c #150701",
"^=	c #421300",
"/=	c #C57B20",
"(=	c #FFC945",
"_=	c #A8530C",
":=	c #9E531D",
"<=	c #793D15",
"[=	c #6F2E07",
"}=	c #B15F10",
"|=	c #FBC33A",
"1=	c #FCBE3A",
"2=	c #87410A",
"3=	c #813B08",
"4=	c #FBB93C",
"5=	c #FFCF40",
"6=	c #C26110",
"7=	c #561C00",
"8=	c #1A0801",
"9=	c #361000",
"0=	c #B6661A",
"a=	c #FFBB46",
"b=	c #94470D",
"c=	c #100500",
"d=	c #381705",
"e=	c #52280E",
"f=	c #1C0900",
"g=	c #241004",
"h=	c #170902",
"i=	c #371000",
"j=	c #B66618",
"k=	c #FFCA47",
"l=	c #A3530C",
"m=	c #682907",
"n=	c #A55F2B",
"o=	c #E29F40",
"p=	c #FDD244",
"q=	c #FED440",
"r=	c #F0B936",
"s=	c #692902",
"t=	c #612602",
"u=	c #EBAC36",
"v=	c #FFE049",
"w=	c #BD6815",
"x=	c #0D0501",
"y=	c #350F00",
"z=	c #BA671C",
"A=	c #FFBA44",
"B=	c #8E440B",
"C=	c #1C0C03",
"D=	c #241006",
"E=	c #050100",
"F=	c #330F00",
"G=	c #B05F15",
"H=	c #FFC644",
"I=	c #9D530F",
"J=	c #3A1000",
"K=	c #97470E",
"L=	c #ECB334",
"M=	c #FFE045",
"N=	c #D9962A",
"O=	c #4D1900",
"P=	c #CB8926",
"Q=	c #FFEE4F",
"R=	c #E3992C",
"S=	c #612100",
"T=	c #B4651A",
"U=	c #FFBC46",
"V=	c #9A470B",
"W=	c #310F00",
"X=	c #0B0401",
"Y=	c #240E03",
"Z=	c #1B0B04",
"`=	c #070100",
" -	c #100501",
".-	c #220D02",
"+-	c #220900",
"@-	c #1C0700",
"#-	c #B96719",
"$-	c #FFC648",
"%-	c #924C0F",
"&-	c #240A00",
"*-	c #1F0B00",
"=-	c #E39B28",
"--	c #FFDC49",
";-	c #B26619",
">-	c #300D00",
",-	c #94490C",
"'-	c #FDBC3C",
")-	c #FEC441",
"!-	c #A04E0E",
"~-	c #341000",
"{-	c #A65C16",
"]-	c #FFC547",
"^-	c #C56C18",
"/-	c #783105",
"(-	c #471A02",
"_-	c #210900",
":-	c #2F1101",
"<-	c #52280F",
"[-	c #48240E",
"}-	c #1D0B03",
"|-	c #1C0A03",
"1-	c #5B3216",
"2-	c #93592B",
"3-	c #814418",
"4-	c #672904",
"5-	c #803001",
"6-	c #D57F1F",
"7-	c #FFCB46",
"8-	c #7F3D08",
"9-	c #974D0C",
"0-	c #FDD846",
"a-	c #F6BB39",
"b-	c #793305",
"c-	c #E0922C",
"d-	c #E1912B",
"e-	c #6D2500",
"f-	c #541F03",
"g-	c #9A4A0D",
"h-	c #FCC241",
"i-	c #FCCF43",
"j-	c #F6BC4A",
"k-	c #C6812B",
"l-	c #823E0F",
"m-	c #7D4018",
"n-	c #7E441D",
"o-	c #582B11",
"p-	c #240D01",
"q-	c #010100",
"r-	c #090100",
"s-	c #301203",
"t-	c #713611",
"u-	c #D0812E",
"v-	c #EFBB41",
"w-	c #EBAD36",
"x-	c #F5B634",
"y-	c #EFB239",
"z-	c #662802",
"A-	c #270C00",
"B-	c #5B1F00",
"C-	c #DD8E27",
"D-	c #FFD944",
"E-	c #CB7D1E",
"F-	c #471700",
"G-	c #A05612",
"H-	c #FEC843",
"I-	c #FEC740",
"J-	c #CB761E",
"K-	c #994C19",
"L-	c #913D0B",
"M-	c #EAA633",
"N-	c #FFE64B",
"O-	c #FFDC4B",
"P-	c #FBC245",
"Q-	c #CC8034",
"R-	c #914E22",
"S-	c #481D07",
"T-	c #1E0900",
"U-	c #1C0B03",
"V-	c #3A1C0A",
"W-	c #300C00",
"X-	c #934D0E",
"Y-	c #FFD44A",
"Z-	c #FFDC44",
"`-	c #FFE547",
" ;	c #CC8425",
".;	c #501900",
"+;	c #411400",
"@;	c #A95611",
"#;	c #FFC23E",
"$;	c #F9B939",
"%;	c #863D08",
"&;	c #591F00",
"*;	c #DB942C",
"=;	c #FFD147",
"-;	c #FABB3D",
";;	c #913E05",
">;	c #672000",
",;	c #C37721",
"';	c #FFDD4A",
");	c #F6C540",
"!;	c #BF7321",
"~;	c #050000",
"{;	c #1E0A01",
"];	c #6F3C18",
"^;	c #58280C",
"/;	c #130500",
"(;	c #5D2404",
"_;	c #D99C31",
":;	c #FEED47",
"<;	c #FFDF44",
"[;	c #A15913",
"};	c #4E1600",
"|;	c #7F3204",
"1;	c #EEA531",
"2;	c #FFD445",
"3;	c #C6781D",
"4;	c #894009",
"5;	c #F7B43A",
"6;	c #FFD24A",
"7;	c #BD6E20",
"8;	c #873E09",
"9;	c #FBC146",
"0;	c #EEA02F",
"a;	c #862E00",
"b;	c #341200",
"c;	c #080300",
"d;	c #090200",
"e;	c #1C0D04",
"f;	c #150801",
"g;	c #4C2006",
"h;	c #96511F",
"i;	c #3F1702",
"j;	c #090301",
"k;	c #421500",
"l;	c #A84D07",
"m;	c #FED543",
"n;	c #ECB73C",
"o;	c #772F03",
"p;	c #6C2500",
"q;	c #D78728",
"r;	c #FFD745",
"s;	c #ECAA31",
"t;	c #712F04",
"u;	c #AB6217",
"v;	c #FFBE44",
"w;	c #C97422",
"x;	c #5D1F00",
"y;	c #541B00",
"z;	c #C67C27",
"A;	c #FFCF4C",
"B;	c #BD691A",
"C;	c #4C1800",
"D;	c #040101",
"E;	c #1A0700",
"F;	c #55290E",
"G;	c #3B1A07",
"H;	c #0F0500",
"I;	c #090300",
"J;	c #98531B",
"K;	c #824112",
"L;	c #1D0A00",
"M;	c #642200",
"N;	c #D88424",
"O;	c #FFC141",
"P;	c #AA5C14",
"Q;	c #682100",
"R;	c #B86718",
"S;	c #FFC43F",
"T;	c #92470B",
"U;	c #4D1A00",
"V;	c #C2641D",
"W;	c #F99F3F",
"X;	c #8D440F",
"Y;	c #481700",
"Z;	c #733005",
"`;	c #E9A73B",
" >	c #FEC348",
".>	c #A55210",
"+>	c #441400",
"@>	c #2A0F01",
"#>	c #9F5319",
"$>	c #6B340D",
"%>	c #8B4813",
"&>	c #C27225",
"*>	c #190901",
"=>	c #1B0A00",
"->	c #541A00",
";>	c #C26E1B",
">>	c #FFD049",
",>	c #D38829",
"'>	c #6E2400",
")>	c #813401",
"!>	c #F3BA3E",
"~>	c #FFC93F",
"{>	c #401400",
"]>	c #592101",
"^>	c #D17C2A",
"/>	c #E78737",
"(>	c #5E2301",
"_>	c #8D470E",
":>	c #F5BD44",
"<>	c #FCBE43",
"[>	c #A95813",
"}>	c #752500",
"|>	c #B7651B",
"1>	c #F1AD3E",
"2>	c #89440E",
"3>	c #280C00",
"4>	c #542207",
"5>	c #582408",
"6>	c #9B5412",
"7>	c #F1BD41",
"8>	c #A35715",
"9>	c #521A00",
"0>	c #5F1E00",
"a>	c #BD6D1C",
"b>	c #FFDA50",
"c>	c #E5B33B",
"d>	c #7E3604",
"e>	c #692401",
"f>	c #C37628",
"g>	c #FFB641",
"h>	c #BC6E1C",
"i>	c #4F1A00",
"j>	c #562001",
"k>	c #BA6523",
"l>	c #A4541C",
"m>	c #4A1900",
"n>	c #974D10",
"o>	c #F2C147",
"p>	c #FFD04C",
"q>	c #DD8C24",
"r>	c #F8BD3A",
"s>	c #FFD64B",
"t>	c #B76D1F",
"u>	c #411200",
"v>	c #B25C1F",
"w>	c #BF6525",
"x>	c #541E00",
"y>	c #531C00",
"z>	c #CF9431",
"A>	c #FFF156",
"B>	c #EBA530",
"C>	c #AE4D08",
"D>	c #D68B2A",
"E>	c #E2A937",
"F>	c #803A08",
"G>	c #541800",
"H>	c #A35115",
"I>	c #FF9E3B",
"J>	c #B15B17",
"K>	c #3E1500",
"L>	c #8F4B1A",
"M>	c #9F5721",
"N>	c #5F2707",
"O>	c #561800",
"P>	c #8F430B",
"Q>	c #E4A839",
"R>	c #FFE651",
"S>	c #FFDF4B",
"T>	c #FFCC42",
"U>	c #D1811F",
"V>	c #7C2700",
"W>	c #872F00",
"X>	c #F0B341",
"Y>	c #FABD4A",
"Z>	c #913600",
"`>	c #7F2900",
" ,	c #D68921",
".,	c #FBC73A",
"+,	c #F6C239",
"@,	c #FFD750",
"#,	c #D2902D",
"$,	c #7B2E01",
"%,	c #511800",
"&,	c #75330A",
"*,	c #C76D25",
"=,	c #944A12",
"-,	c #411500",
";,	c #6E3511",
">,	c #A45B25",
",,	c #8B4718",
"',	c #692501",
"),	c #7F2F00",
"!,	c #C47A20",
"~,	c #F3C144",
"{,	c #FFDC50",
"],	c #FCC545",
"^,	c #E39532",
"/,	c #DB791D",
"(,	c #FAC443",
"_,	c #FDCA46",
":,	c #D9771A",
"<,	c #D78227",
"[,	c #F0B93F",
"},	c #FFE852",
"|,	c #FFE150",
"1,	c #EDB13A",
"2,	c #B26718",
"3,	c #732700",
"4,	c #6B2A05",
"5,	c #944E1C",
"6,	c #A65A22",
"7,	c #652C0A",
"8,	c #451B03",
"9,	c #87481D",
"0,	c #A75B27",
"a,	c #964A19",
"b,	c #873404",
"c,	c #964104",
"d,	c #C07821",
"e,	c #E2AE3C",
"f,	c #F7C44D",
"g,	c #FDC04B",
"h,	c #FDBE44",
"i,	c #FDC240",
"j,	c #FFD74C",
"k,	c #F2C94A",
"l,	c #DCA135",
"m,	c #B66A16",
"n,	c #8E3700",
"o,	c #863506",
"p,	c #984E1B",
"q,	c #A75D28",
"r,	c #7C3F17",
"s,	c #3C1502",
"t,	c #4A1D06",
"u,	c #81431B",
"v,	c #A95E2A",
"w,	c #A85821",
"x,	c #A44D15",
"y,	c #A74F10",
"z,	c #AF530E",
"A,	c #B96318",
"B,	c #C16C1B",
"C,	c #C3741B",
"D,	c #C0711D",
"E,	c #B66012",
"F,	c #AC510C",
"G,	c #A3460D",
"H,	c #A24A15",
"I,	c #AA5A23",
"J,	c #A45A29",
"K,	c #763A16",
"L,	c #421904",
"M,	c #381401",
"N,	c #56270B",
"O,	c #743C16",
"P,	c #925320",
"Q,	c #A35C23",
"R,	c #AA5B20",
"S,	c #AD5B1F",
"T,	c #B15D20",
"U,	c #AF6122",
"V,	c #A96125",
"W,	c #A05520",
"X,	c #8A461B",
"Y,	c #6D3413",
"Z,	c #512309",
"`,	c #321100",
" '	c #300F00",
".'	c #3B1602",
"+'	c #421B05",
"@'	c #441D05",
"#'	c #411A04",
"$'	c #391502",
"                                                                                                ",
"                                                                                                ",
"                                        . + @ # $ % & * =                                       ",
"                                  - ; > , ' ) ! ~ { ] ^ / ( _ :                                 ",
"                            < [ } | 1 2 3 4 5 6 7 8 9 0 a b c d e f g                           ",
"                          h i j k l m n o p q r s t u v w x y z A B C D                         ",
"                      E F G H I J K L M N O P Q R S T U V W X Y Z `  ...+.@.                    ",
"                    #.$.%.&.*.=.-.;.>.,.'.).!.~.{.].^./.(.'._.:.<.[.}.|.1.2.3.                  ",
"                  4.5.l 6.7.8.9.0.a.b.c.d.e.f.g.h.i.j.k.l.m.n.o.p.q.r.s.t.u.v.w.                ",
"                x.y.z.A.B.C.D.E.F.G.H.I.J.K.L.M.N.O.P.Q.R.S.T.U.V.W.X.Y.Z.`. +.+++              ",
"              @+#+$+%+&+*+=+-+;+>+,+'+)+!+~+{+]+^+/+(+_+:+<+[+}+|+1+2+3+4+5+6+7+8+9+            ",
"              0+a+b+c+d+e+f+g+h+i+j+k+l+m+n+o+p+q+r+s+t+u+v+w+x+y+z+A+B+C+D+E+F+1.G+H+          ",
"            I+J+K+L+M+N+O+P+Q+R+S+T+U+V+H+W+C+B+X+Y+Z+`+ @.@+@@@#@$@%@&@*@=@-@;@>@,@'@          ",
"          )@!@~@{@]@^@/@(@_@:@<@[@}@|@1@2@3@4@5@6@7@8@3@9@g+0@a@b@c@d@e@f@g@h@i@j@k@l@m@        ",
"          n@o@p@q@r@s@t@u@v@w@x@d+y@z@A@B@C@D@E@F@G@H@I@J@K@L@M@N@O@P@Q@R@S@T@U@V@W@X@Y@Z@      ",
"        `@ #.#+#@###$#%#&#u@*#=#-#;#>#&@,#'#)#!#~#{#]#^#/#(#_#:#<#[#}#|#1#2#3#4#5#6#7#8#9#      ",
"        0#a#b#c#d#8@g+e#f#g#h#i#j#k#l#m#n#o#p#q#r#s#t#u#v#w#x#y#z#A#B#C#D#E#F#G#H#I#J#K#L#      ",
"        M#.#N#O#P#Q#3@L@R#S#T#U#V#W#X#Y#Z#`# $.$+$@$#$$$%$&$*$=$-$;$>$,$'$)$!$~${$k#]$^$/$($    ",
"      _$:$$@<$*+[$4@3@3@3@}$|$1$2$3$4$5$6$|+7$8$9$0$a$b$c$d$e$f$g$h$i$j$2@k$3@l$m$n$o$p$q$r$    ",
"      s$t$u$v$w$4@3@3@3@x$y$z$A$B$C$D$E$F$G$H$I$J$K$L$[$M$F@N$O$P$Q$R$S$T$3@3@2@U$V$4 W$X$Y$    ",
"      Z$`$ %.%+%3@3@3@~$@%#%$%%%&%*%=%-%;%>%,%'%)%!%~%{%]%^%/%(%_%:%<%[%}%|%3@1%2%3%4%5%6%7%    ",
"      8%9%0%a%n.3@3@Q#b%c%d%e%f%g%h%i%j%k%l%m%n%o%p%q%r%s%t%u%v%w%x%y%z%A%w$1%B%C%D%E%F%G%H%W+  ",
"      I%J%K% @L%3@3@2@M%N%O%P%Q%R%S%T%U%V%W%X%Y%Z%`% &.&+&@&#&$&%&&&*&=&-&;&>&,&'&)&!&~&{&]&Z@  ",
"      ^&/&(&_&:&l$<&M@[&}&|&1&2&3&4&5&6&7&8&9&0&a&b&c&d&e&f&g&h&i&j&k&l&m&n&o&p&q&r&s&t&u&v&w&  ",
"      x&y&z&A&B&C&D&E&F&G&H&I&J&K&L&M&(.N&O&P&Q&R&S&T&U&V&W&X&Y&Z&`& *.*+*@*#*$*%*&***=*) -*S$  ",
"      ;*>*,*'*)*!*M@~*{*]*^*/*(*_*:*<*[*e+}*|*1*2*3*4*5*6*7*8*9*0*a*b*c*d*e*f*g*h*i*j*k*l*m*n*  ",
"      o*p*q*r*s*t*u*v*w*x*=@y*z*A*B*n.3@+%C*D*E*F*G*H*I*J*K*g+L*M*N*<#O*P*Q*R*S*n*T*U*V*T&W*X*  ",
"      Y*Z*`* =.=+=@=#=$=%=&=L%*=J@==3@3@4@-=@%;=>=,='=)=!=~={=]=B&*=T$^=/=(=_=:=<=[=}=|=1=2=3@  ",
"      3=4=5=6=7=8=9=0=a=b=F$3@3@3@3@3@3@3@l$c=d=e=f=x$g=h=|%3@l$l$3@|%i=j=k=l=m=n=o=p=q=r=s=    ",
"      t=u=v=w=i$x=y=z=A=B=b%3@3@3@3@|%k$K@4@k$C=D=K*{=E={=l$4@{=|%3@4@F=G=H=I=J=0@K=L=M=N=O=    ",
"        P=Q=R=S==+Z@T=U=V=W=n.4@<&X='.Y=Z=K@|%k$`=Q#3@3@3@<& -.-+-@-m.^=#-$-%-&-*-M&=---;->-    ",
"        ,-'-)-!-~-w&{-]-^-/-(-y*_-:-<-[-}-E=3@3@3@3@3@3@3@{=|-1-2-3-4-5-6-7-8-_#}%9-0-a-b-3@    ",
"        r$c-o@d-e-f-g-h-i-j-k-l-m-n-o-p-+%4@3@3@q-n.r-k$l$4@C&s-t-u-v-w-x-y-z-A-B-C-D-E-F-      ",
"          G-H-I-J-K-L-M-N-O-P-Q-R-S-T-8@l$3@3@3@~=U-V-T-T$3@{=[*W-X-Y-Z-`- ;.;+;@;#;$;%;C+      ",
"          &;*;=;-;;;>;,;';);!;a.W+V.T$~;Q#l$3@3@{={;];^;M${=3@3@/;(;_;:;<;[;};|;1;2;3;F-        ",
"            4;5;6;7;8$8;9;0;a;b;c;3@d;e;f;k$3@3@l$,.g;h;i;c=3@3@j;k;l;m;n;o;p;q;r;s;t;3@        ",
"              u;v;w;x;y;z;A;B;C;D&D;E;F;G;H;3@l$l$I;W+J;K;b%<&l$L;M;N;O;P;Q;R;S;$;T;W=          ",
"              U;V;W;X;Y;Z;`; >.>+>@>H+#>$>E;I;V.V.[*A-%>&>y#*>=>->;>>>,>'>)>!>~>G={>3@          ",
"                ]>^>/>(>a%_>:><>[>}>|>1>2>3>*-4>5>B%9=6>7>8>9>0>a>b>c>d>e>f>g>h>i>3@            ",
"                  j>k>l>m>(%n>o>p>q>r>s>t>u>=%v>w>x>y>z>A>B>C>D>m E>F>G>H>I>J>M%3@              ",
"                    K>L>M>N>O>P>Q>R>S>T>U>V>W>X>Y>Z>`> ,.,+,=&@,#,$,%,&,*,=,-,3@                ",
"                        ;,>,,,',),!,~,{,],^,/,(,_,:,<,[,},|,1,2,3,4,5,6,7,/%3@                  ",
"                          8,9,0,a,b,c,d,e,f,g,h,i,H=j,k,l,m,n,o,p,q,r,s,3@                      ",
"                              t,u,v,w,x,y,z,A,B,C,D,E,F,G,H,I,J,K,L,+-                          ",
"                                  M,N,O,P,Q,R,S,T,U,V,W,X,Y,Z,`,3@                              ",
"                                           '.'+'@'#'$';#&-                                      ",
"                                                                                                ",
"                                                                                                "};
