/* XPM */
static char * Prince of Persia : The Two Thrones_xpm[] = {
"48 48 249 2",
"  	c None",
". 	c #6D615A",
"+ 	c #524A47",
"@ 	c #777676",
"# 	c #7D7471",
"$ 	c #7E7C7C",
"% 	c #A77A4C",
"& 	c #9B7249",
"* 	c #A78C6C",
"= 	c #302018",
"- 	c #43332D",
"; 	c #66493B",
"> 	c #7F665D",
", 	c #9F5B3A",
"' 	c #7F5A39",
") 	c #924E2F",
"! 	c #8F827A",
"~ 	c #625450",
"{ 	c #463B3A",
"] 	c #2C1B14",
"^ 	c #2D1A11",
"/ 	c #523C2C",
"( 	c #66371E",
"_ 	c #743B1F",
": 	c #854825",
"< 	c #503F3A",
"[ 	c #382316",
"} 	c #351E14",
"| 	c #321D11",
"1 	c #3E3129",
"2 	c #2D211B",
"3 	c #5C3925",
"4 	c #6C2F19",
"5 	c #9B7D67",
"6 	c #764929",
"7 	c #4D321F",
"8 	c #342116",
"9 	c #36231D",
"0 	c #372829",
"a 	c #27150E",
"b 	c #27160F",
"c 	c #291A15",
"d 	c #3A2119",
"e 	c #311D15",
"f 	c #442314",
"g 	c #5F2E1A",
"h 	c #895D3A",
"i 	c #39251C",
"j 	c #2E1E16",
"k 	c #2C1E19",
"l 	c #21150E",
"m 	c #22140D",
"n 	c #180F0C",
"o 	c #1C110D",
"p 	c #301611",
"q 	c #2E180F",
"r 	c #21110B",
"s 	c #361D12",
"t 	c #3C1C11",
"u 	c #CA9644",
"v 	c #9CC9DB",
"w 	c #6A492E",
"x 	c #472C1D",
"y 	c #271913",
"z 	c #20140E",
"A 	c #140C0C",
"B 	c #26130C",
"C 	c #3F2012",
"D 	c #9D4926",
"E 	c #A96D35",
"F 	c #BE9A58",
"G 	c #041116",
"H 	c #0B1317",
"I 	c #4A3724",
"J 	c #513622",
"K 	c #58331C",
"L 	c #2E1D13",
"M 	c #241811",
"N 	c #1A110E",
"O 	c #160D0A",
"P 	c #392014",
"Q 	c #2B170F",
"R 	c #1D0F0B",
"S 	c #532517",
"T 	c #5C2616",
"U 	c #B67329",
"V 	c #1E1715",
"W 	c #211614",
"X 	c #241A18",
"Y 	c #261D1B",
"Z 	c #291E1D",
"` 	c #2D2020",
" .	c #3E2D31",
"..	c #88654A",
"+.	c #532B19",
"@.	c #482718",
"#.	c #442717",
"$.	c #502917",
"%.	c #4C2A18",
"&.	c #331F18",
"*.	c #261611",
"=.	c #130D0A",
"-.	c #110A09",
";.	c #321A10",
">.	c #542215",
",.	c #1D1B19",
"'.	c #B38C4E",
").	c #5D4330",
"!.	c #3E2417",
"~.	c #24160F",
"{.	c #1E130E",
"].	c #0E0A09",
"^.	c #24140F",
"/.	c #1A0E0B",
"(.	c #291710",
"_.	c #150C0A",
":.	c #1F120C",
"<.	c #2A130E",
"[.	c #734C36",
"}.	c #3E2918",
"|.	c #312021",
"1.	c #49332B",
"2.	c #3E2A1E",
"3.	c #23100C",
"4.	c #23110F",
"5.	c #8E7667",
"6.	c #7E411E",
"7.	c #2A1D1C",
"8.	c #332324",
"9.	c #3F2B29",
"0.	c #25170E",
"a.	c #422619",
"b.	c #22130F",
"c.	c #1A0E0D",
"d.	c #21140B",
"e.	c #1C130D",
"f.	c #26120B",
"g.	c #463224",
"h.	c #1E110C",
"i.	c #3B2518",
"j.	c #25120D",
"k.	c #1D0D09",
"l.	c #481E12",
"m.	c #4A2216",
"n.	c #241818",
"o.	c #432F24",
"p.	c #221812",
"q.	c #35251A",
"r.	c #3E2016",
"s.	c #C67836",
"t.	c #32241E",
"u.	c #221511",
"v.	c #271810",
"w.	c #24160C",
"x.	c #793218",
"y.	c #2A1912",
"z.	c #21120D",
"A.	c #21110D",
"B.	c #626161",
"C.	c #393837",
"D.	c #1B1512",
"E.	c #33231B",
"F.	c #291D16",
"G.	c #552C1F",
"H.	c #4B2F1C",
"I.	c #474544",
"J.	c #1E1311",
"K.	c #160F0D",
"L.	c #565655",
"M.	c #9AC7D9",
"N.	c #261A12",
"O.	c #35190F",
"P.	c #834F34",
"Q.	c #1D120E",
"R.	c #261B15",
"S.	c #36201A",
"T.	c #3A1911",
"U.	c #B35729",
"V.	c #392B20",
"W.	c #241913",
"X.	c #271A13",
"Y.	c #693C22",
"Z.	c #995B26",
"`.	c #D58C33",
" +	c #E0A740",
".+	c #3D2925",
"++	c #634328",
"@+	c #6E6C6B",
"#+	c #241C15",
"$+	c #281A19",
"%+	c #E6C767",
"&+	c #E2B64A",
"*+	c #F4D359",
"=+	c #D4A956",
"-+	c #61767F",
";+	c #251614",
">+	c #A17539",
",+	c #F8E784",
"'+	c #DDB758",
")+	c #3A2722",
"!+	c #946B39",
"~+	c #88582A",
"{+	c #1F1510",
"]+	c #F5E6A1",
"^+	c #775535",
"/+	c #9FB4BA",
"(+	c #0F0C0A",
"_+	c #1E1512",
":+	c #FEFAC9",
"<+	c #EEC550",
"[+	c #D5A44A",
"}+	c #B6833B",
"|+	c #B6672A",
"1+	c #1A1311",
"2+	c #CB7620",
"3+	c #352620",
"4+	c #282423",
"5+	c #1C1410",
"6+	c #6F522E",
"7+	c #92481C",
"8+	c #B94220",
"9+	c #120E0C",
"0+	c #070708",
"a+	c #070707",
"b+	c #843711",
"c+	c #322D2C",
"d+	c #F0D66F",
"e+	c #CAA764",
"f+	c #A85F28",
"g+	c #0A0909",
"h+	c #2A2C2C",
"i+	c #1E1A14",
"j+	c #2A1C11",
"k+	c #728F9B",
"l+	c #171210",
"m+	c #110B0C",
"n+	c #1D0F0D",
"o+	c #14110E",
"p+	c #64260F",
"q+	c #7E230D",
"r+	c #181716",
"s+	c #080808",
"t+	c #0F0C0C",
"u+	c #201212",
"v+	c #311A16",
"w+	c #320F0C",
"x+	c #241313",
"y+	c #0C0B0D",
"z+	c #270E09",
"                                                                . + @     # $   %           & * ",
"                                                          #   + = - .   ; > > ,   &     ' ) !   ",
"                                                          ~ { ] ^ ~ + ^ / ~ (   _ %   : %       ",
"                                                        < < [ } < - | ^ 1 2 . 3 4 5 6 %   & !   ",
"                                                      ; 3 7 8 9 0 a b c 2 d e f 3 g % 5 & h     ",
"                                                    ~ 7 3 i j k l m n o p q r s t ) 5 , 4 5   u ",
"            v v v v v v v v v v v v v v v v v v v $ 3 w x 8 = y z A o q q B r a C > D g )   E F ",
"            v G G G G G G G G G G G G G H I 3 J 7 K x x 8 L M N O q P Q r r R Q ^ S T t K 5 U   ",
"            v G V W X Y Z ` 0  .< ; ..h 6 +.@.#.$.%.8 &.*.N =.-.l s ;.B R =.m Q a C s >.,.6 '.  ",
"            v G X X X Y Y ` 0  .< ; ).%.C q !.C | | ~.~.{.O ].B ^./.(.r _.:.B p <.t Q [.}._ *   ",
"            v G X X Y Z Z |. .{ 1.2.s P f f #.s b ^./.N ^.-.-.:./.a B O o m B <.3.t 4.5.6.6.    ",
"            v G Y 7.` ` ` 8.9.1.8 0.| [ a.%.%.P (.b.R c._.=.n d./.O /.e.^.3.f.3.3.q <...T '   * ",
"            v G Y Z 7.` ` |.g.}.^ ~.h.z b.z ~.i.} a /._.-.O m R R e.m j.<.r r k.;.p l.4 m.5.* F ",
"            v G n.X 7.Z Z o.2.(.Q ~.p.q.e | e.~.P m O =.]._.b j.*.l R r /.R 3.q r.>.>.m.+.5.s.  ",
"            v G W X ` ` t.e u.&.i.q.8 b ~.v.^ !.8 R -.-.-.O w.v.:.n /.O /.r q %.S x.f ( : D *   ",
"            v G W Y 7.7.&.e i &.u.] 8 y 0.e P P Q R -.-.-.O ~.:.O O O h.R j.@.+.4 x.+._ D ,     ",
"            v G V 7.= j i i y.n v.i {.m s ^ Q q z.-.-.].-.~.~./.R O h.A.a #.@.+.g g _ x D       ",
"      $ B.C.C.D.7.E.F.p.u.:.z.] i :.u.} ;.Q a z.B /._./.h.| :.d.R r ~.| !.!.#.@.+.G.H.H.6.      ",
"        @ I.C.V X J.K.u.y.e.y.j o u.e b ~.^ *.O /./.<.u.(.^ b b z.b P } ] } !.P +.i.H._ i ..    ",
"      L.C.B.M.G D.p.N.] N.N.M n O j L } | L b O.3.l.!.y 8 8 P } (.P s ~.(.P t @.8 x 3 P.( >     ",
"      $     v G X i q.p.*.J.Q.=.R.= 2.S.*.r.m.T.T.U.H.k 2.H.7 H.#.+.] b P m.a.[ e x K : D       ",
"            v H V.2.W.l X.L /.X.9 2.o.N Y.Z.m.$.`. +1 .+o.g./ ++( 3 i.m.g g !.v.L a.Y._ Y.      ",
"          @+I.2 o.#+Q.y y.L ~.o.i / $+g.%+( _ &+*+=+9.o.o.- 1.++6 P.Y._ _ x.!.e.^ #._ ( 2       ",
"      @ { I.-+t.2 N (.M j ] i g..+.+;+>+'.K %+,+*+'+.+.+- )+7 6 !+, E ~+6.6.L b } K $.. G       ",
"    + C.    C.i =.] X.{+S.M i g.V.W i : '.%+]+,+*+'+)+.+.+i ~+^+P.h u 6 D _ 0.^ #.+.L /+G       ",
"  L.B.  { 2 k (+F.2.v.j ~.y j o._+S.7 ]+:+:+,+<+<+[+.+9..+.+6 ~+w }+!+) |+%.v.} C Q ( v G       ",
"  @+I.D.R._+]._+o.L y z M ] F.j 1+o.h :+:+:+*+2+2+}+3+.+8.|.>+~+: h & [+E v.P } | ^ D v G       ",
"I.4+I.  ,.].K.o.j ~.u.~.] y.5+J.g.] Q 7 6+% ~+7+2+`..+++' !+' ).I J F =+6+| #.} 8 _ 8+v G       ",
"      I.9+K.V.R.d.l :.{.] z (+= o.s 4.].0+a+].c.b+`.}+}+_ S r.^ q./ '.'.++H.x i.J D 8+v G       ",
"    L.9+,.2 F.N y 5+z {.b (+_+3+f >+^+< I.S.>.g U |+6+Z.>.'+&+, )...F '.++3 H.J w 8+8+v G       ",
"@ c+C.  C.W.n y R.u.l l K.9+k J.~+d+%+s._ T [+d+,+>+$+Y.} 3 h ' )+/ e+'.++' 7 ++f+8+U.v G       ",
"      B.p.M {.u.(+y.N.0.9+_+= J.~+]+]+'+s.'+]+]+,+6.3+x S.n.k k i / e+e+'.6+7 Z.|+U.U.v G       ",
"    + Y = 0.Y g+n c ] e.(+W j $+C '+,+,+'+,+]+,+<+!+E.2.9 9.)+o.1.^+F e+F H.++s.s.U.) v G       ",
"  h+i+F.j+< k+(+0.M j 5+5+p.j l+J.Z.d+'+%+]+]+d+,+}+)+2.3+9.0 ++h ^+% '.++}.>+`.s.: ) v G       ",
"L.Z 2 2 @+  h+{+] y.{+5+_+_+W.m+K.m.<+ +d+d+<+,+:+& ).g.)+0 8.6+w ' & !+++}+`.s.) : : v G       ",
"4+@+c+    h+N y L {+9+e.5+W W.n+N ;+2+<+d+&+U U <+6 I }.= |.).w P.[...}+[+&+`.|+f+U E v G       ",
"L.    $ 4+5+N {+l K.n e.1+c o+/._+r.U.*+ + +U p+q+O.=.y.S.g.^+/ 6+w ' [+<+ +`.`. +u & v G       ",
"    @+r+O n n (+5+K.v.(+K.W.s+A k >.f+ +`.}+Z.U x.T.O Q.2.++^+h J ++!+'+*+<+&+'+'.++^+v G       ",
"  I.,.9+C.n (+g+_+v.e.(+F.(+g+= &.+.7+f+}+[+&+ +7+r.j+}.g.w !+& 6 ^+F *+d+=+'.% 3 !+=+v G       ",
"B.B.C.  { =.g+t+{+0.].#+l+g+= 2 u+G.: : }+>+!+f+x.u.j+j+W.j w & 3 h '+d+F 6+6 u d+%+[+v G       ",
"  L.  L.9+=.].{+N.=.l+e.g+{.E.(+].v+6.: E Y.~+f+_ t V.; g.= 3 / Y.}+%+!+/ H.}+,+,+'+}+v G       ",
"    C.].o+,.=.j N _+o+g+].l+K.A l } +._ ( Z.U Z.b+g V.o.o.V.w ' ) [+!+9 d Y.d+d+h $.~+v G       ",
"  I.I.C.B.X k W.i+9+s+g+V [ (+(+o+%.c a.d : Z.p+w+<.p.D.V / '.&+ +~+c e %.%+=+$.j.6 <+v G       ",
"@+  @   I.. i+o+g+s+0+t+: ( B g+m+r.*._+J.( |+|+x.z.g.1 c+).~+ +U x+= b.>+'+G.(.r.u *+v G       ",
"          - k+t+;._ r.;+;.Q C /.g+z.^ u+y+b 7+D 4 R./ - 1.w f+`.H.(.v+d u 6 } x+: <+*+v G       ",
"        + @+v G f+Z._ g O.].A O.O g+m+(.u.-.k.z+/.l+t.` I E s.|+n ^.(.K E !.] p ) `.<+v G       ",
"            v v v v v v v v v v v v v v v v v v v v v v v v v v v v v v v v v v v v v v G       ",
"              G G G G G G G G G G G G G G G G G G G G G G G G G G G G G G G G G G G G G G       "};
