/* XPM */
/* c:\Program Files\Silkroad\Silkroad.ico */
static char *icon[] = {
"32 32 129 2",
"04 c #1D1A1B",
"05 c #2F1D25",
"07 c #3B2631",
"08 c #35212C",
"0B c #151315",
"0D c #908B9A",
"11 c #161718",
"14 c #0E110C",
"18 c #AFB077",
"1D c #262620",
"1F c #F1F1D8",
"20 c #F4F4E2",
"22 c #C5C397",
"23 c #E0DBA3",
"24 c #E8E5B8",
"25 c #CBC8A8",
"26 c #BCBAA3",
"27 c #FBFAEE",
"28 c #DAD396",
"29 c #2D2C22",
"2A c #AFA76C",
"2B c #F4EBAA",
"2C c #D3CB93",
"2E c #ECE3A7",
"30 c #25241C",
"32 c #E1DCB4",
"33 c #332F17",
"34 c #2D2A17",
"35 c #A1996C",
"36 c #999269",
"38 c #9B9571",
"3B c #74705A",
"3C c #BCB280",
"3D c #F1E4A7",
"3F c #F9EDB0",
"40 c #ADA57B",
"42 c #6F6A50",
"44 c #7C7247",
"47 c #EADC9F",
"48 c #F5E6A8",
"49 c #857D5B",
"4A c #CDC18D",
"4B c #A79D75",
"4C c #645E46",
"4E c #353226",
"51 c #F3E7B4",
"52 c #D6CB9E",
"54 c #C4BB93",
"55 c #7D775E",
"57 c #B9B18E",
"59 c #464336",
"5C c #726434",
"5D c #3B3623",
"5F c #DECC88",
"61 c #8F845B",
"62 c #F2E19F",
"64 c #AA9E72",
"65 c #524C37",
"66 c #DDCD96",
"6A c #2C291E",
"6C c #EBDCA2",
"6D c #B6AA7E",
"6E c #4D4836",
"71 c #524D3A",
"72 c #3E3A2C",
"75 c #978E6E",
"77 c #5C5745",
"7A c #6F6136",
"7B c #B29E5C",
"7C c #37311D",
"7D c #A08F59",
"7E c #4C442B",
"7F c #BBA86C",
"80 c #897B4F",
"81 c #C2B074",
"82 c #E2CD89",
"85 c #94875B",
"86 c #ECD693",
"88 c #CFBC81",
"89 c #988C65",
"8A c #756C4E",
"8C c #D4C38E",
"8D c #F1DEA2",
"8E c #E4D29A",
"95 c #DCCD9A",
"9C c #D2C499",
"9D c #CEC196",
"9E c #C4B78F",
"A0 c #CABD94",
"A2 c #746741",
"A3 c #3F3824",
"A4 c #DDC582",
"A6 c #AC9B68",
"A7 c #857955",
"AA c #A29368",
"AB c #E6D297",
"AC c #696046",
"AE c #4B4533",
"B1 c #7C7255",
"B2 c #D5C493",
"B8 c #1D1B15",
"BF c #3D3A32",
"C1 c #635530",
"C3 c #332C1B",
"C6 c #5D543D",
"C7 c #433D2E",
"C8 c #E7D3A2",
"CC c #3A362C",
"CD c #564622",
"CE c #584E37",
"CF c #8C7E60",
"D0 c #A49675",
"D3 c #363229",
"D4 c #2A2720",
"D7 c #0A0907",
"D8 c #29251D",
"E1 c #493F2C",
"E5 c #918775",
"E6 c #1A1712",
"E8 c #32230D",
"EB c #12100D",
"EE c #E7DFD3",
"F0 c #251F17",
"F2 c #2B1C0A",
"F3 c #352E25",
"F8 c #221E1A",
"FD c #0D0C0C",
"FE c #030303",
"   c None",
"    29D4D4D8D8D830D8D830303030303030303030303030303030303030    ",
"  07209EA0A0A0A0A0A0A09E8E476C6C6C47476C323252A09D9D9D9D9D9C05  ",
"29206DB17765C7777E26FE51AB8E666695668E8E8E2E64AE775D6577B19E9CB8",
"D49EB15DD0D06580AB62888C7D5C0B0B0BE65C7DB28C3D8680654BD0F3B19CB8",
"D4A077D0754C75A495A6C3FD0B0429D82929040BFDC3A68E5F617775D0719CB8",
"D8A0714B4CA4277FC3FD30292929307704292929F3D8FDC3813F51774BAE52E6",
"D8A0C76575277BA304F329F32929F81F3329292929F329045D7F3F616E5D520B",
"D8A07780A47F5D0BF329294E2929B81FE8D8292929292929115D81828071520B",
"D8A07EAB95C3044E2930F3292929FD2A0DB82929292929292904C3C88672520B",
"D8A02662A6FDF330BF72302929FD3B2727D7F3D4296A292929F3FDA62B649C0B",
"30A0FE88C31DB8BFB1CECC290B3627257BFDBFCC29BF292929293034B2489C0B",
"D89E518CFDF0652423A2FDFE364C57C31880D377773029CCD329F3FD956CA00B",
"308EAB7D0BAED04BACC6892E42B8F2EE205CAC4C59D329F3F329F30B7D472E0B",
"306CAB5C04F3CC6A5D44F8B8291DEBAA27EB8189AC30292929CCF3045C473D0B",
"306C660B29292929F85528AAFEFEA21F25CD0481A3FECC2929292929EB8E3D0B",
"306C95EB292929D4D8B8A61F1FCF7D40202CB13222E6042929292929FD8E3DE6",
"306C8EEB4ED3F3CCBFF8FEA2A61F3C44E575A25425C15DF329292929EB8E2EB8",
"306C950BF3CC2929D3BFD3FE7A52AAE1B18535644A6D5D29292929290B8E2EB8",
"306CAB7A305929292959C7D70B8938A78A4CF3C73C9EE1F3302929045C8E2EB8",
"308E8E7D0B29F32929D830D88A52E1FEF8F830F34C4B5942C7D3290B7D476CB8",
"305447B2FD2972CCF3D30B4928D865C72929CCB10B408AF36D77D8FD954AA0B8",
"30A03D8CC33029D8D830F340C30B6DC76A29CCAAFE42A0D80B301DC3664BA0F8",
"30A0643DA6FDF3F3D40B61CEB8F8B1AC30295D6DFE5940B104F3FDA6484B9DF8",
"D8A06EAB957C04F3F3B8A772FED8F34930D8D328FDB84CB104047C95ABAE9DF8",
"D8A077805F81A3042929F389EBB8B83530298A773030ACB10B5D815F80779DF8",
"D8A0C771853F7FA304F3B8CF5D30043CF82964FE4E308A42C37F3F8565A39DF0",
"D8A065D04C513F817CFD304EF329D835304C77FD4E30B87E7F3F514CD0659D30",
"D8A077D0754C855F95A67CFD0B040489D8490B0B147CAA955F857775D077A030",
"D8A0B1A3D04B7180AB3D8CB27D7A5DF80BF87A7DB28C48AB80714BD05DB1A030",
"29A09EB17765C7776E648D478E8E8E6695668E8E8D664965C6C765C6B19EA030",
"  07A0A0A0A0A0A0A0A0A09E8E476C476C6C6C8E576D9DA0A0A0A0A0A0A008  ",
"    6AD4D8D8D8D8D830D8D8D83030303030303030303030D8D8D83030D8    "};
