/* XPM */
static char * SonicAdventureDX_xpm[] = {
"32 32 95 2",
"  	c None",
". 	c #CCCCFF",
"+ 	c #333333",
"@ 	c #0C0C0C",
"# 	c #040404",
"$ 	c #4D4D4D",
"% 	c #161616",
"& 	c #292929",
"* 	c #555555",
"= 	c #222222",
"- 	c #C0C0C0",
"; 	c #9999CC",
"> 	c #3366CC",
", 	c #333399",
"' 	c #003399",
") 	c #000099",
"! 	c #330099",
"~ 	c #999966",
"{ 	c #868686",
"] 	c #CCCCCC",
"^ 	c #FFFFFF",
"/ 	c #DDDDDD",
"( 	c #663300",
"_ 	c #FF9900",
": 	c #333300",
"< 	c #CC9900",
"[ 	c #996600",
"} 	c #FFCC00",
"| 	c #CC6600",
"1 	c #969696",
"2 	c #A6CAF0",
"3 	c #6666CC",
"4 	c #3333CC",
"5 	c #663399",
"6 	c #FFFF33",
"7 	c #666699",
"8 	c #FFFF00",
"9 	c #FFCC66",
"0 	c #FFCC33",
"a 	c #666666",
"b 	c #B2B2B2",
"c 	c #808000",
"d 	c #666600",
"e 	c #A0A0A4",
"f 	c #996699",
"g 	c #CC9933",
"h 	c #5F5F5F",
"i 	c #F1F1F1",
"j 	c #777777",
"k 	c #999999",
"l 	c #E3E3E3",
"m 	c #330000",
"n 	c #424242",
"o 	c #663366",
"p 	c #393939",
"q 	c #993300",
"r 	c #0000CC",
"s 	c #CCECFF",
"t 	c #D7D7D7",
"u 	c #3300CC",
"v 	c #6666FF",
"w 	c #9999FF",
"x 	c #6699FF",
"y 	c #6699CC",
"z 	c #000080",
"A 	c #333366",
"B 	c #000066",
"C 	c #EAEAEA",
"D 	c #C0DCC0",
"E 	c #FFFBF0",
"F 	c #99CC99",
"G 	c #CCFFCC",
"H 	c #336600",
"I 	c #339933",
"J 	c #336699",
"K 	c #006600",
"L 	c #000033",
"M 	c #336666",
"N 	c #003300",
"O 	c #669966",
"P 	c #003366",
"Q 	c #ADA990",
"R 	c #336633",
"S 	c #330066",
"T 	c #330033",
"U 	c #996666",
"V 	c #CC9966",
"W 	c #FF9966",
"X 	c #FF9933",
"Y 	c #660000",
"Z 	c #CC6633",
"` 	c #800000",
" .	c #993333",
"..	c #CCCC99",
"+.	c #CCCC66",
". + @ @ # @ @ @   $ % @ @ & * = # # @ # $ - ; > , ' ) ! ~ { ] ^ ",
"/   ( _ _ _ _ _ : # # < _ [ # ( _ } | ( 1 2 3 4 , , ) 5 6 7 ] ^ ",
"] % [ 8 8 8 8 8 8 ( # _ 8 } @ | 8 } ( = . 3 4 4 4 4 7 9 0 a b ^ ",
"b % < 8 } c c } 8 _ # d } 8 | 8 } ( = e ; 3 3 4 4 4 7 f g h 1 i ",
"e @ _ 8 | @ @ [ 8 } # @ _ 8 8 8 [ @ j . 3 3 3 3 4 4 4 ) $ d k l ",
"{ m } 8 [     [ 8 } # # d 8 8 < # n l ; 3 3 3 3 3 4 4 ) ) n 1 ] ",
"$ : } } ( % @ < } _ # : _ } } < # * . 3 3 3 3 3 3 4 4 , ) o a b ",
"p ( } _ : # [ } } q # | } } } } : + / ; 3 3 3 3 3 4 4 4 4 r 7 k ",
"  [ } _ < < } } _ # [ } } d _ } < # b 2 3 3 3 3 3 4 4 4 4 r 7 1 ",
"% | } } } } } | m ( } } [ # q } } [ & s 3 3 3 3 3 4 4 4 4 ) 7 1 ",
"  q q q q q q : = ( q q % + ( q q [ : 1 3 3 3 3 3 4 4 4 4 ! h b ",
"# @ % = = + p j - n p p k t { = & & % h ; 3 3 3 3 3 4 4 u ) h b ",
"; ; ; ; ; ; 3 3 3 v w w w v x w w y 3 3 3 3 4 3 3 3 4 4 r , h - ",
") ) ) ) ) ) z ) 4 4 4 ) ) z z z z ) ) 4 4 4 4 3 4 3 4 4 r z h - ",
") ) ) ) ) ) z r 4 4 ) z A e ; j A B z ) 4 4 4 4 4 4 4 4 r , a - ",
") ) ) ) ) z ) r 4 4 z e ^ ^ ^ ^ i 1 B z , 4 4 4 4 4 4 4 r ; a ] ",
") ) ) ) ) ) ) r 4 ) a ^ ^ C ^ ^ ^ ^ e B ) 4 4 4 4 4 4 r , D j t ",
") ) ) ) ) ) ) ) r z - ^ E F F ^ ^ ^ i { B ) 4 4 4 4 4 ) 4 G { C ",
") ) ) ) ) ) ) ) ) z E ^ D H I D ^ ^ ^ t A z , 4 4 4 4 ) J D k i ",
") ) ) ) ) ) ) ) ) z E ^ F K K F ^ ^ ^ ^ b L z 4 4 4 4 z M D 1 i ",
") ) ) ) ) ) ) ) ) z b ^ F N N O ^ ^ ^ ^ / A B 4 4 4 ) P O Q e ^ ",
") ) ) ) ) ) ) ) ) z A ^ O @ # a ^ ^ ^ ^ ^ 1 B ) ) 4 ) R ~ { b ^ ",
") ) ) , ' ) ) ) ) ) z ] O @ i O ^ ^ ^ ^ ^ / 1 B B ) ) R ~ a t ^ ",
") ) ) , , , ) z z ) z A 1 N $ O ^ ^ ^ ^ ^ ^ ^ / 1 1 ~ ~ - { C ^ ",
"z z z ) , , , z z S A T A R N F ^ ^ ^ ^ ^ ^ ^ ^ ^ / U 9 1 { ^ ^ ",
"z z z z , 4 4 z z p U U o { O b ^ ^ ^ ^ ^ ^ ^ / V V 0 0 { - ^ ^ ",
"z z B B B ! 3 4 A V 9 W 9 9 g V / ^ ^ / - X X 9 g & @ # $ k ^ ^ ",
"B B B L L B B 3 5 9 g Y X 9 9 W X X X X X X 9 9 # # # t = j ^ ^ ",
"z z z z B B B B z V Z `  .9 9 9 9 9 9 9 9 9 9 9 V $ $ * $ ] ^ ^ ",
"j j o A B z z B B z f 9 X Z Z X 9 9 9 9 9 9 9 9 ..{ j { - i ^ ^ ",
"9 9 +.o B B B A o j o , V V V V V W 9 9 9 9 V { e b - l ^ ^ ^ ^ ",
"9 9 * B B A +.9 9 9 9 f { e 1 { { j a h h j e ] l ^ ^ ^ ^ ^ ^ ^ "};
