/* XPM */
static char * SWKotor_xpm[] = {
"32 32 20 1",
" 	c None",
".	c #000000",
"+	c #808080",
"@	c #999999",
"#	c #A0A0A4",
"$	c #666699",
"%	c #C0C0C0",
"&	c #777777",
"*	c #666633",
"=	c #C0DCC0",
"-	c #333333",
";	c #444444",
">	c #FFFBF0",
",	c #663333",
"'	c #CC9999",
")	c #CC99CC",
"!	c #996633",
"~	c #333300",
"{	c #333399",
"]	c #9999CC",
"                                ",
"           ...........          ",
"         ..+++@#@++#@+..        ",
"        .$++++@@#%@@##%+.       ",
"       .$&&++++@@#%@@##%+.      ",
"      .*&&&&++++@##=@##==+.     ",
"     .---;&&&+++@@#=@@#%>=+.    ",
"    .-----;,*++++@#@@@##>>#&.   ",
"    .-----;;;;,*@@'@@@##=>%&.   ",
"   .*********,,,*@#)%%%#%>%&.   ",
"   .***@@@@***+++++!!&@%%>&&.   ",
"   .**;$$$$@**+@@@*-~--,'>&&.   ",
"   .*;*$$$$$+*@@#%#!*~..;%%&.   ",
"   .;$;-.,$$+,&+@%>>%+;-,@*#.   ",
"   .$$;-.*&$+,,!+@%>>>%#'%&-.   ",
"   .$*--.+$$$&*,,&'%>>>>%%=*.   ",
"   .&{*-.*&$$$++**@'%=>%'@'%+.  ",
"  .$&&;;.-*$$$&&&+@@'%%@**!@+.  ",
"  .*&&&$;--*$$$&&&&####@;-;;$.  ",
"  .$&&&$$$$&&+++####%%#%%&-$..  ",
"  .*;&&&&&&++++++#%=>>>=%%#..   ",
"  .*&{]%$&$++++++++@@#%%#%#..   ",
"  .;&...$+++++$$$$&+++++%%#+.   ",
"  .;--..++$****&++@##%%%%%@+.   ",
"  .*~---$;;,**$&+@##%%%%%%+$.   ",
"  .$-;~.;;;;;;;;*$+@#%%%%%+.    ",
"  .$;;*..----;;-~---;;$+%%+.    ",
"  .....................-;#+.    ",
"  ...$;;***++++++#;;......$.    ",
"  ..$;;;**++++++++###%...-$.    ",
"   ........................     ",
"                                "};
