/* XPM */
/* C:\Program Files\Trillian\trillian.exe */
static char *icon[] = {
"48 48 247 2",
"01 c #041E2D",
"02 c #0F2632",
"03 c #2F3333",
"04 c #002D5E",
"05 c #0F3044",
"06 c #172D42",
"07 c #1C344E",
"08 c #1B3956",
"09 c #002E60",
"0A c #013368",
"0B c #013A76",
"0C c #1D3F62",
"0D c #243A4A",
"0E c #243B54",
"0F c #353A46",
"10 c #1F415D",
"11 c #08417E",
"12 c #1A446D",
"13 c #174C7E",
"14 c #2B4259",
"15 c #3F4345",
"16 c #364758",
"17 c #274964",
"18 c #295478",
"19 c #354961",
"1A c #375369",
"1B c #3F6A7D",
"1C c #5F4A3C",
"1D c #6C4211",
"1E c #654A32",
"1F c #6B553B",
"20 c #7B5C2E",
"21 c #414F5F",
"22 c #475242",
"23 c #42505E",
"24 c #584B42",
"25 c #5E534F",
"26 c #51575F",
"27 c #4A5A69",
"28 c #496579",
"29 c #5E666D",
"2A c #576676",
"2B c #61504D",
"2C c #63634C",
"2D c #6A705B",
"2E c #7A6948",
"2F c #786B5A",
"30 c #666665",
"31 c #637263",
"32 c #69737E",
"33 c #747474",
"34 c #7A7A7B",
"35 c #084686",
"36 c #0E4F90",
"37 c #0E5090",
"38 c #124885",
"39 c #13528E",
"3A c #175897",
"3B c #1C629E",
"3C c #1E62A0",
"3D c #225C94",
"3E c #2C638E",
"3F c #29669A",
"40 c #3E638A",
"41 c #3E759B",
"42 c #2469A4",
"43 c #2B76AD",
"44 c #2F7CB1",
"45 c #346EA6",
"46 c #3575A8",
"47 c #307DB2",
"48 c #456588",
"49 c #506C87",
"4A c #5B718A",
"4B c #427AAD",
"4C c #667686",
"4D c #787F88",
"4E c #6F8476",
"4F c #3787B8",
"50 c #3D90BD",
"51 c #4985AF",
"52 c #478AB7",
"53 c #4093BF",
"54 c #5188A7",
"55 c #508FB9",
"56 c #5D99BD",
"57 c #78868E",
"58 c #778997",
"59 c #719394",
"5A c #6698B3",
"5B c #7692AA",
"5C c #759BB1",
"5D c #4897C2",
"5E c #519BC4",
"5F c #59A3C9",
"60 c #67ABCD",
"61 c #77B3D2",
"62 c #8C5827",
"63 c #975B2A",
"64 c #9F6F24",
"65 c #99782A",
"66 c #A5600D",
"67 c #B36505",
"68 c #B96816",
"69 c #AA732C",
"6A c #A3733B",
"6B c #B37C36",
"6C c #8A6746",
"6D c #87714D",
"6E c #9C7243",
"6F c #9B7D64",
"70 c #C61E0D",
"71 c #CD1B11",
"72 c #DA0301",
"73 c #CE2C17",
"74 c #C23611",
"75 c #E60000",
"77 c #F40000",
"78 c #E42111",
"7A c #E83D21",
"7B c #D34C1E",
"7C c #DA5719",
"7D c #D84823",
"7E c #C66517",
"7F c #D5621A",
"80 c #DB7C0F",
"81 c #C47E28",
"83 c #E35325",
"84 c #E86F31",
"85 c #E27822",
"86 c #E05D41",
"87 c #908B39",
"88 c #BB853B",
"89 c #8D9154",
"8A c #988957",
"8B c #808365",
"8C c #87887A",
"8D c #8F9E74",
"8E c #979C6B",
"8F c #979C7D",
"90 c #BB8849",
"91 c #B49557",
"92 c #DE8617",
"94 c #CF9D2C",
"95 c #CA903E",
"96 c #D4882C",
"97 c #D9983B",
"98 c #DDB235",
"99 c #E7850A",
"9A c #E68E1A",
"9B c #E79218",
"9C c #F5810D",
"9D c #FF960E",
"9E c #FB9914",
"9F c #E8812F",
"A0 c #EEA11B",
"A1 c #FEA817",
"A2 c #FEB21C",
"A3 c #EFAB20",
"A4 c #FDA922",
"A6 c #FFBA22",
"A7 c #FFB330",
"A8 c #CB9857",
"A9 c #DA984A",
"AA c #D8A65C",
"AB c #C4A76D",
"AC c #C5BC61",
"AD c #D6A867",
"AE c #D8BC7A",
"AF c #E3894B",
"B0 c #E49F47",
"B1 c #EFA647",
"B2 c #F4AA56",
"B3 c #FDB846",
"B4 c #EEA676",
"B5 c #F4B763",
"B6 c #FEC82A",
"B7 c #FECD36",
"B8 c #FDD535",
"B9 c #FEE23D",
"BA c #CFC24E",
"BB c #DFD15E",
"BC c #D7C665",
"BD c #D6CE77",
"BE c #EFC147",
"BF c #EFC15D",
"C0 c #FDC946",
"C1 c #FEC658",
"C2 c #FCD94A",
"C3 c #FFD958",
"C4 c #EDDA73",
"C5 c #FEC866",
"C7 c #FDD66B",
"C8 c #FCD678",
"C9 c #FEE545",
"CA c #FEE758",
"CB c #FEE867",
"CC c #FEEB78",
"CD c #848484",
"CE c #8D8D8D",
"CF c #858E98",
"D0 c #89939C",
"D1 c #959595",
"D2 c #989898",
"D3 c #879BAA",
"D4 c #96A890",
"D5 c #9CA5AA",
"D6 c #A18D85",
"D7 c #ACAB8D",
"D8 c #B2BA94",
"D9 c #8AB1C5",
"DA c #85B9D6",
"DB c #99BCD3",
"DC c #8EC1DB",
"DD c #96C4DC",
"DE c #9ECAE0",
"DF c #ACC1CE",
"E0 c #A4C6DC",
"E1 c #B1C5CE",
"E2 c #A3CCE1",
"E3 c #AED2E5",
"E4 c #BBD9E9",
"E5 c #C9A988",
"E6 c #D0AD80",
"E7 c #DAB785",
"E8 c #CCCA91",
"EA c #D6D689",
"EB c #DCD594",
"EC c #E7D688",
"ED c #FFD588",
"EE c #F9DB94",
"EF c #FEEC85",
"F0 c #FEEA94",
"F1 c #FFF08C",
"F2 c #FEF198",
"F3 c #FDE9A7",
"F4 c #FFEAB6",
"F5 c #FEF3A8",
"F6 c #FEF4B4",
"F7 c #C9D3D8",
"F8 c #D6DADD",
"F9 c #C7E0EE",
"FA c #FFECC4",
"FB c #FFF5C6",
"FC c #FFF7D7",
"FD c #FFF9E6",
"   c None",
"                                                                                                ",
"                                                                                                ",
"                          ADAAADE6                                                              ",
"                    AAC1EDF4FBFAEEC595E5                                                        ",
"                E7C1F3FAFBFCFDFDFDFCFBC590                                                      ",
"              ABC0EFF0F5FBFBFBFBFBFBFBF6ED6B                                                    ",
"          DF8CA7C7F0F1F5F5F6FBFBF6F6F5F5F0C86A                                                  ",
"      F8DB129AC0CBCCF1F2F5F5F6F5F5F5F2F2CCC7A76F                                                ",
"    F8E00B1FA2C3CBF1F1F5F5F6F6FBF5F5F2EFCCCBA763                                                ",
"  F7F93D0A81B6CBCCCCF2F2F5F6F6F5F6F5F2F1CCCBB39C16                                              ",
"  E4DA0A0AA1B6C9CBCCF1F2F5F5F659E8F2F2EFCCCCC09D0F2A                                            ",
"E1E2550A14A1B8B9CACBCCF1F2F5D8178EF2EA1BBBCAB8A23008                                            ",
"D9DC4B0B15A2B7B9C9CACCEFF1F2EB22ECEF8E05BAC9B6A11F3F2A                                          ",
"616152110FA2B6B9C9C9CAA9EFF0F0F1EFCCBB87C9B9B6A11E282A                                          ",
"5F5F5E350E64B6B9B9C9CB7073AFC4CCCCCBCAC9C9B9A69D241B58                                          ",
"54535D431120A6B8B9CACB7B7275757883849F85B8B8A292274C                                            ",
"5B474F4F421AA0B7B9CBCBBF727577777575727BB89888242AD1                                            ",
"  39434743421A94C0CBCCCCB57A7777757583C2B6A28025CD                                              ",
"  4A113A42423C382DBCCCEFEFF0C8B5B2C5C7C0A29E1C34                                                ",
"    190B113A3A3A3811278FECEEF0F0CCC8C7A2991C30                                                  ",
"      100A0B113537353838384858D7E7B39E682430                                                    ",
"        190A0A0B353535393A3A3D3C4543541A285B              AAB3C5EDEDC5B3A8                      ",
"          2A0704090A111135393A3C424347505D5F60605A5CD3A8C5F4FCFDFDFDFCFBF3C190                  ",
"              270E04040A0A0B113536373A3A3C3C4247525AB0C8F4FBFCFCFCFCFBFBFBF5C86B                ",
"                  32210E0A0A0A0A0B1111353A3A3A3A3A88C7F0F5F6F6FBFBFBFBF6F6F5F0C569              ",
"                        4D2714110B0B110B353A3A3B2FB3CCF0F2F5F5F6F5F5F5F5F2F2F1EFA76E            ",
"                              CE230811110B363A3A9BC7C4BDF1F2D431F5F5F5F1F1CCCCCCC09ED6          ",
"                                  CF0C1111353A29A4C38D0DCCF24E02F5F5F1F1EFCBCACAB8A16C          ",
"                                    583511363A6EA6C28901ECF2E88BF6F5F5F2CCCBCAC9B8A162          ",
"                                      1135363B81A6C2CBACEFF1F5F5F6F5EEF1F1CCCAB9B6A16234        ",
"                                      18353A3A96B6B9CACBCCEFF1EEB48671F1CCCBCAB9B6A27E14        ",
"                                      40353A4597B6B7747B7D7A787575727DCCCBCAB9B9B8A17E1128      ",
"                                      48353A4B90A6B97F72727577777572C5CCCBCAB9B9B8A16335DAD5    ",
"                                      49113A452EA2B8B87C727777777AB5CCCCCBCAC9B9B69D2B39DE57    ",
"                                      4A113942499BB6B8B9BEB1B2C7CCEFCCCCCBCBCAB8A299123AE357D1  ",
"                                      580B3542456DA2B6B9CACBCCCCCCEFCCCCCCCBC3B69E1D134BE4E2CD  ",
"                                        09113A42462EA3B7CACCCCCCEFEFEFEFCCC7C3A167053ADAE4DD33  ",
"                                        1A0A114242452365BEC7EFEFF0F0EFEFC8C7A466063E61E4E42833  ",
"                                          0A0A354243433E192C8AABBDEEECAE9120031251DDE3E3DD21CD  ",
"                                          4C090B353C444447463E1817100810184156DADEE2E2DE4626    ",
"                                            2A090A353A444F4F50535D5E5F6161DADCDCDDDDDA3F1633    ",
"                                              320A0A0B353C4750535D5E5F60616161DA6155381430      ",
"                                                D0140A0A0B11393C44505D5E5E5E5245350B1630        ",
"                                                    32140B0A0A0B0B0B110B0B0B0A08142633          ",
"                                                        57271914080808081414233033D2            ",
"                                                              D1CD34343434CDD2                  ",
"                                                                                                ",
"                                                                                                "};
