/* XPM */
/* c:\Program Files\Trillian\trillian.exe */
static char *icon[] = {
"48 48 251 2",
"00 c #000000",
"01 c #031615",
"02 c #190700",
"03 c #00162D",
"04 c #0E2A35",
"05 c #241200",
"06 c #332900",
"07 c #343729",
"08 c #001558",
"09 c #00365C",
"0A c #1D295A",
"0B c #1B365E",
"0C c #002867",
"0D c #002576",
"0E c #003B6B",
"0F c #003779",
"10 c #1C3965",
"11 c #263859",
"12 c #373758",
"13 c #2D3F66",
"14 c #00593B",
"15 c #004768",
"16 c #004678",
"17 c #00566E",
"18 c #005775",
"19 c #1D4F6B",
"1A c #1A4C78",
"1B c #006F4B",
"1C c #006B6E",
"1D c #2F5B5A",
"1E c #3D4059",
"1F c #315058",
"20 c #23496C",
"21 c #264972",
"22 c #285776",
"23 c #33546F",
"24 c #30557B",
"25 c #3C667A",
"26 c #4D4316",
"27 c #4F5437",
"28 c #6D5412",
"29 c #4B5348",
"2A c #414762",
"2B c #445A79",
"2C c #4B637C",
"2D c #5D6C73",
"2E c #5C7371",
"2F c #6B6948",
"30 c #676767",
"31 c #687377",
"32 c #797B7B",
"33 c #003788",
"34 c #0027AF",
"35 c #004B88",
"36 c #004698",
"37 c #005789",
"38 c #005796",
"3A c #195D97",
"3B c #004CA5",
"3C c #004EB4",
"3D c #0157A6",
"3E c #0057B9",
"3F c #026A86",
"40 c #006196",
"41 c #007B84",
"42 c #00779F",
"43 c #11608E",
"44 c #1F7393",
"45 c #0066A7",
"46 c #016DBA",
"47 c #0077A6",
"48 c #0075BB",
"49 c #177CBA",
"4A c #2C5686",
"4B c #2B5E95",
"4C c #365782",
"4D c #326F91",
"4E c #2E6DAB",
"4F c #004FEF",
"50 c #0073C7",
"51 c #006AE9",
"52 c #426B85",
"53 c #426F9A",
"54 c #49758A",
"55 c #447897",
"56 c #577587",
"57 c #4674A4",
"58 c #4878B1",
"59 c #5F7FAF",
"5A c #687A85",
"5B c #6376A2",
"5C c #6275B3",
"5D c #008600",
"5E c #008137",
"5F c #009B4D",
"60 c #009074",
"61 c #00B077",
"62 c #00D449",
"63 c #1D9380",
"64 c #008AAD",
"65 c #0087B5",
"66 c #0095B9",
"67 c #00AC92",
"68 c #00ABB4",
"69 c #358CAD",
"6A c #32A6AF",
"6B c #0086C6",
"6C c #008CD2",
"6D c #0096C8",
"6E c #009CD8",
"6F c #178BC6",
"70 c #1594D1",
"71 c #0095EA",
"72 c #00A6CA",
"74 c #1EA7CD",
"75 c #1AA2DA",
"76 c #1FB2DD",
"77 c #00AAE5",
"78 c #00AFF8",
"79 c #00B9E8",
"7A c #00B7F9",
"7B c #13BDE9",
"7C c #2D88C7",
"7D c #32ACD4",
"7E c #2DB4E5",
"7F c #0FC394",
"80 c #00C7B4",
"81 c #00EAB7",
"82 c #35D990",
"83 c #00C8D5",
"84 c #00C9FF",
"85 c #2AC3D0",
"86 c #3AD3F6",
"87 c #33EFCC",
"88 c #4C839A",
"89 c #568297",
"8A c #508FAF",
"8B c #5CA1BE",
"8C c #6E828B",
"8D c #688797",
"8E c #77848B",
"8F c #788695",
"90 c #6589A7",
"91 c #6994A8",
"92 c #6794BA",
"93 c #7992A1",
"94 c #7696BA",
"96 c #498DD1",
"97 c #5A8BCC",
"98 c #569CC5",
"99 c #5C9DD3",
"9A c #47A6CE",
"9B c #45A9DA",
"9C c #4AB5CA",
"9D c #58A9C6",
"9E c #58A9D5",
"A0 c #56B6DB",
"A1 c #47B7E1",
"A2 c #5CB9E1",
"A3 c #699DC1",
"A4 c #649FD6",
"A5 c #728CCE",
"A6 c #6AA9C8",
"A7 c #69AAD9",
"A8 c #67B0CA",
"A9 c #61B6D3",
"AA c #75A8C5",
"AB c #78A6D4",
"AC c #79B7D5",
"AD c #6BB8E0",
"AE c #4BD1A8",
"AF c #65DCB3",
"B0 c #57CBD6",
"B1 c #4ECCF0",
"B2 c #74D0CE",
"B3 c #65C7E4",
"B4 c #69D4EE",
"B5 c #6AD7FA",
"B6 c #7BCDE1",
"B7 c #77CBFF",
"B9 c #77DEFF",
"BA c #69E4CA",
"BB c #7EE5EC",
"BC c #84827D",
"BD c #858788",
"BE c #878E97",
"BF c #8D959B",
"C0 c #939596",
"C1 c #8797A4",
"C2 c #8798B8",
"C3 c #8BA2AB",
"C4 c #85A4B1",
"C5 c #9DA0A1",
"C6 c #9BA6B5",
"C7 c #B5A991",
"C8 c #A2ADB7",
"C9 c #ABB2B6",
"CA c #B5B6B8",
"CB c #8894CA",
"CC c #839FDB",
"CD c #85A8C5",
"CE c #87B3C8",
"CF c #85B8D6",
"D0 c #9AABCF",
"D1 c #94A5D9",
"D2 c #93BACA",
"D3 c #97BCD2",
"D4 c #9BB7E4",
"D5 c #A2BECD",
"D6 c #A6B3D4",
"D7 c #B4BBC3",
"D8 c #A2B5E0",
"D9 c #B5BEE0",
"DA c #94C6D7",
"DB c #8ACBE4",
"DC c #82D5EB",
"DD c #89DAFC",
"DE c #97CAE5",
"DF c #98D5E9",
"E0 c #96D9F2",
"E1 c #90ECD1",
"E2 c #94E9EF",
"E3 c #A9C9D9",
"E4 c #B7C2C9",
"E5 c #BFC5D5",
"E6 c #B2D2DC",
"E7 c #A7CCE4",
"E8 c #A8D3E8",
"E9 c #A6DEFE",
"EA c #B6C8E8",
"EB c #B7D6E5",
"EC c #B4DCF0",
"ED c #A3ECD6",
"EE c #ADEFF4",
"EF c #C5C9DD",
"F0 c #C0CAE6",
"F1 c #C3DBEA",
"F2 c #C0DFF0",
"F3 c #D4D9EB",
"F4 c #CDE2ED",
"F5 c #C5E5F4",
"F6 c #C9F1EF",
"F7 c #C7F5F9",
"F8 c #D7E8EE",
"F9 c #D8EAF4",
"FA c #D9F8FB",
"FB c #E6E5E6",
"FC c #E6E8F3",
"FD c #E8F5F9",
"FE c #F9FCFD",
"   c None",
"                                                                                                ",
"                                                                                                ",
"                  E4E5  D7C8C8                                                                  ",
"          CEDBACA8CD8A8A9D7D77768A8AC9                                                          ",
"      AAE89D1603213765B5868484EEB986DBC1CA                                                      ",
"    A3F54E000529406B77B5E28180B1EEE1E1B28FC9                                                    ",
"  8BFADE01062F35457B6466B1E26287E9E9FDEEA98FC9                                                  ",
"  DEFEAA00265433176468807F676182DDEEFEFEEE44C0CA                                                ",
"8AF9FEAC0027333B6E4672B06783F7FEFEFDFDFEFD728CC5                                                ",
"8AFDFEEC04270D333D6DB4FDFEDDB4EDE1EDFAFEFDB3918E                                                ",
"69FCFEFD8A070D333650B36E1B5D5F7283BAE1FDF7858AC48F                                              ",
"89DBFEFEF222080F0F0E3634145D477ABBFAAEEDB779554D8C                                              ",
"C48AE9FEFEE8160D33160F16371B4F46AEE1B2EDB1785203CEBD                                            ",
"  8A99E9FEFAE7430D35383718507151EE68DDEE71763002698E                                            ",
"  C38AA7E0F9F5E68A0F3B4E49506E7E42A1E96E717C2F0544EABD                                          ",
"    8C97AAE8F9F9EBCE3A155288A46B38486B456C5628028AE732                                          ",
"      5A8BCFE8F9FDF4EBAA4B37539094CCA3CFCDC72604DEE632                                          ",
"        8DA6CFEBF4FDFDF8F1D2904D4B5359C2BC2925E7F8E330                                          ",
"          8CAACFE6F2F9FDFDFDF8F1E6D5CECED2EBFDFDFDD65A                                          ",
"            8FCECFE3EBF4F9FDFDFEFDFDFDFDFDFEFDFEFDE42D                                          ",
"              BF8CD3D3E3EBF1F4F8F9F9FDFDFDFEFDFEFEF9D25A                                        ",
"                  BD8CD3D2D3E3E3EBEBF2F2F4FDFDFDFDFDFDE38DC8                                    ",
"                      BE325ACECDCEDADEE7ECF8FDFEFEFDFEF9E3CE908D89919391C8                      ",
"                          C0BD5ACDA3ACDADFF2FDFDF9DFA68A8B69A8DCB1BBEEECA08DC6                  ",
"                                C53198AADEF2FAEB69040123386E79E2B986F7FEF7F6DABFCA              ",
"                                    5698DBF5F56900062E356DB3F7FDFAFDE2EEFAF6EDCE93CA            ",
"                                    C892CFF5E8040630373E797E77B0B3B0E1FAFAFAFDBA2EBFCA          ",
"                                      A3ACECE701265233506DA1DCE0E2B2AFF7E2FDFEFA9C5AC5          ",
"                                      AAACECDF0427163B6B3E72E267656DBAEDEDFAFEFEBB6954CA        ",
"                                      AAA7E8EC55070C3C383772B18564777FAFB2F6FEFEF7634556        ",
"                                      8B99ADECDA1F083B383D756A60688076B5FAFEFEF7DD60401AC3      ",
"                                      8B8A9ADBE9AA08331609151C41675E646ADFEEEDAD796A11384C      ",
"                                      9157499EDEDE8B0D0F3745486D7E3E51419AB6DF9C7B8B010946BE    ",
"                                        554E6FA2DEDB9833333A456B6D7E6B3F6BA0A26C9B880103462B    ",
"                                        544A4E7CA7DEDB9E40334B5749483E3D6B483D508A4D00035021    ",
"                                          3F4A5896A7DEDBA96937165591925845453D6B941D000E6D21BE  ",
"                                          91174C5897ABDEDFAD9A6542375591CDD0D6E5CA0703486E21BD  ",
"                                            5417245CA5CCD4E8DFA2746B47403843528915376D77A113BD  ",
"                                              5418195BCBD1D8EAF2ECDCA16E6D6D6B6B6E79E0FE702AC0  ",
"                                                893F1525C2D6D9F0F3F9FDFDFAF5F5FAFEFEFEFD1030    ",
"                                                  C122371552C6EFF3FCFCFEFEFEFEFEFEFEFD3C1E32    ",
"                                                      56223715188DE4FBFEFEFEFEFEFDAA361230      ",
"                                                          56223D160E15183F3F3F370F0A1E30        ",
"                                                              8F2C2320100B0B0B112A3032          ",
"                                                                    C0BD323232BDC0              ",
"                                                                                                ",
"                                                                                                ",
"                                                                                                "};
