/* XPM */
/* c:\Program Files\Warcraft III\Warcraft III.exe */
static char *icon[] = {
"48 48 173 2",
"00 c #000000",
"01 c #070707",
"02 c #887C68",
"03 c #866233",
"05 c #6A4915",
"08 c #C2A173",
"09 c #5B3A07",
"0A c #664614",
"0B c #735220",
"0C c #4B361B",
"0D c #3E3019",
"0E c #473620",
"0F c #705531",
"12 c #916E3C",
"13 c #7C5A28",
"14 c #6C4B19",
"15 c #333333",
"16 c #474747",
"17 c #313131",
"18 c #5C5C5C",
"1A c #4C4C4C",
"1B c #615A54",
"1C c #787878",
"1D c #3E4635",
"1E c #919191",
"1F c #070F07",
"21 c #51554C",
"22 c #6C716A",
"23 c #2A2A2A",
"24 c #323F16",
"25 c #7C7570",
"26 c #5C4C3D",
"27 c #151C08",
"28 c #344615",
"29 c #6C6C6C",
"2A c #070E07",
"2D c #253A07",
"2E c #323729",
"2F c #2C3329",
"32 c #141B08",
"33 c #070B07",
"34 c #3A520F",
"35 c #283612",
"36 c #353535",
"38 c #0F2207",
"3A c #527319",
"3B c #2C4B07",
"3C c #070807",
"3D c #2A4607",
"3E c #517019",
"3F c #384F19",
"40 c #192507",
"41 c #273411",
"42 c #404735",
"43 c #334B07",
"44 c #405A08",
"45 c #293522",
"48 c #729929",
"49 c #365507",
"4A c #081907",
"4C c #2A4707",
"4E c #081507",
"4F c #4A6A12",
"51 c #1E2A07",
"52 c #345107",
"53 c #476707",
"54 c #0E1C07",
"5A c #789E28",
"5B c #597B19",
"5D c #0B1907",
"5E c #466507",
"5F c #6C941B",
"60 c #52710B",
"61 c #927040",
"62 c #40551B",
"63 c #567907",
"65 c #1B2907",
"67 c #3A5A07",
"68 c #648915",
"69 c #86B12A",
"6A c #92B833",
"6B c #79A122",
"70 c #1C2907",
"71 c #2C3C14",
"72 c #3B3B3B",
"73 c #A17D4C",
"74 c #3C5219",
"75 c #344908",
"76 c #82A62C",
"7A c #577E07",
"7B c #9CC93D",
"7C c #B5E457",
"7D c #7BA320",
"80 c #122907",
"82 c #516C19",
"84 c #19220B",
"85 c #203507",
"86 c #203307",
"87 c #1B2707",
"88 c #87AD3E",
"89 c #98C742",
"8A c #4F6C07",
"8B c #A0C74B",
"8C c #66861B",
"8F c #92B93A",
"90 c #425614",
"91 c #4D6822",
"92 c #364A16",
"93 c #30420E",
"94 c #A4D347",
"96 c #5F8214",
"98 c #A9DA4A",
"99 c #36461B",
"9A c #293812",
"9B c #253311",
"9D c #57564C",
"9F c #A5D440",
"A0 c #527807",
"A1 c #659607",
"A2 c #93C530",
"A3 c #3E5D07",
"A4 c #283511",
"A5 c #253111",
"A6 c #223A07",
"A9 c #B1B0A7",
"AA c #3E5415",
"AB c #364F07",
"AC c #363633",
"AD c #5A7E07",
"AF c #1E3107",
"B0 c #466707",
"B2 c #678C26",
"B3 c #6F9126",
"B4 c #56730E",
"B6 c #88C028",
"BC c #B3E94F",
"C0 c #28360F",
"C4 c #405A11",
"C5 c #EEEEC6",
"C6 c #878482",
"C8 c #456208",
"CA c #FFFFD5",
"CB c #5B7E0F",
"CD c #658D08",
"CE c #FFFFDF",
"D0 c #2A3B12",
"D2 c #737373",
"D4 c #FFFFF9",
"D5 c #8D917C",
"D7 c #4F6816",
"DB c #75A615",
"DE c #DFFF6B",
"DF c #D2FF62",
"E1 c #1C3107",
"E3 c #799940",
"E4 c #69853A",
"E5 c #314607",
"E7 c #5A8308",
"E8 c #455F08",
"EA c #545454",
"EF c #405D08",
"F2 c #4B6815",
"F3 c #2A4007",
"F5 c #664B27",
"F6 c #564227",
"F7 c #30340E",
"F8 c #4A5B0F",
"F9 c #87A333",
"FA c #628212",
"FB c #616B20",
"FC c #313115",
"FD c #3C451B",
"   c None",
"272727272727272727272727272727272727272727272727272727272727272727272727272727272727272727272727",
"2732322A3232272727272727272727323232272727272727272727273232323232272727272727272727321F1F322727",
"32332A151F331F33333333333333331F1F1F32323227273227323232321F2A1F2A33333333333333331F3C84233C2A32",
"33291E1E1E29840D0D0D0D0D0D0DFC361E1E17238484272784842723EA1E1E29230D0D0D0D0D0D0D0D84291E1E1E292A",
"01291C72EA1A2E0E12120312120E0E36EA3623232323232323172E237272EA180E0EF603030312120E23EA1A16C62901",
"172932A92329840E14141414140E0E1F4E841F27842323843223238432331F84270EF614141414140E278416A9272923",
"8429AC237216FC0E140A0C0C140EA52784323232328484271F23273284842732230EF60A0C0CF50B0E231A3623422927",
"3329723215722727272784A5848417848484232A2A27178432231F1F2723232784FCFC8427272784842716232716292A",
"32272732843323EA1AEA18297215841F842717162384233223233223848427322736EA29EA1AEA18EA23338432273232",
"2A0E0E0E0E2718C6297218EA7223014134241F16181A178416231523842484323223721C2918D218181AF70E0E0EFC1F",
"330EF6F60E8418D272273623271F84AAF8908400161C29181872233293902427332723181615291A1816FC0EF6F6FC2A",
"33F603141484181834E52723721FF72490F2C432331518EA722301AB4F34922727842372233218291872A5F51412FC2A",
"330E03140A84187260F8001516847128719390D7270023230133B49199A5285136152323325E2FEA1816A5F51403FC2A",
"330E030E1484EA36497D012372243528FDFD62B36B87000087A1DB4223FDD084231A172327A1351629EAFCF51412FC2A",
"330C12141484161684A2D70123C028712862915F6998E434A296B391622893A523362301246951EA291AA5051412FC2A",
"2A0D0E0E0E331618015F6A003228C44F927462B4DBA269966B7D8C91FDFC926343322323B6CB32291C7233090E0EA51F",
"01291E1E1E72152933F36A841FAB45C8A0499235B38BF9F97D8F91A5A5908A8A341F01FB691F2329C615291E1E1E2933",
"012918161A36151C2385B4A532FD181A23907AEF28B37C088BE42AD0DBDB911545273348C44023181C15721616292901",
"332923A92384722945F334A52736233223EAB3ADB39A74FBD7A568E760FB16162272325B71512329D2172716A9842933",
"3C297284AC1D421A879328283327849B51847223E3DE91E35BDE6A7227231F27842327C471E52F181C36721784162933",
"2A297232171572722734A5352A24FD27A532333236E45E9B4FD57284275D9BA4D01FA5348453A572291736233216291F",
"4E842327841F7223274F013C8428288416D21F322A27F3A5510151381F18158628A5843284A0271618172A8427FC8432",
"1F0D0E0E0DA5182327B471019A28D0FB261A1A151F84F32D934EA53623C691E58624018468753C211816840D0E0EA54E",
"2A0EF6F60EFC728423997D27A58C8C93B3FBFB3500A6B369273C93422691FA44B334335FCB2323361872A50EF6F6FC2A",
"330E0314F584322733018C5B84E8DEDEDB7DB333FCB07CDE4C32928AB4ABE8DEDE3DFD7D1F238484EA72FCF51403FC2A",
"330E0314F584230E840092FB27655BDF9F7D21A5DF5FE3BCAADE42AB6B7BDECAE4E124A53215323C23230DF51403FC1F",
"330C1214F5A5F60F233C841745A5403B8F8B8492628A88DE8A5A4271969F943A86248401272384230D84FCF51412FC2A",
"2A0D0E0E0E33F60F8484231D9924512DF902452700408BDE8A3C84273AF9A351A5FDA53C2784FCF6F6FC270C0E0EA51F",
"01291E1E1E72F6268423152493248490B374B3B43200359333273D9390CDC8844591353C842EA50F0323291E1E1E2933",
"012918721672F60E0D232A62FB9A24FB282791893D4A242E84805B6971456793FC91623323F6232E730D721616292901",
"332923A923230E0EF68432E48C41622716A9A5DE7C34273252B3DE7B45A945E5A562F990010E0E84730F2A16A9842933",
"3C297223AC1AA50EF63C45F9FB99FB001EC5519FDE8B24705ADFDE6B00C51800FD28487D5427F60DF513722F84162933",
"2A297232157284F6F6335148B299B332C6D42300008435D0321F1F0018CE2501FBA58CDBC0010EF6F60E72233216291F",
"4E842327842723F60E334E90B384A52417290134B3D7B3C4FB51650018A9162E6BA55BD7323384F6F60D1F8427FC8432",
"1F0D0E0E0DFC230E0E4E33275B9132FB51A56ADFDF7D6A7DDE7669BC5400FC74AAC0D7233C321F0EF623840E0E0EA54E",
"2A0EF6F60EA54E0E0E328433FC91A5AF91DE7C289A841F843F3582DE69FBE424513462322A321FFCF64EFC0EF6F6FC2A",
"33F60314F5A52A23233227323CFCFD84934FF33227320101000086938A6824847191232A27271F230E1FFCF514120D2A",
"330E0314F5842A84273227272A84FDA5A593A5A5A562FB9224718484A59A3224E4FC33322727328423330DF51403FC1F",
"330E611413FC1F3227272727271F849951273251915BF9F9A23E840127272891FC3C322727273284231F0D0F1473FC1F",
"2A0D0E0E0E841F3232323232321F1FFC92A5A582824551759291FB8471F882A50132323232323232321FF70E0E0E841F",
"2A237223AC232A3C333333333333011F242462D7421A323C2317B4F824F224234E3C3333333333333C1F23152372271F",
"01291E1E1EEA0DF60303030303030E171F2490847221189D9D1A23343A4984EA2603030303030303F615181E1E1E2901",
"272923182323230EF6F6F6F6F6F50E843284418427849D1B1B1523D04FA52723230C0FF6F6F6F6F60E84237216232923",
"172923A91572A50EF6F60E14F6F60E2323338484A527332A844E84A5842A2372840C0E0E140EF6F60E237272A9AC2927",
"2A291601AC1AFC0EF60C0C0E0C0E0E23728432272727323227278427328436EA230EF6F60C0C0CF60E23EA2332EA2933",
"1F29237223843232323227273227272784272727322727272727272727278484321F4E2727273232324E842323232932",
"271F84EA842A3232323232323232323232272727272727272727272727273232323232323232323232321F8423323227",
"272732331F2727272727272727272727272727272727272727272727272727272727272727272727272727324E272727"};
