/* XPM */
/* C:\Team17\Worms World Party\wwp.exe */
static char *icon[] = {
"32 32 52 2",
"02 c #008000",
"06 c #008080",
"27 c #006600",
"2D c #009900",
"2E c #339900",
"2F c #669900",
"30 c #999900",
"33 c #00CC00",
"34 c #33CC00",
"35 c #66CC00",
"36 c #99CC00",
"39 c #66FF00",
"3B c #CCFF00",
"48 c #006633",
"4E c #009933",
"4F c #339933",
"50 c #669933",
"55 c #33CC33",
"56 c #66CC33",
"57 c #99CC33",
"5A c #33FF33",
"5B c #66FF33",
"5C c #99FF33",
"5D c #CCFF33",
"6B c #006666",
"70 c #009966",
"71 c #339966",
"77 c #33CC66",
"7C c #33FF66",
"7D c #99FF66",
"81 c #009999",
"8A c #006699",
"90 c #339999",
"96 c #33CC99",
"97 c #66CC66",
"9D c #66CC99",
"9E c #99FF99",
"A0 c #FFFF99",
"AC c #0066CC",
"B2 c #0099CC",
"B3 c #3399CC",
"B9 c #33CCCC",
"BA c #66CCCC",
"CD c #0066FF",
"D3 c #0099FF",
"D4 c #3399FF",
"DA c #33CCFF",
"DB c #66CCFF",
"E1 c #99FFFF",
"E4 c #66FF66",
"F6 c #FFFBF0",
"   c None",
"                                                                ",
"                        DB77777777777777                        ",
"                  DADBDBDBDB557777779071555555                  ",
"                DADADBE4555555555555555555553433                ",
"            DADADADADABA7C5555779D9D97554F4F2D332D55            ",
"          B9B9DADABADADADAD4D4D4D4D4D4B377333333557081          ",
"        96B9B95A5A5A5A77B9BABABABABADAD4D3D3B2D3D3812D33        ",
"        96775555E47D5555555555555555345B9DD3D3BA5B2D2D2D        ",
"      D496554F7CF6F6D4D4B377779055553333349DD3A0332D2D2D33      ",
"    D4D45555559EA09DD4B390D4B39033332D333335B3D339332D022702    ",
"    96D4555555A07D4F5555554F7033332D2D33333339D3B257342D2D2D    ",
"    96969755555555565656575C553333332D2D33333335B2D355342D2D    ",
"  55559690565656979D9D96B2905D342D332D2D33332D2D57B28A352D0202  ",
"  4F55575D56565D5D5655565D70B25D352D333333332D2D36818A2D022727  ",
"  4F4F4F55555533333333333335B2555D332D2D2D2D2D36708A6B2D022D02  ",
"  4F022D332D2D33339EA0332D3BB2703B362D2D2D2D35368A8A8A2D2E0202  ",
"  2D022D332D2D3333A0972D3334B2ACB2563634343636708A8A8A6B352702  ",
"  332D2D3333332D2D2D2D2D342DACE1D3AC8A815655708A8A8A8A8A022F02  ",
"  3327022D2D2D2D2D2D2D2D352DD3D3D3D3CDACAC8A8A8A6B8A8A8A8A022F  ",
"  2D2D2D2D2D2D2D343434353581ACD3CDACACACACAC8A6B6B8A8A8A8A8A8A  ",
"    2D2D022D3B71814E2D4E707006CDB2ACB2ACACAC8A6B2E3030305027    ",
"    2D2D2D34818AAC8AAC7070708A8AACACB2ACAC8A8A2F2D0202022E4E    ",
"    2D023681ACACAC8A8A70563435568AACACACAC8A482F022702022E2E    ",
"      0270ACACACAC8A56362D2D2D024E8A8AACACAC2E2D022727022E      ",
"        ACACACACAC56362D02022D022E2F6B6B8A6B2F020202022E        ",
"          AC8AAC8A362D2D27022727022F506B6B2E2E0202022E2E        ",
"            AC6B702D020202022727022D2F2E2E2F0202022E2E          ",
"              8A2D2D2727270202270202022E020202272E2E            ",
"                2D02272727020227020202270227272E                ",
"                  2E2E2E270202020202022E2E2E2E                  ",
"                        2E2E2E2E2E2E2E2E                        ",
"                                                                "};
