/* XPM */
/* c:\Program Files\Xfire\xfire.exe */
static char *icon[] = {
"48 48 32 2",
"07 c #C0C0C0",
"0A c #040404",
"0C c #0C0C0C",
"0E c #161616",
"0F c #1C1C1C",
"11 c #292929",
"12 c #555555",
"14 c #424242",
"15 c #393939",
"43 c #333333",
"66 c #333366",
"6C c #336666",
"6D c #666666",
"8B c #336699",
"91 c #669999",
"92 c #999999",
"AE c #666699",
"B5 c #9999CC",
"BB c #99CCCC",
"BC c #CCCCCC",
"EA c #5F5F5F",
"EC c #868686",
"ED c #969696",
"EF c #B2B2B2",
"F0 c #D7D7D7",
"F1 c #DDDDDD",
"F2 c #E3E3E3",
"F3 c #EAEAEA",
"F4 c #F1F1F1",
"F7 c #A0A0A4",
"FF c #FFFFFF",
"   c None",
"  141414141414141414141414141414141414141414141414141414141414141414141414141414141414141414    ",
"14FFF4F3F3F3F3F3F3F3F3F3F3F3F3F3F3F3F3F3F3F3F3F3F3F3F3F3F3F3F3F3F3F3F3F3F3F3F3F3F3F3F3F3F2BC14  ",
"14F4F3F2F2F2F2F2F2F2F2F2F2F2F2F2F2F2F2F2F2F2F2F2F2F2F2F2F2F2F2F2F2F2F2F2F2F2F2F2F2F2F2F2F0EF140A",
"14F3F2F1F1F1F1F1F1F1F1F1F1F1F1F1F1F1F1F1F1F1F1F1F1F1F1F1F1F1F1F1F1F1F1F1F1F1F1F1F1F1F1F10792140A",
"14F3F2F1F1F1F1F1F1F1F1F1F1F1F1F1F1F1F1F1F1F1F1F1F1F1F1F1F1F1F1F1F1F1F1F1F1F1F1F1F1F1F1F10792140A",
"14F3F2F1F1F1F1F1F1F1F1F1F1F1F1F1F1F1F1F1F1F1F1F1F1F1F1F1F1F1F1F1F1F1F1F1F1F1F1F1F1F1F1F10792140A",
"14F3F2F1F1F1F1F1F1F1F1F1F1F1F1F1F1F1F1F1F1F1F1F1F1F1F1F1F1F1F1F1F1F1F1F1F1F1F1F1F1F1F1F10792140A",
"14F3F2F1F1F1F1F1F1F1F1F1F1F1F1F1F1F1F1F1F1F1F1F1F1F1F1F1F1F1F1F1F1F1F1F1F1F1F1F1F1F1F1F10792140A",
"14F3F2F1F1F1F1F1F1F1F1F1F1F1F1F1F1F1F1F1F1F1F1F1F1F1F1F1F1F1F1F1F1F1F1F1F1F1F1F1F1F1F1F10792140A",
"14F4F2F1F1F1F1F1F1F1F1F1F1F1F1F1F1F1F1F1F1F1F1F1F1F1F1F1F1F1F1F1F1F1F1F1F1F1F1F1F1F1F1F1BC92140A",
"14F4F2F1F1F1F1F1F1F1F1F1F1F1F1F1F1F1F1F1F1F1F1F1F1F1F1F1F1F1F1F1F1F1F1F1F1F1F1F1F1F1F1F1BC92140A",
"14F4F3F1F1F1F1F1F1F1F1F1F1F1F1F1F1F1F1F1F1F1F1F1F1F1F1F1F1F1F1F1F1F1F1F1F1F1F1F1F1F1F1F1BCF7140A",
"14F4F3F2F2F2F2F2F2F2F2F2F2F2F2F2F2F2F2F2F2F2F2F2F2F2F2F1F1BC07B5918B8B8B8B8B8B9107F1F2F2BCF7140A",
"14F4F3F2F2F2F2F2F2F2F2F2F2F2F2F2F2F2F2F2F2F2F2F2F2F2BCEFB591AEAE8B8B8B66666666668B91F0F2BCF7140A",
"14F4F3F2F2F2F2F2F2F2F2F2F2F2F2F2F2F2F2F2F2F2F2F1BC07EFEFBCF0F1F1F1F2F1BC918B6666666691F2BCF7140A",
"14F4F3F2F2F2F2F2F2F2F2F2F2F2F2F2F2F2F2F2F2F1F0BCF0F2F2F2F2F2F2F2F2F2F2F2F2F0AE6666668BF2BCF7140A",
"14F4F3F2F2F2F2F2F2F2F2F2F2F2F2F2F2F2F2F2F1F1F2F2F2F2F2F2F2F2F2F2F2F2F2F2F2F2BC8B66668BF2BCF7140A",
"14F4F3F2F2F2F2F2F2F2F2F1F1F1F1F1F1F1F1F1F2F2F2F2F2F2F1F1F1F1F1F1F1F1F1F2F2F2F2AE6666AEF2BCF7140A",
"14F4F3F2F2F2F2F2F2F2F1F7ECECECECECECECECF7F1F2F2F1EFECECECECECECECECF7F1F2F2F2AE6666B5F2BCF7140A",
"14F4F3F2F2F2F2F2F2F2F2EF430A0A0A0A0A0A0A0C6DF0F0EC0E0A0A0A0A0A0A0A11F7F2F2F2F18B6691F1F2F0F7140A",
"14F4F3F2F2F2F2F2F2F2F2F2BC6D0E0A0A0A0A0A0A0A15140A0A0A0A0A0A0A0E6D07F2F2F2F2EF8B8BF0F2F2F0F7140A",
"14F4F3F3F3F3F3F3F3F3F1F1F3F3EF150A0A0A0A0A0A0A0A0A0A0A0A0A0A4392F3F3F3F3F3F1AE8BBCF3F3F3F0F7140A",
"14F4F3F3F3F3F3F3F2BC07F1F3F3F3BC6D0F0A0A0A0A0A0A0A0A0A0A0FEABCF3F3F3F3F3F2B58B07F3F3F3F3F0F7140A",
"14F4F4F3F3F3F3F2EFB5F0F3F3F3F3F3F3EC0C0A0A0A0A0A0A0A0A0AECF3F3F3F3F3F3F30791BCF3F3F3F3F3F0EF140A",
"14F4F4F3F3F3F2B5AEBCF3F3F3F3F3F2EFEA0A0A0A0A0A0A0A0A0A0A12EFF2F3F3F3F3F0B5F0F3F3F3F3F3F3F0EF140A",
"14F4F4F3F3F3B58B07F3F3F3F3F3F1EC0F0A0A0A0A0A0A0A0A0A0A0A0A0EECF0F3F3F2BCF2F3F3F3F3F3F3F3F0EF140A",
"14F4F4F3F3B56C91F3F3F3F3F307EA0A0A0A0A0A0A0A0E0E0A0A0A0A0A0A0A12EFF2F3F3F3F3F3F3F3F3F3F3F0EF140A",
"14F4F4F3078B8B07F3F3F3F0EC0F0A0A0A0A0A0A0A11ECED430A0A0A0A0A0A0A0EECF0F3F3F3F3F3F3F3F3F3F0EF140A",
"14F4F4F18B668BF3F3F3F292431143434343434312EFF3F307EA4343434343431143EDF2F3F3F3F3F3F3F3F3F0EF140A",
"14FFF4B56666AEF3F3F3F3BC07BCF0F0BCBCBCBCF2F3F3F3F3F3BCBCBCBCF0F0BC0707F3F3F3F3F3F3F3F3F3F1EF140A",
"14FFF48B66668BF1F4F4F4F4F4F4F4F4F4F4F4F4F4F4F4F4F3F4F4F4F4F4F4F4F4F4F4F4F4F4F4F4F4F4F4F4F1EF140A",
"14FFF48B66668BB5F4F4F4F4F4F4F4F4F4F4F4F4F4F3F3F3F3F3F4F4F4F4F4F4F4F4F4F4F4F4F4F4F4F4F4F4F1EF140A",
"14FFF4916666668BB5BCF4F4F4F4F4F4F4F3F2F0F0F1F1F3F3F4F4F4F4F4F4F4F4F4F4F4F4F4F4F4F4F4F4F4F1EF140A",
"14FFF4F08B666666668B91B5B5BBBBB5BBEFEF07F0F2F3F4F4F4F4F4F4F4F4F4F4F4F4F4F4F4F4F4F4F4F4F4F1EF140A",
"14FFF4F4F0918B66666666668B8BAE91B507BCF3F4F4F4F4F4F4F4F4F4F4F4F4F4F4F4F4F4F4F4F4F4F4F4F4F1EF140A",
"14FFF4F4F4F4F4F4F4F4F4F4F4F4F4F4F4F4F4F4F4F4F4F4F4F4F4F4F4F4F4F4F4F4F4F4F4F4F4F4F4F4F4F4F1EF140A",
"14FFF4F4F4F4F4F4F4F4F4F4F4F4F4F4F4F4F4F4F4F4F4F4F4F4F4F4F4F4F4F4F4F4F4F4F4F4F4F4F4F4F4F4F1EF140A",
"14FFFFF4F4F4F4F4F4F4F4F4F4F4F4F4F4F4F4F4F4F4F4F4F4F4F4F4F4F4F4F4F4F4F4F4F4F4F4F4F4F4F4F4F1EF140A",
"14FFFFF4F4F4F4F4F4F4F4F4F4F4F4F4F4F4F4F4F4F4F4F4F4F4F4F4F4F4F4F4F4F4F4F4F4F4F4F4F4F4F4F4F1EF140A",
"14FFFFF4F4F4F4F4F4F4F4F4F4F4F4F4F4F4F4F4F4F4F4F4F4F4F4F4F4F4F4F4F4F4F4F4F4F4F4F4F4F4F4F4F1EF140A",
"14FFFFF4F4F4F4F4F4F4F4F4F4F4F4F4F4F4F4F4F4F4F4F4F4F4F4F4F4F4F4F4F4F4F4F4F4F4F4F4F4F4F4F4F1EF140A",
"14FFFFFFFFFFFFFFFFFFFFFFFFFFFFFFFFFFFFFFFFFFFFFFFFFFFFFFFFFFFFFFFFFFFFFFFFFFFFFFFFFFFFFFF2EF140A",
"14FFFFFFFFFFFFFFFFFFFFFFFFFFFFFFFFFFFFFFFFFFFFFFFFFFFFFFFFFFFFFFFFFFFFFFFFFFFFFFFFFFFFFFF2EF140A",
"14FFFFFFFFFFFFFFFFFFFFFFFFFFFFFFFFFFFFFFFFFFFFFFFFFFFFFFFFFFFFFFFFFFFFFFFFFFFFFFFFFFFFFFF2EF140A",
"14FFF4F2F2F2F2F2F2F2F2F2F2F2F2F2F2F2F2F2F2F2F2F2F2F2F2F2F2F2F2F2F2F2F2F2F2F2F2F2F2F2F2F2BCEF140A",
"14F307EFEFEFEFEFEFEFEFEFEFEFEFEFEFEFEFEFEFEFEFEFEFEFEFEFEFEFEFEFEFEFEFEFEFEFEFEFEFEFEFEFEFEF140A",
"  1414141414141414141414141414141414141414141414141414141414141414141414141414141414141414140A0A",
"    0A0A0A0A0A0A0A0A0A0A0A0A0A0A0A0A0A0A0A0A0A0A0A0A0A0A0A0A0A0A0A0A0A0A0A0A0A0A0A0A0A0A0A0A0A  "};
